PROC main()
    MoveL [[0,0,10],[30,-30,30],[0, 0, 0, 0],[9000000000.0, 9000000000.0, 9000000000.0, 9000000000.0, 9000000000.0, 9000000000.0],  v1000, z0, tool0]
    MoveL [[338,14,10],[30,-30,30],[0, 0, 0, 0],[9000000000.0, 9000000000.0, 9000000000.0, 9000000000.0, 9000000000.0, 9000000000.0], v1000, z0, tool0]
    MoveL [[377,24,5],[30,-30,30],[0, 0, 0, 0],[9000000000.0, 9000000000.0, 9000000000.0, 9000000000.0, 9000000000.0, 9000000000.0],  v1000, z0, tool0]
    MoveL [[377,24,10],[30,-30,30],[0, 0, 0, 0],[9000000000.0, 9000000000.0, 9000000000.0, 9000000000.0, 9000000000.0, 9000000000.0], v1000, z0, tool0]
    MoveL [[199,28,10],[30,-30,30],[0, 0, 0, 0],[9000000000.0, 9000000000.0, 9000000000.0, 9000000000.0, 9000000000.0, 9000000000.0], v1000, z0, tool0]
    MoveL [[262,17,5],[30,-30,30],[0, 0, 0, 0],[9000000000.0, 9000000000.0, 9000000000.0, 9000000000.0, 9000000000.0, 9000000000.0],  v1000, z0, tool0]
    MoveL [[262,17,10],[30,-30,30],[0, 0, 0, 0],[9000000000.0, 9000000000.0, 9000000000.0, 9000000000.0, 9000000000.0, 9000000000.0], v1000, z0, tool0]
    MoveL [[301,20,10],[30,-30,30],[0, 0, 0, 0],[9000000000.0, 9000000000.0, 9000000000.0, 9000000000.0, 9000000000.0, 9000000000.0], v1000, z0, tool0]
    MoveL [[285,19,5],[30,-30,30],[0, 0, 0, 0],[9000000000.0, 9000000000.0, 9000000000.0, 9000000000.0, 9000000000.0, 9000000000.0],  v1000, z0, tool0]
    MoveL [[285,19,10],[30,-30,30],[0, 0, 0, 0],[9000000000.0, 9000000000.0, 9000000000.0, 9000000000.0, 9000000000.0, 9000000000.0], v1000, z0, tool0]
    MoveL [[375,28,10],[30,-30,30],[0, 0, 0, 0],[9000000000.0, 9000000000.0, 9000000000.0, 9000000000.0, 9000000000.0, 9000000000.0], v1000, z0, tool0]
    MoveL [[301,17,5],[30,-30,30],[0, 0, 0, 0],[9000000000.0, 9000000000.0, 9000000000.0, 9000000000.0, 9000000000.0, 9000000000.0],  v1000, z0, tool0]
    MoveL [[301,17,10],[30,-30,30],[0, 0, 0, 0],[9000000000.0, 9000000000.0, 9000000000.0, 9000000000.0, 9000000000.0, 9000000000.0], v1000, z0, tool0]
    MoveL [[284,19,10],[30,-30,30],[0, 0, 0, 0],[9000000000.0, 9000000000.0, 9000000000.0, 9000000000.0, 9000000000.0, 9000000000.0], v1000, z0, tool0]
    MoveL [[205,33,5],[30,-30,30],[0, 0, 0, 0],[9000000000.0, 9000000000.0, 9000000000.0, 9000000000.0, 9000000000.0, 9000000000.0],  v1000, z0, tool0]
    MoveL [[205,33,10],[30,-30,30],[0, 0, 0, 0],[9000000000.0, 9000000000.0, 9000000000.0, 9000000000.0, 9000000000.0, 9000000000.0], v1000, z0, tool0]
    MoveL [[377,25,10],[30,-30,30],[0, 0, 0, 0],[9000000000.0, 9000000000.0, 9000000000.0, 9000000000.0, 9000000000.0, 9000000000.0], v1000, z0, tool0]
    MoveL [[413,56,5],[30,-30,30],[0, 0, 0, 0],[9000000000.0, 9000000000.0, 9000000000.0, 9000000000.0, 9000000000.0, 9000000000.0],  v1000, z0, tool0]
    MoveL [[413,56,10],[30,-30,30],[0, 0, 0, 0],[9000000000.0, 9000000000.0, 9000000000.0, 9000000000.0, 9000000000.0, 9000000000.0], v1000, z0, tool0]
    MoveL [[171,46,10],[30,-30,30],[0, 0, 0, 0],[9000000000.0, 9000000000.0, 9000000000.0, 9000000000.0, 9000000000.0, 9000000000.0], v1000, z0, tool0]
    MoveL [[199,29,5],[30,-30,30],[0, 0, 0, 0],[9000000000.0, 9000000000.0, 9000000000.0, 9000000000.0, 9000000000.0, 9000000000.0],  v1000, z0, tool0]
    MoveL [[199,29,10],[30,-30,30],[0, 0, 0, 0],[9000000000.0, 9000000000.0, 9000000000.0, 9000000000.0, 9000000000.0, 9000000000.0], v1000, z0, tool0]
    MoveL [[220,52,10],[30,-30,30],[0, 0, 0, 0],[9000000000.0, 9000000000.0, 9000000000.0, 9000000000.0, 9000000000.0, 9000000000.0], v1000, z0, tool0]
    MoveL [[273,26,5],[30,-30,30],[0, 0, 0, 0],[9000000000.0, 9000000000.0, 9000000000.0, 9000000000.0, 9000000000.0, 9000000000.0],  v1000, z0, tool0]
    MoveL [[273,26,10],[30,-30,30],[0, 0, 0, 0],[9000000000.0, 9000000000.0, 9000000000.0, 9000000000.0, 9000000000.0, 9000000000.0], v1000, z0, tool0]
    MoveL [[401,54,10],[30,-30,30],[0, 0, 0, 0],[9000000000.0, 9000000000.0, 9000000000.0, 9000000000.0, 9000000000.0, 9000000000.0], v1000, z0, tool0]
    MoveL [[373,29,5],[30,-30,30],[0, 0, 0, 0],[9000000000.0, 9000000000.0, 9000000000.0, 9000000000.0, 9000000000.0, 9000000000.0],  v1000, z0, tool0]
    MoveL [[373,29,10],[30,-30,30],[0, 0, 0, 0],[9000000000.0, 9000000000.0, 9000000000.0, 9000000000.0, 9000000000.0, 9000000000.0], v1000, z0, tool0]
    MoveL [[276,28,10],[30,-30,30],[0, 0, 0, 0],[9000000000.0, 9000000000.0, 9000000000.0, 9000000000.0, 9000000000.0, 9000000000.0], v1000, z0, tool0]
    MoveL [[223,56,5],[30,-30,30],[0, 0, 0, 0],[9000000000.0, 9000000000.0, 9000000000.0, 9000000000.0, 9000000000.0, 9000000000.0],  v1000, z0, tool0]
    MoveL [[223,56,10],[30,-30,30],[0, 0, 0, 0],[9000000000.0, 9000000000.0, 9000000000.0, 9000000000.0, 9000000000.0, 9000000000.0], v1000, z0, tool0]
    MoveL [[318,41,10],[30,-30,30],[0, 0, 0, 0],[9000000000.0, 9000000000.0, 9000000000.0, 9000000000.0, 9000000000.0, 9000000000.0], v1000, z0, tool0]
    MoveL [[318,30,5],[30,-30,30],[0, 0, 0, 0],[9000000000.0, 9000000000.0, 9000000000.0, 9000000000.0, 9000000000.0, 9000000000.0],  v1000, z0, tool0]
    MoveL [[318,30,10],[30,-30,30],[0, 0, 0, 0],[9000000000.0, 9000000000.0, 9000000000.0, 9000000000.0, 9000000000.0, 9000000000.0], v1000, z0, tool0]
    MoveL [[320,32,10],[30,-30,30],[0, 0, 0, 0],[9000000000.0, 9000000000.0, 9000000000.0, 9000000000.0, 9000000000.0, 9000000000.0], v1000, z0, tool0]
    MoveL [[328,36,5],[30,-30,30],[0, 0, 0, 0],[9000000000.0, 9000000000.0, 9000000000.0, 9000000000.0, 9000000000.0, 9000000000.0],  v1000, z0, tool0]
    MoveL [[328,36,10],[30,-30,30],[0, 0, 0, 0],[9000000000.0, 9000000000.0, 9000000000.0, 9000000000.0, 9000000000.0, 9000000000.0], v1000, z0, tool0]
    MoveL [[205,34,10],[30,-30,30],[0, 0, 0, 0],[9000000000.0, 9000000000.0, 9000000000.0, 9000000000.0, 9000000000.0, 9000000000.0], v1000, z0, tool0]
    MoveL [[183,47,5],[30,-30,30],[0, 0, 0, 0],[9000000000.0, 9000000000.0, 9000000000.0, 9000000000.0, 9000000000.0, 9000000000.0],  v1000, z0, tool0]
    MoveL [[183,47,10],[30,-30,30],[0, 0, 0, 0],[9000000000.0, 9000000000.0, 9000000000.0, 9000000000.0, 9000000000.0, 9000000000.0], v1000, z0, tool0]
    MoveL [[276,35,10],[30,-30,30],[0, 0, 0, 0],[9000000000.0, 9000000000.0, 9000000000.0, 9000000000.0, 9000000000.0, 9000000000.0], v1000, z0, tool0]
    MoveL [[285,34,5],[30,-30,30],[0, 0, 0, 0],[9000000000.0, 9000000000.0, 9000000000.0, 9000000000.0, 9000000000.0, 9000000000.0],  v1000, z0, tool0]
    MoveL [[285,34,10],[30,-30,30],[0, 0, 0, 0],[9000000000.0, 9000000000.0, 9000000000.0, 9000000000.0, 9000000000.0, 9000000000.0], v1000, z0, tool0]
    MoveL [[296,36,10],[30,-30,30],[0, 0, 0, 0],[9000000000.0, 9000000000.0, 9000000000.0, 9000000000.0, 9000000000.0, 9000000000.0], v1000, z0, tool0]
    MoveL [[306,35,5],[30,-30,30],[0, 0, 0, 0],[9000000000.0, 9000000000.0, 9000000000.0, 9000000000.0, 9000000000.0, 9000000000.0],  v1000, z0, tool0]
    MoveL [[306,35,10],[30,-30,30],[0, 0, 0, 0],[9000000000.0, 9000000000.0, 9000000000.0, 9000000000.0, 9000000000.0, 9000000000.0], v1000, z0, tool0]
    MoveL [[204,42,10],[30,-30,30],[0, 0, 0, 0],[9000000000.0, 9000000000.0, 9000000000.0, 9000000000.0, 9000000000.0, 9000000000.0], v1000, z0, tool0]
    MoveL [[213,36,5],[30,-30,30],[0, 0, 0, 0],[9000000000.0, 9000000000.0, 9000000000.0, 9000000000.0, 9000000000.0, 9000000000.0],  v1000, z0, tool0]
    MoveL [[213,36,10],[30,-30,30],[0, 0, 0, 0],[9000000000.0, 9000000000.0, 9000000000.0, 9000000000.0, 9000000000.0, 9000000000.0], v1000, z0, tool0]
    MoveL [[217,37,10],[30,-30,30],[0, 0, 0, 0],[9000000000.0, 9000000000.0, 9000000000.0, 9000000000.0, 9000000000.0, 9000000000.0], v1000, z0, tool0]
    MoveL [[209,42,5],[30,-30,30],[0, 0, 0, 0],[9000000000.0, 9000000000.0, 9000000000.0, 9000000000.0, 9000000000.0, 9000000000.0],  v1000, z0, tool0]
    MoveL [[209,42,10],[30,-30,30],[0, 0, 0, 0],[9000000000.0, 9000000000.0, 9000000000.0, 9000000000.0, 9000000000.0, 9000000000.0], v1000, z0, tool0]
    MoveL [[305,39,10],[30,-30,30],[0, 0, 0, 0],[9000000000.0, 9000000000.0, 9000000000.0, 9000000000.0, 9000000000.0, 9000000000.0], v1000, z0, tool0]
    MoveL [[275,60,5],[30,-30,30],[0, 0, 0, 0],[9000000000.0, 9000000000.0, 9000000000.0, 9000000000.0, 9000000000.0, 9000000000.0],  v1000, z0, tool0]
    MoveL [[275,60,10],[30,-30,30],[0, 0, 0, 0],[9000000000.0, 9000000000.0, 9000000000.0, 9000000000.0, 9000000000.0, 9000000000.0], v1000, z0, tool0]
    MoveL [[273,43,10],[30,-30,30],[0, 0, 0, 0],[9000000000.0, 9000000000.0, 9000000000.0, 9000000000.0, 9000000000.0, 9000000000.0], v1000, z0, tool0]
    MoveL [[293,40,5],[30,-30,30],[0, 0, 0, 0],[9000000000.0, 9000000000.0, 9000000000.0, 9000000000.0, 9000000000.0, 9000000000.0],  v1000, z0, tool0]
    MoveL [[293,40,10],[30,-30,30],[0, 0, 0, 0],[9000000000.0, 9000000000.0, 9000000000.0, 9000000000.0, 9000000000.0, 9000000000.0], v1000, z0, tool0]
    MoveL [[333,39,10],[30,-30,30],[0, 0, 0, 0],[9000000000.0, 9000000000.0, 9000000000.0, 9000000000.0, 9000000000.0, 9000000000.0], v1000, z0, tool0]
    MoveL [[323,45,5],[30,-30,30],[0, 0, 0, 0],[9000000000.0, 9000000000.0, 9000000000.0, 9000000000.0, 9000000000.0, 9000000000.0],  v1000, z0, tool0]
    MoveL [[323,45,10],[30,-30,30],[0, 0, 0, 0],[9000000000.0, 9000000000.0, 9000000000.0, 9000000000.0, 9000000000.0, 9000000000.0], v1000, z0, tool0]
    MoveL [[307,58,10],[30,-30,30],[0, 0, 0, 0],[9000000000.0, 9000000000.0, 9000000000.0, 9000000000.0, 9000000000.0, 9000000000.0], v1000, z0, tool0]
    MoveL [[306,41,5],[30,-30,30],[0, 0, 0, 0],[9000000000.0, 9000000000.0, 9000000000.0, 9000000000.0, 9000000000.0, 9000000000.0],  v1000, z0, tool0]
    MoveL [[306,41,10],[30,-30,30],[0, 0, 0, 0],[9000000000.0, 9000000000.0, 9000000000.0, 9000000000.0, 9000000000.0, 9000000000.0], v1000, z0, tool0]
    MoveL [[323,58,10],[30,-30,30],[0, 0, 0, 0],[9000000000.0, 9000000000.0, 9000000000.0, 9000000000.0, 9000000000.0, 9000000000.0], v1000, z0, tool0]
    MoveL [[318,41,5],[30,-30,30],[0, 0, 0, 0],[9000000000.0, 9000000000.0, 9000000000.0, 9000000000.0, 9000000000.0, 9000000000.0],  v1000, z0, tool0]
    MoveL [[318,41,10],[30,-30,30],[0, 0, 0, 0],[9000000000.0, 9000000000.0, 9000000000.0, 9000000000.0, 9000000000.0, 9000000000.0], v1000, z0, tool0]
    MoveL [[202,47,10],[30,-30,30],[0, 0, 0, 0],[9000000000.0, 9000000000.0, 9000000000.0, 9000000000.0, 9000000000.0, 9000000000.0], v1000, z0, tool0]
    MoveL [[206,42,5],[30,-30,30],[0, 0, 0, 0],[9000000000.0, 9000000000.0, 9000000000.0, 9000000000.0, 9000000000.0, 9000000000.0],  v1000, z0, tool0]
    MoveL [[206,42,10],[30,-30,30],[0, 0, 0, 0],[9000000000.0, 9000000000.0, 9000000000.0, 9000000000.0, 9000000000.0, 9000000000.0], v1000, z0, tool0]
    MoveL [[287,43,10],[30,-30,30],[0, 0, 0, 0],[9000000000.0, 9000000000.0, 9000000000.0, 9000000000.0, 9000000000.0, 9000000000.0], v1000, z0, tool0]
    MoveL [[268,47,5],[30,-30,30],[0, 0, 0, 0],[9000000000.0, 9000000000.0, 9000000000.0, 9000000000.0, 9000000000.0, 9000000000.0],  v1000, z0, tool0]
    MoveL [[268,47,10],[30,-30,30],[0, 0, 0, 0],[9000000000.0, 9000000000.0, 9000000000.0, 9000000000.0, 9000000000.0, 9000000000.0], v1000, z0, tool0]
    MoveL [[309,42,10],[30,-30,30],[0, 0, 0, 0],[9000000000.0, 9000000000.0, 9000000000.0, 9000000000.0, 9000000000.0, 9000000000.0], v1000, z0, tool0]
    MoveL [[309,53,5],[30,-30,30],[0, 0, 0, 0],[9000000000.0, 9000000000.0, 9000000000.0, 9000000000.0, 9000000000.0, 9000000000.0],  v1000, z0, tool0]
    MoveL [[309,53,10],[30,-30,30],[0, 0, 0, 0],[9000000000.0, 9000000000.0, 9000000000.0, 9000000000.0, 9000000000.0, 9000000000.0], v1000, z0, tool0]
    MoveL [[257,50,10],[30,-30,30],[0, 0, 0, 0],[9000000000.0, 9000000000.0, 9000000000.0, 9000000000.0, 9000000000.0, 9000000000.0], v1000, z0, tool0]
    MoveL [[288,46,5],[30,-30,30],[0, 0, 0, 0],[9000000000.0, 9000000000.0, 9000000000.0, 9000000000.0, 9000000000.0, 9000000000.0],  v1000, z0, tool0]
    MoveL [[288,46,10],[30,-30,30],[0, 0, 0, 0],[9000000000.0, 9000000000.0, 9000000000.0, 9000000000.0, 9000000000.0, 9000000000.0], v1000, z0, tool0]
    MoveL [[172,67,10],[30,-30,30],[0, 0, 0, 0],[9000000000.0, 9000000000.0, 9000000000.0, 9000000000.0, 9000000000.0, 9000000000.0], v1000, z0, tool0]
    MoveL [[172,47,5],[30,-30,30],[0, 0, 0, 0],[9000000000.0, 9000000000.0, 9000000000.0, 9000000000.0, 9000000000.0, 9000000000.0],  v1000, z0, tool0]
    MoveL [[172,47,10],[30,-30,30],[0, 0, 0, 0],[9000000000.0, 9000000000.0, 9000000000.0, 9000000000.0, 9000000000.0, 9000000000.0], v1000, z0, tool0]
    MoveL [[184,47,10],[30,-30,30],[0, 0, 0, 0],[9000000000.0, 9000000000.0, 9000000000.0, 9000000000.0, 9000000000.0, 9000000000.0], v1000, z0, tool0]
    MoveL [[183,56,5],[30,-30,30],[0, 0, 0, 0],[9000000000.0, 9000000000.0, 9000000000.0, 9000000000.0, 9000000000.0, 9000000000.0],  v1000, z0, tool0]
    MoveL [[183,56,10],[30,-30,30],[0, 0, 0, 0],[9000000000.0, 9000000000.0, 9000000000.0, 9000000000.0, 9000000000.0, 9000000000.0], v1000, z0, tool0]
    MoveL [[205,50,10],[30,-30,30],[0, 0, 0, 0],[9000000000.0, 9000000000.0, 9000000000.0, 9000000000.0, 9000000000.0, 9000000000.0], v1000, z0, tool0]
    MoveL [[202,46,5],[30,-30,30],[0, 0, 0, 0],[9000000000.0, 9000000000.0, 9000000000.0, 9000000000.0, 9000000000.0, 9000000000.0],  v1000, z0, tool0]
    MoveL [[202,46,10],[30,-30,30],[0, 0, 0, 0],[9000000000.0, 9000000000.0, 9000000000.0, 9000000000.0, 9000000000.0, 9000000000.0], v1000, z0, tool0]
    MoveL [[325,48,10],[30,-30,30],[0, 0, 0, 0],[9000000000.0, 9000000000.0, 9000000000.0, 9000000000.0, 9000000000.0, 9000000000.0], v1000, z0, tool0]
    MoveL [[331,61,5],[30,-30,30],[0, 0, 0, 0],[9000000000.0, 9000000000.0, 9000000000.0, 9000000000.0, 9000000000.0, 9000000000.0],  v1000, z0, tool0]
    MoveL [[331,61,10],[30,-30,30],[0, 0, 0, 0],[9000000000.0, 9000000000.0, 9000000000.0, 9000000000.0, 9000000000.0, 9000000000.0], v1000, z0, tool0]
    MoveL [[212,50,10],[30,-30,30],[0, 0, 0, 0],[9000000000.0, 9000000000.0, 9000000000.0, 9000000000.0, 9000000000.0, 9000000000.0], v1000, z0, tool0]
    MoveL [[218,50,5],[30,-30,30],[0, 0, 0, 0],[9000000000.0, 9000000000.0, 9000000000.0, 9000000000.0, 9000000000.0, 9000000000.0],  v1000, z0, tool0]
    MoveL [[218,50,10],[30,-30,30],[0, 0, 0, 0],[9000000000.0, 9000000000.0, 9000000000.0, 9000000000.0, 9000000000.0, 9000000000.0], v1000, z0, tool0]
    MoveL [[281,49,10],[30,-30,30],[0, 0, 0, 0],[9000000000.0, 9000000000.0, 9000000000.0, 9000000000.0, 9000000000.0, 9000000000.0], v1000, z0, tool0]
    MoveL [[259,52,5],[30,-30,30],[0, 0, 0, 0],[9000000000.0, 9000000000.0, 9000000000.0, 9000000000.0, 9000000000.0, 9000000000.0],  v1000, z0, tool0]
    MoveL [[259,52,10],[30,-30,30],[0, 0, 0, 0],[9000000000.0, 9000000000.0, 9000000000.0, 9000000000.0, 9000000000.0, 9000000000.0], v1000, z0, tool0]
    MoveL [[223,54,10],[30,-30,30],[0, 0, 0, 0],[9000000000.0, 9000000000.0, 9000000000.0, 9000000000.0, 9000000000.0, 9000000000.0], v1000, z0, tool0]
    MoveL [[205,52,5],[30,-30,30],[0, 0, 0, 0],[9000000000.0, 9000000000.0, 9000000000.0, 9000000000.0, 9000000000.0, 9000000000.0],  v1000, z0, tool0]
    MoveL [[205,52,10],[30,-30,30],[0, 0, 0, 0],[9000000000.0, 9000000000.0, 9000000000.0, 9000000000.0, 9000000000.0, 9000000000.0], v1000, z0, tool0]
    MoveL [[251,58,10],[30,-30,30],[0, 0, 0, 0],[9000000000.0, 9000000000.0, 9000000000.0, 9000000000.0, 9000000000.0, 9000000000.0], v1000, z0, tool0]
    MoveL [[282,52,5],[30,-30,30],[0, 0, 0, 0],[9000000000.0, 9000000000.0, 9000000000.0, 9000000000.0, 9000000000.0, 9000000000.0],  v1000, z0, tool0]
    MoveL [[282,52,10],[30,-30,30],[0, 0, 0, 0],[9000000000.0, 9000000000.0, 9000000000.0, 9000000000.0, 9000000000.0, 9000000000.0], v1000, z0, tool0]
    MoveL [[402,61,10],[30,-30,30],[0, 0, 0, 0],[9000000000.0, 9000000000.0, 9000000000.0, 9000000000.0, 9000000000.0, 9000000000.0], v1000, z0, tool0]
    MoveL [[400,55,5],[30,-30,30],[0, 0, 0, 0],[9000000000.0, 9000000000.0, 9000000000.0, 9000000000.0, 9000000000.0, 9000000000.0],  v1000, z0, tool0]
    MoveL [[400,55,10],[30,-30,30],[0, 0, 0, 0],[9000000000.0, 9000000000.0, 9000000000.0, 9000000000.0, 9000000000.0, 9000000000.0], v1000, z0, tool0]
    MoveL [[184,56,10],[30,-30,30],[0, 0, 0, 0],[9000000000.0, 9000000000.0, 9000000000.0, 9000000000.0, 9000000000.0, 9000000000.0], v1000, z0, tool0]
    MoveL [[187,85,5],[30,-30,30],[0, 0, 0, 0],[9000000000.0, 9000000000.0, 9000000000.0, 9000000000.0, 9000000000.0, 9000000000.0],  v1000, z0, tool0]
    MoveL [[187,85,10],[30,-30,30],[0, 0, 0, 0],[9000000000.0, 9000000000.0, 9000000000.0, 9000000000.0, 9000000000.0, 9000000000.0], v1000, z0, tool0]
    MoveL [[271,57,10],[30,-30,30],[0, 0, 0, 0],[9000000000.0, 9000000000.0, 9000000000.0, 9000000000.0, 9000000000.0, 9000000000.0], v1000, z0, tool0]
    MoveL [[253,60,5],[30,-30,30],[0, 0, 0, 0],[9000000000.0, 9000000000.0, 9000000000.0, 9000000000.0, 9000000000.0, 9000000000.0],  v1000, z0, tool0]
    MoveL [[253,60,10],[30,-30,30],[0, 0, 0, 0],[9000000000.0, 9000000000.0, 9000000000.0, 9000000000.0, 9000000000.0, 9000000000.0], v1000, z0, tool0]
    MoveL [[329,62,10],[30,-30,30],[0, 0, 0, 0],[9000000000.0, 9000000000.0, 9000000000.0, 9000000000.0, 9000000000.0, 9000000000.0], v1000, z0, tool0]
    MoveL [[324,58,5],[30,-30,30],[0, 0, 0, 0],[9000000000.0, 9000000000.0, 9000000000.0, 9000000000.0, 9000000000.0, 9000000000.0],  v1000, z0, tool0]
    MoveL [[324,58,10],[30,-30,30],[0, 0, 0, 0],[9000000000.0, 9000000000.0, 9000000000.0, 9000000000.0, 9000000000.0, 9000000000.0], v1000, z0, tool0]
    MoveL [[412,57,10],[30,-30,30],[0, 0, 0, 0],[9000000000.0, 9000000000.0, 9000000000.0, 9000000000.0, 9000000000.0, 9000000000.0], v1000, z0, tool0]
    MoveL [[412,78,5],[30,-30,30],[0, 0, 0, 0],[9000000000.0, 9000000000.0, 9000000000.0, 9000000000.0, 9000000000.0, 9000000000.0],  v1000, z0, tool0]
    MoveL [[412,78,10],[30,-30,30],[0, 0, 0, 0],[9000000000.0, 9000000000.0, 9000000000.0, 9000000000.0, 9000000000.0, 9000000000.0], v1000, z0, tool0]
    MoveL [[244,70,10],[30,-30,30],[0, 0, 0, 0],[9000000000.0, 9000000000.0, 9000000000.0, 9000000000.0, 9000000000.0, 9000000000.0], v1000, z0, tool0]
    MoveL [[271,58,5],[30,-30,30],[0, 0, 0, 0],[9000000000.0, 9000000000.0, 9000000000.0, 9000000000.0, 9000000000.0, 9000000000.0],  v1000, z0, tool0]
    MoveL [[271,58,10],[30,-30,30],[0, 0, 0, 0],[9000000000.0, 9000000000.0, 9000000000.0, 9000000000.0, 9000000000.0, 9000000000.0], v1000, z0, tool0]
    MoveL [[275,60,10],[30,-30,30],[0, 0, 0, 0],[9000000000.0, 9000000000.0, 9000000000.0, 9000000000.0, 9000000000.0, 9000000000.0], v1000, z0, tool0]
    MoveL [[252,70,5],[30,-30,30],[0, 0, 0, 0],[9000000000.0, 9000000000.0, 9000000000.0, 9000000000.0, 9000000000.0, 9000000000.0],  v1000, z0, tool0]
    MoveL [[252,70,10],[30,-30,30],[0, 0, 0, 0],[9000000000.0, 9000000000.0, 9000000000.0, 9000000000.0, 9000000000.0, 9000000000.0], v1000, z0, tool0]
    MoveL [[291,65,10],[30,-30,30],[0, 0, 0, 0],[9000000000.0, 9000000000.0, 9000000000.0, 9000000000.0, 9000000000.0, 9000000000.0], v1000, z0, tool0]
    MoveL [[317,65,5],[30,-30,30],[0, 0, 0, 0],[9000000000.0, 9000000000.0, 9000000000.0, 9000000000.0, 9000000000.0, 9000000000.0],  v1000, z0, tool0]
    MoveL [[317,65,10],[30,-30,30],[0, 0, 0, 0],[9000000000.0, 9000000000.0, 9000000000.0, 9000000000.0, 9000000000.0, 9000000000.0], v1000, z0, tool0]
    MoveL [[386,77,10],[30,-30,30],[0, 0, 0, 0],[9000000000.0, 9000000000.0, 9000000000.0, 9000000000.0, 9000000000.0, 9000000000.0], v1000, z0, tool0]
    MoveL [[390,62,5],[30,-30,30],[0, 0, 0, 0],[9000000000.0, 9000000000.0, 9000000000.0, 9000000000.0, 9000000000.0, 9000000000.0],  v1000, z0, tool0]
    MoveL [[390,62,10],[30,-30,30],[0, 0, 0, 0],[9000000000.0, 9000000000.0, 9000000000.0, 9000000000.0, 9000000000.0, 9000000000.0], v1000, z0, tool0]
    MoveL [[400,80,10],[30,-30,30],[0, 0, 0, 0],[9000000000.0, 9000000000.0, 9000000000.0, 9000000000.0, 9000000000.0, 9000000000.0], v1000, z0, tool0]
    MoveL [[401,62,5],[30,-30,30],[0, 0, 0, 0],[9000000000.0, 9000000000.0, 9000000000.0, 9000000000.0, 9000000000.0, 9000000000.0],  v1000, z0, tool0]
    MoveL [[401,62,10],[30,-30,30],[0, 0, 0, 0],[9000000000.0, 9000000000.0, 9000000000.0, 9000000000.0, 9000000000.0, 9000000000.0], v1000, z0, tool0]
    MoveL [[232,74,10],[30,-30,30],[0, 0, 0, 0],[9000000000.0, 9000000000.0, 9000000000.0, 9000000000.0, 9000000000.0, 9000000000.0], v1000, z0, tool0]
    MoveL [[290,66,5],[30,-30,30],[0, 0, 0, 0],[9000000000.0, 9000000000.0, 9000000000.0, 9000000000.0, 9000000000.0, 9000000000.0],  v1000, z0, tool0]
    MoveL [[290,66,10],[30,-30,30],[0, 0, 0, 0],[9000000000.0, 9000000000.0, 9000000000.0, 9000000000.0, 9000000000.0, 9000000000.0], v1000, z0, tool0]
    MoveL [[318,65,10],[30,-30,30],[0, 0, 0, 0],[9000000000.0, 9000000000.0, 9000000000.0, 9000000000.0, 9000000000.0, 9000000000.0], v1000, z0, tool0]
    MoveL [[382,79,5],[30,-30,30],[0, 0, 0, 0],[9000000000.0, 9000000000.0, 9000000000.0, 9000000000.0, 9000000000.0, 9000000000.0],  v1000, z0, tool0]
    MoveL [[382,79,10],[30,-30,30],[0, 0, 0, 0],[9000000000.0, 9000000000.0, 9000000000.0, 9000000000.0, 9000000000.0, 9000000000.0], v1000, z0, tool0]
    MoveL [[394,63,10],[30,-30,30],[0, 0, 0, 0],[9000000000.0, 9000000000.0, 9000000000.0, 9000000000.0, 9000000000.0, 9000000000.0], v1000, z0, tool0]
    MoveL [[393,69,5],[30,-30,30],[0, 0, 0, 0],[9000000000.0, 9000000000.0, 9000000000.0, 9000000000.0, 9000000000.0, 9000000000.0],  v1000, z0, tool0]
    MoveL [[393,69,10],[30,-30,30],[0, 0, 0, 0],[9000000000.0, 9000000000.0, 9000000000.0, 9000000000.0, 9000000000.0, 9000000000.0], v1000, z0, tool0]
    MoveL [[312,66,10],[30,-30,30],[0, 0, 0, 0],[9000000000.0, 9000000000.0, 9000000000.0, 9000000000.0, 9000000000.0, 9000000000.0], v1000, z0, tool0]
    MoveL [[237,77,5],[30,-30,30],[0, 0, 0, 0],[9000000000.0, 9000000000.0, 9000000000.0, 9000000000.0, 9000000000.0, 9000000000.0],  v1000, z0, tool0]
    MoveL [[237,77,10],[30,-30,30],[0, 0, 0, 0],[9000000000.0, 9000000000.0, 9000000000.0, 9000000000.0, 9000000000.0, 9000000000.0], v1000, z0, tool0]
    MoveL [[174,85,10],[30,-30,30],[0, 0, 0, 0],[9000000000.0, 9000000000.0, 9000000000.0, 9000000000.0, 9000000000.0, 9000000000.0], v1000, z0, tool0]
    MoveL [[173,67,5],[30,-30,30],[0, 0, 0, 0],[9000000000.0, 9000000000.0, 9000000000.0, 9000000000.0, 9000000000.0, 9000000000.0],  v1000, z0, tool0]
    MoveL [[173,67,10],[30,-30,30],[0, 0, 0, 0],[9000000000.0, 9000000000.0, 9000000000.0, 9000000000.0, 9000000000.0, 9000000000.0], v1000, z0, tool0]
    MoveL [[351,75,10],[30,-30,30],[0, 0, 0, 0],[9000000000.0, 9000000000.0, 9000000000.0, 9000000000.0, 9000000000.0, 9000000000.0], v1000, z0, tool0]
    MoveL [[312,67,5],[30,-30,30],[0, 0, 0, 0],[9000000000.0, 9000000000.0, 9000000000.0, 9000000000.0, 9000000000.0, 9000000000.0],  v1000, z0, tool0]
    MoveL [[312,67,10],[30,-30,30],[0, 0, 0, 0],[9000000000.0, 9000000000.0, 9000000000.0, 9000000000.0, 9000000000.0, 9000000000.0], v1000, z0, tool0]
    MoveL [[393,69,10],[30,-30,30],[0, 0, 0, 0],[9000000000.0, 9000000000.0, 9000000000.0, 9000000000.0, 9000000000.0, 9000000000.0], v1000, z0, tool0]
    MoveL [[389,81,5],[30,-30,30],[0, 0, 0, 0],[9000000000.0, 9000000000.0, 9000000000.0, 9000000000.0, 9000000000.0, 9000000000.0],  v1000, z0, tool0]
    MoveL [[389,81,10],[30,-30,30],[0, 0, 0, 0],[9000000000.0, 9000000000.0, 9000000000.0, 9000000000.0, 9000000000.0, 9000000000.0], v1000, z0, tool0]
    MoveL [[188,86,10],[30,-30,30],[0, 0, 0, 0],[9000000000.0, 9000000000.0, 9000000000.0, 9000000000.0, 9000000000.0, 9000000000.0], v1000, z0, tool0]
    MoveL [[232,75,5],[30,-30,30],[0, 0, 0, 0],[9000000000.0, 9000000000.0, 9000000000.0, 9000000000.0, 9000000000.0, 9000000000.0],  v1000, z0, tool0]
    MoveL [[232,75,10],[30,-30,30],[0, 0, 0, 0],[9000000000.0, 9000000000.0, 9000000000.0, 9000000000.0, 9000000000.0, 9000000000.0], v1000, z0, tool0]
    MoveL [[382,82,10],[30,-30,30],[0, 0, 0, 0],[9000000000.0, 9000000000.0, 9000000000.0, 9000000000.0, 9000000000.0, 9000000000.0], v1000, z0, tool0]
    MoveL [[351,76,5],[30,-30,30],[0, 0, 0, 0],[9000000000.0, 9000000000.0, 9000000000.0, 9000000000.0, 9000000000.0, 9000000000.0],  v1000, z0, tool0]
    MoveL [[351,76,10],[30,-30,30],[0, 0, 0, 0],[9000000000.0, 9000000000.0, 9000000000.0, 9000000000.0, 9000000000.0, 9000000000.0], v1000, z0, tool0]
    MoveL [[236,78,10],[30,-30,30],[0, 0, 0, 0],[9000000000.0, 9000000000.0, 9000000000.0, 9000000000.0, 9000000000.0, 9000000000.0], v1000, z0, tool0]
    MoveL [[196,87,5],[30,-30,30],[0, 0, 0, 0],[9000000000.0, 9000000000.0, 9000000000.0, 9000000000.0, 9000000000.0, 9000000000.0],  v1000, z0, tool0]
    MoveL [[196,87,10],[30,-30,30],[0, 0, 0, 0],[9000000000.0, 9000000000.0, 9000000000.0, 9000000000.0, 9000000000.0, 9000000000.0], v1000, z0, tool0]
    MoveL [[411,79,10],[30,-30,30],[0, 0, 0, 0],[9000000000.0, 9000000000.0, 9000000000.0, 9000000000.0, 9000000000.0, 9000000000.0], v1000, z0, tool0]
    MoveL [[427,99,5],[30,-30,30],[0, 0, 0, 0],[9000000000.0, 9000000000.0, 9000000000.0, 9000000000.0, 9000000000.0, 9000000000.0],  v1000, z0, tool0]
    MoveL [[427,99,10],[30,-30,30],[0, 0, 0, 0],[9000000000.0, 9000000000.0, 9000000000.0, 9000000000.0, 9000000000.0, 9000000000.0], v1000, z0, tool0]
    MoveL [[406,87,10],[30,-30,30],[0, 0, 0, 0],[9000000000.0, 9000000000.0, 9000000000.0, 9000000000.0, 9000000000.0, 9000000000.0], v1000, z0, tool0]
    MoveL [[399,80,5],[30,-30,30],[0, 0, 0, 0],[9000000000.0, 9000000000.0, 9000000000.0, 9000000000.0, 9000000000.0, 9000000000.0],  v1000, z0, tool0]
    MoveL [[399,80,10],[30,-30,30],[0, 0, 0, 0],[9000000000.0, 9000000000.0, 9000000000.0, 9000000000.0, 9000000000.0, 9000000000.0], v1000, z0, tool0]
    MoveL [[387,98,10],[30,-30,30],[0, 0, 0, 0],[9000000000.0, 9000000000.0, 9000000000.0, 9000000000.0, 9000000000.0, 9000000000.0], v1000, z0, tool0]
    MoveL [[382,81,5],[30,-30,30],[0, 0, 0, 0],[9000000000.0, 9000000000.0, 9000000000.0, 9000000000.0, 9000000000.0, 9000000000.0],  v1000, z0, tool0]
    MoveL [[382,81,10],[30,-30,30],[0, 0, 0, 0],[9000000000.0, 9000000000.0, 9000000000.0, 9000000000.0, 9000000000.0, 9000000000.0], v1000, z0, tool0]
    MoveL [[389,82,10],[30,-30,30],[0, 0, 0, 0],[9000000000.0, 9000000000.0, 9000000000.0, 9000000000.0, 9000000000.0, 9000000000.0], v1000, z0, tool0]
    MoveL [[404,88,5],[30,-30,30],[0, 0, 0, 0],[9000000000.0, 9000000000.0, 9000000000.0, 9000000000.0, 9000000000.0, 9000000000.0],  v1000, z0, tool0]
    MoveL [[404,88,10],[30,-30,30],[0, 0, 0, 0],[9000000000.0, 9000000000.0, 9000000000.0, 9000000000.0, 9000000000.0, 9000000000.0], v1000, z0, tool0]
    MoveL [[168,93,10],[30,-30,30],[0, 0, 0, 0],[9000000000.0, 9000000000.0, 9000000000.0, 9000000000.0, 9000000000.0, 9000000000.0], v1000, z0, tool0]
    MoveL [[174,85,5],[30,-30,30],[0, 0, 0, 0],[9000000000.0, 9000000000.0, 9000000000.0, 9000000000.0, 9000000000.0, 9000000000.0],  v1000, z0, tool0]
    MoveL [[174,85,10],[30,-30,30],[0, 0, 0, 0],[9000000000.0, 9000000000.0, 9000000000.0, 9000000000.0, 9000000000.0, 9000000000.0], v1000, z0, tool0]
    MoveL [[196,87,10],[30,-30,30],[0, 0, 0, 0],[9000000000.0, 9000000000.0, 9000000000.0, 9000000000.0, 9000000000.0, 9000000000.0], v1000, z0, tool0]
    MoveL [[181,92,5],[30,-30,30],[0, 0, 0, 0],[9000000000.0, 9000000000.0, 9000000000.0, 9000000000.0, 9000000000.0, 9000000000.0],  v1000, z0, tool0]
    MoveL [[181,92,10],[30,-30,30],[0, 0, 0, 0],[9000000000.0, 9000000000.0, 9000000000.0, 9000000000.0, 9000000000.0, 9000000000.0], v1000, z0, tool0]
    MoveL [[203,87,10],[30,-30,30],[0, 0, 0, 0],[9000000000.0, 9000000000.0, 9000000000.0, 9000000000.0, 9000000000.0, 9000000000.0], v1000, z0, tool0]
    MoveL [[212,85,5],[30,-30,30],[0, 0, 0, 0],[9000000000.0, 9000000000.0, 9000000000.0, 9000000000.0, 9000000000.0, 9000000000.0],  v1000, z0, tool0]
    MoveL [[212,85,10],[30,-30,30],[0, 0, 0, 0],[9000000000.0, 9000000000.0, 9000000000.0, 9000000000.0, 9000000000.0, 9000000000.0], v1000, z0, tool0]
    MoveL [[213,86,10],[30,-30,30],[0, 0, 0, 0],[9000000000.0, 9000000000.0, 9000000000.0, 9000000000.0, 9000000000.0, 9000000000.0], v1000, z0, tool0]
    MoveL [[221,87,5],[30,-30,30],[0, 0, 0, 0],[9000000000.0, 9000000000.0, 9000000000.0, 9000000000.0, 9000000000.0, 9000000000.0],  v1000, z0, tool0]
    MoveL [[221,87,10],[30,-30,30],[0, 0, 0, 0],[9000000000.0, 9000000000.0, 9000000000.0, 9000000000.0, 9000000000.0, 9000000000.0], v1000, z0, tool0]
    MoveL [[414,96,10],[30,-30,30],[0, 0, 0, 0],[9000000000.0, 9000000000.0, 9000000000.0, 9000000000.0, 9000000000.0, 9000000000.0], v1000, z0, tool0]
    MoveL [[390,87,5],[30,-30,30],[0, 0, 0, 0],[9000000000.0, 9000000000.0, 9000000000.0, 9000000000.0, 9000000000.0, 9000000000.0],  v1000, z0, tool0]
    MoveL [[390,87,10],[30,-30,30],[0, 0, 0, 0],[9000000000.0, 9000000000.0, 9000000000.0, 9000000000.0, 9000000000.0, 9000000000.0], v1000, z0, tool0]
    MoveL [[187,93,10],[30,-30,30],[0, 0, 0, 0],[9000000000.0, 9000000000.0, 9000000000.0, 9000000000.0, 9000000000.0, 9000000000.0], v1000, z0, tool0]
    MoveL [[202,87,5],[30,-30,30],[0, 0, 0, 0],[9000000000.0, 9000000000.0, 9000000000.0, 9000000000.0, 9000000000.0, 9000000000.0],  v1000, z0, tool0]
    MoveL [[202,87,10],[30,-30,30],[0, 0, 0, 0],[9000000000.0, 9000000000.0, 9000000000.0, 9000000000.0, 9000000000.0, 9000000000.0], v1000, z0, tool0]
    MoveL [[247,95,10],[30,-30,30],[0, 0, 0, 0],[9000000000.0, 9000000000.0, 9000000000.0, 9000000000.0, 9000000000.0, 9000000000.0], v1000, z0, tool0]
    MoveL [[254,89,5],[30,-30,30],[0, 0, 0, 0],[9000000000.0, 9000000000.0, 9000000000.0, 9000000000.0, 9000000000.0, 9000000000.0],  v1000, z0, tool0]
    MoveL [[254,89,10],[30,-30,30],[0, 0, 0, 0],[9000000000.0, 9000000000.0, 9000000000.0, 9000000000.0, 9000000000.0, 9000000000.0], v1000, z0, tool0]
    MoveL [[389,88,10],[30,-30,30],[0, 0, 0, 0],[9000000000.0, 9000000000.0, 9000000000.0, 9000000000.0, 9000000000.0, 9000000000.0], v1000, z0, tool0]
    MoveL [[398,95,5],[30,-30,30],[0, 0, 0, 0],[9000000000.0, 9000000000.0, 9000000000.0, 9000000000.0, 9000000000.0, 9000000000.0],  v1000, z0, tool0]
    MoveL [[398,95,10],[30,-30,30],[0, 0, 0, 0],[9000000000.0, 9000000000.0, 9000000000.0, 9000000000.0, 9000000000.0, 9000000000.0], v1000, z0, tool0]
    MoveL [[261,94,10],[30,-30,30],[0, 0, 0, 0],[9000000000.0, 9000000000.0, 9000000000.0, 9000000000.0, 9000000000.0, 9000000000.0], v1000, z0, tool0]
    MoveL [[325,94,5],[30,-30,30],[0, 0, 0, 0],[9000000000.0, 9000000000.0, 9000000000.0, 9000000000.0, 9000000000.0, 9000000000.0],  v1000, z0, tool0]
    MoveL [[325,94,10],[30,-30,30],[0, 0, 0, 0],[9000000000.0, 9000000000.0, 9000000000.0, 9000000000.0, 9000000000.0, 9000000000.0], v1000, z0, tool0]
    MoveL [[169,106,10],[30,-30,30],[0, 0, 0, 0],[9000000000.0, 9000000000.0, 9000000000.0, 9000000000.0, 9000000000.0, 9000000000.0], v1000, z0, tool0]
    MoveL [[169,93,5],[30,-30,30],[0, 0, 0, 0],[9000000000.0, 9000000000.0, 9000000000.0, 9000000000.0, 9000000000.0, 9000000000.0],  v1000, z0, tool0]
    MoveL [[169,93,10],[30,-30,30],[0, 0, 0, 0],[9000000000.0, 9000000000.0, 9000000000.0, 9000000000.0, 9000000000.0, 9000000000.0], v1000, z0, tool0]
    MoveL [[218,105,10],[30,-30,30],[0, 0, 0, 0],[9000000000.0, 9000000000.0, 9000000000.0, 9000000000.0, 9000000000.0, 9000000000.0], v1000, z0, tool0]
    MoveL [[260,94,5],[30,-30,30],[0, 0, 0, 0],[9000000000.0, 9000000000.0, 9000000000.0, 9000000000.0, 9000000000.0, 9000000000.0],  v1000, z0, tool0]
    MoveL [[260,94,10],[30,-30,30],[0, 0, 0, 0],[9000000000.0, 9000000000.0, 9000000000.0, 9000000000.0, 9000000000.0, 9000000000.0], v1000, z0, tool0]
    MoveL [[325,95,10],[30,-30,30],[0, 0, 0, 0],[9000000000.0, 9000000000.0, 9000000000.0, 9000000000.0, 9000000000.0, 9000000000.0], v1000, z0, tool0]
    MoveL [[357,97,5],[30,-30,30],[0, 0, 0, 0],[9000000000.0, 9000000000.0, 9000000000.0, 9000000000.0, 9000000000.0, 9000000000.0],  v1000, z0, tool0]
    MoveL [[357,97,10],[30,-30,30],[0, 0, 0, 0],[9000000000.0, 9000000000.0, 9000000000.0, 9000000000.0, 9000000000.0, 9000000000.0], v1000, z0, tool0]
    MoveL [[180,95,10],[30,-30,30],[0, 0, 0, 0],[9000000000.0, 9000000000.0, 9000000000.0, 9000000000.0, 9000000000.0, 9000000000.0], v1000, z0, tool0]
    MoveL [[180,98,5],[30,-30,30],[0, 0, 0, 0],[9000000000.0, 9000000000.0, 9000000000.0, 9000000000.0, 9000000000.0, 9000000000.0],  v1000, z0, tool0]
    MoveL [[180,98,10],[30,-30,30],[0, 0, 0, 0],[9000000000.0, 9000000000.0, 9000000000.0, 9000000000.0, 9000000000.0, 9000000000.0], v1000, z0, tool0]
    MoveL [[414,101,10],[30,-30,30],[0, 0, 0, 0],[9000000000.0, 9000000000.0, 9000000000.0, 9000000000.0, 9000000000.0, 9000000000.0], v1000, z0, tool0]
    MoveL [[414,95,5],[30,-30,30],[0, 0, 0, 0],[9000000000.0, 9000000000.0, 9000000000.0, 9000000000.0, 9000000000.0, 9000000000.0],  v1000, z0, tool0]
    MoveL [[414,95,10],[30,-30,30],[0, 0, 0, 0],[9000000000.0, 9000000000.0, 9000000000.0, 9000000000.0, 9000000000.0, 9000000000.0], v1000, z0, tool0]
    MoveL [[310,97,10],[30,-30,30],[0, 0, 0, 0],[9000000000.0, 9000000000.0, 9000000000.0, 9000000000.0, 9000000000.0, 9000000000.0], v1000, z0, tool0]
    MoveL [[253,98,5],[30,-30,30],[0, 0, 0, 0],[9000000000.0, 9000000000.0, 9000000000.0, 9000000000.0, 9000000000.0, 9000000000.0],  v1000, z0, tool0]
    MoveL [[253,98,10],[30,-30,30],[0, 0, 0, 0],[9000000000.0, 9000000000.0, 9000000000.0, 9000000000.0, 9000000000.0, 9000000000.0], v1000, z0, tool0]
    MoveL [[398,96,10],[30,-30,30],[0, 0, 0, 0],[9000000000.0, 9000000000.0, 9000000000.0, 9000000000.0, 9000000000.0, 9000000000.0], v1000, z0, tool0]
    MoveL [[390,100,5],[30,-30,30],[0, 0, 0, 0],[9000000000.0, 9000000000.0, 9000000000.0, 9000000000.0, 9000000000.0, 9000000000.0],  v1000, z0, tool0]
    MoveL [[390,100,10],[30,-30,30],[0, 0, 0, 0],[9000000000.0, 9000000000.0, 9000000000.0, 9000000000.0, 9000000000.0, 9000000000.0], v1000, z0, tool0]
    MoveL [[187,110,10],[30,-30,30],[0, 0, 0, 0],[9000000000.0, 9000000000.0, 9000000000.0, 9000000000.0, 9000000000.0, 9000000000.0], v1000, z0, tool0]
    MoveL [[187,97,5],[30,-30,30],[0, 0, 0, 0],[9000000000.0, 9000000000.0, 9000000000.0, 9000000000.0, 9000000000.0, 9000000000.0],  v1000, z0, tool0]
    MoveL [[187,97,10],[30,-30,30],[0, 0, 0, 0],[9000000000.0, 9000000000.0, 9000000000.0, 9000000000.0, 9000000000.0, 9000000000.0], v1000, z0, tool0]
    MoveL [[356,100,10],[30,-30,30],[0, 0, 0, 0],[9000000000.0, 9000000000.0, 9000000000.0, 9000000000.0, 9000000000.0, 9000000000.0], v1000, z0, tool0]
    MoveL [[310,98,5],[30,-30,30],[0, 0, 0, 0],[9000000000.0, 9000000000.0, 9000000000.0, 9000000000.0, 9000000000.0, 9000000000.0],  v1000, z0, tool0]
    MoveL [[310,98,10],[30,-30,30],[0, 0, 0, 0],[9000000000.0, 9000000000.0, 9000000000.0, 9000000000.0, 9000000000.0, 9000000000.0], v1000, z0, tool0]
    MoveL [[368,99,10],[30,-30,30],[0, 0, 0, 0],[9000000000.0, 9000000000.0, 9000000000.0, 9000000000.0, 9000000000.0, 9000000000.0], v1000, z0, tool0]
    MoveL [[383,101,5],[30,-30,30],[0, 0, 0, 0],[9000000000.0, 9000000000.0, 9000000000.0, 9000000000.0, 9000000000.0, 9000000000.0],  v1000, z0, tool0]
    MoveL [[383,101,10],[30,-30,30],[0, 0, 0, 0],[9000000000.0, 9000000000.0, 9000000000.0, 9000000000.0, 9000000000.0, 9000000000.0], v1000, z0, tool0]
    MoveL [[253,99,10],[30,-30,30],[0, 0, 0, 0],[9000000000.0, 9000000000.0, 9000000000.0, 9000000000.0, 9000000000.0, 9000000000.0], v1000, z0, tool0]
    MoveL [[236,104,5],[30,-30,30],[0, 0, 0, 0],[9000000000.0, 9000000000.0, 9000000000.0, 9000000000.0, 9000000000.0, 9000000000.0],  v1000, z0, tool0]
    MoveL [[236,104,10],[30,-30,30],[0, 0, 0, 0],[9000000000.0, 9000000000.0, 9000000000.0, 9000000000.0, 9000000000.0, 9000000000.0], v1000, z0, tool0]
    MoveL [[209,105,10],[30,-30,30],[0, 0, 0, 0],[9000000000.0, 9000000000.0, 9000000000.0, 9000000000.0, 9000000000.0, 9000000000.0], v1000, z0, tool0]
    MoveL [[220,100,5],[30,-30,30],[0, 0, 0, 0],[9000000000.0, 9000000000.0, 9000000000.0, 9000000000.0, 9000000000.0, 9000000000.0],  v1000, z0, tool0]
    MoveL [[220,100,10],[30,-30,30],[0, 0, 0, 0],[9000000000.0, 9000000000.0, 9000000000.0, 9000000000.0, 9000000000.0, 9000000000.0], v1000, z0, tool0]
    MoveL [[392,101,10],[30,-30,30],[0, 0, 0, 0],[9000000000.0, 9000000000.0, 9000000000.0, 9000000000.0, 9000000000.0, 9000000000.0], v1000, z0, tool0]
    MoveL [[412,104,5],[30,-30,30],[0, 0, 0, 0],[9000000000.0, 9000000000.0, 9000000000.0, 9000000000.0, 9000000000.0, 9000000000.0],  v1000, z0, tool0]
    MoveL [[412,104,10],[30,-30,30],[0, 0, 0, 0],[9000000000.0, 9000000000.0, 9000000000.0, 9000000000.0, 9000000000.0, 9000000000.0], v1000, z0, tool0]
    MoveL [[183,101,10],[30,-30,30],[0, 0, 0, 0],[9000000000.0, 9000000000.0, 9000000000.0, 9000000000.0, 9000000000.0, 9000000000.0], v1000, z0, tool0]
    MoveL [[182,108,5],[30,-30,30],[0, 0, 0, 0],[9000000000.0, 9000000000.0, 9000000000.0, 9000000000.0, 9000000000.0, 9000000000.0],  v1000, z0, tool0]
    MoveL [[182,108,10],[30,-30,30],[0, 0, 0, 0],[9000000000.0, 9000000000.0, 9000000000.0, 9000000000.0, 9000000000.0, 9000000000.0], v1000, z0, tool0]
    MoveL [[458,113,10],[30,-30,30],[0, 0, 0, 0],[9000000000.0, 9000000000.0, 9000000000.0, 9000000000.0, 9000000000.0, 9000000000.0], v1000, z0, tool0]
    MoveL [[370,103,5],[30,-30,30],[0, 0, 0, 0],[9000000000.0, 9000000000.0, 9000000000.0, 9000000000.0, 9000000000.0, 9000000000.0],  v1000, z0, tool0]
    MoveL [[370,103,10],[30,-30,30],[0, 0, 0, 0],[9000000000.0, 9000000000.0, 9000000000.0, 9000000000.0, 9000000000.0, 9000000000.0], v1000, z0, tool0]
    MoveL [[427,105,10],[30,-30,30],[0, 0, 0, 0],[9000000000.0, 9000000000.0, 9000000000.0, 9000000000.0, 9000000000.0, 9000000000.0], v1000, z0, tool0]
    MoveL [[508,104,5],[30,-30,30],[0, 0, 0, 0],[9000000000.0, 9000000000.0, 9000000000.0, 9000000000.0, 9000000000.0, 9000000000.0],  v1000, z0, tool0]
    MoveL [[508,104,10],[30,-30,30],[0, 0, 0, 0],[9000000000.0, 9000000000.0, 9000000000.0, 9000000000.0, 9000000000.0, 9000000000.0], v1000, z0, tool0]
    MoveL [[99,108,10],[30,-30,30],[0, 0, 0, 0],[9000000000.0, 9000000000.0, 9000000000.0, 9000000000.0, 9000000000.0, 9000000000.0], v1000, z0, tool0]
    MoveL [[117,105,5],[30,-30,30],[0, 0, 0, 0],[9000000000.0, 9000000000.0, 9000000000.0, 9000000000.0, 9000000000.0, 9000000000.0],  v1000, z0, tool0]
    MoveL [[117,105,10],[30,-30,30],[0, 0, 0, 0],[9000000000.0, 9000000000.0, 9000000000.0, 9000000000.0, 9000000000.0, 9000000000.0], v1000, z0, tool0]
    MoveL [[118,106,10],[30,-30,30],[0, 0, 0, 0],[9000000000.0, 9000000000.0, 9000000000.0, 9000000000.0, 9000000000.0, 9000000000.0], v1000, z0, tool0]
    MoveL [[167,108,5],[30,-30,30],[0, 0, 0, 0],[9000000000.0, 9000000000.0, 9000000000.0, 9000000000.0, 9000000000.0, 9000000000.0],  v1000, z0, tool0]
    MoveL [[167,108,10],[30,-30,30],[0, 0, 0, 0],[9000000000.0, 9000000000.0, 9000000000.0, 9000000000.0, 9000000000.0, 9000000000.0], v1000, z0, tool0]
    MoveL [[235,104,10],[30,-30,30],[0, 0, 0, 0],[9000000000.0, 9000000000.0, 9000000000.0, 9000000000.0, 9000000000.0, 9000000000.0], v1000, z0, tool0]
    MoveL [[227,108,5],[30,-30,30],[0, 0, 0, 0],[9000000000.0, 9000000000.0, 9000000000.0, 9000000000.0, 9000000000.0, 9000000000.0],  v1000, z0, tool0]
    MoveL [[227,108,10],[30,-30,30],[0, 0, 0, 0],[9000000000.0, 9000000000.0, 9000000000.0, 9000000000.0, 9000000000.0, 9000000000.0], v1000, z0, tool0]
    MoveL [[227,108,10],[30,-30,30],[0, 0, 0, 0],[9000000000.0, 9000000000.0, 9000000000.0, 9000000000.0, 9000000000.0, 9000000000.0], v1000, z0, tool0]
    MoveL [[188,116,5],[30,-30,30],[0, 0, 0, 0],[9000000000.0, 9000000000.0, 9000000000.0, 9000000000.0, 9000000000.0, 9000000000.0],  v1000, z0, tool0]
    MoveL [[188,116,10],[30,-30,30],[0, 0, 0, 0],[9000000000.0, 9000000000.0, 9000000000.0, 9000000000.0, 9000000000.0, 9000000000.0], v1000, z0, tool0]
    MoveL [[80,118,10],[30,-30,30],[0, 0, 0, 0],[9000000000.0, 9000000000.0, 9000000000.0, 9000000000.0, 9000000000.0, 9000000000.0], v1000, z0, tool0]
    MoveL [[99,109,5],[30,-30,30],[0, 0, 0, 0],[9000000000.0, 9000000000.0, 9000000000.0, 9000000000.0, 9000000000.0, 9000000000.0],  v1000, z0, tool0]
    MoveL [[99,109,10],[30,-30,30],[0, 0, 0, 0],[9000000000.0, 9000000000.0, 9000000000.0, 9000000000.0, 9000000000.0, 9000000000.0], v1000, z0, tool0]
    MoveL [[497,109,10],[30,-30,30],[0, 0, 0, 0],[9000000000.0, 9000000000.0, 9000000000.0, 9000000000.0, 9000000000.0, 9000000000.0], v1000, z0, tool0]
    MoveL [[458,111,5],[30,-30,30],[0, 0, 0, 0],[9000000000.0, 9000000000.0, 9000000000.0, 9000000000.0, 9000000000.0, 9000000000.0],  v1000, z0, tool0]
    MoveL [[458,111,10],[30,-30,30],[0, 0, 0, 0],[9000000000.0, 9000000000.0, 9000000000.0, 9000000000.0, 9000000000.0, 9000000000.0], v1000, z0, tool0]
    MoveL [[111,108,10],[30,-30,30],[0, 0, 0, 0],[9000000000.0, 9000000000.0, 9000000000.0, 9000000000.0, 9000000000.0, 9000000000.0], v1000, z0, tool0]
    MoveL [[90,121,5],[30,-30,30],[0, 0, 0, 0],[9000000000.0, 9000000000.0, 9000000000.0, 9000000000.0, 9000000000.0, 9000000000.0],  v1000, z0, tool0]
    MoveL [[90,121,10],[30,-30,30],[0, 0, 0, 0],[9000000000.0, 9000000000.0, 9000000000.0, 9000000000.0, 9000000000.0, 9000000000.0], v1000, z0, tool0]
    MoveL [[187,115,10],[30,-30,30],[0, 0, 0, 0],[9000000000.0, 9000000000.0, 9000000000.0, 9000000000.0, 9000000000.0, 9000000000.0], v1000, z0, tool0]
    MoveL [[112,111,5],[30,-30,30],[0, 0, 0, 0],[9000000000.0, 9000000000.0, 9000000000.0, 9000000000.0, 9000000000.0, 9000000000.0],  v1000, z0, tool0]
    MoveL [[112,111,10],[30,-30,30],[0, 0, 0, 0],[9000000000.0, 9000000000.0, 9000000000.0, 9000000000.0, 9000000000.0, 9000000000.0], v1000, z0, tool0]
    MoveL [[510,108,10],[30,-30,30],[0, 0, 0, 0],[9000000000.0, 9000000000.0, 9000000000.0, 9000000000.0, 9000000000.0, 9000000000.0], v1000, z0, tool0]
    MoveL [[512,112,5],[30,-30,30],[0, 0, 0, 0],[9000000000.0, 9000000000.0, 9000000000.0, 9000000000.0, 9000000000.0, 9000000000.0],  v1000, z0, tool0]
    MoveL [[512,112,10],[30,-30,30],[0, 0, 0, 0],[9000000000.0, 9000000000.0, 9000000000.0, 9000000000.0, 9000000000.0, 9000000000.0], v1000, z0, tool0]
    MoveL [[392,123,10],[30,-30,30],[0, 0, 0, 0],[9000000000.0, 9000000000.0, 9000000000.0, 9000000000.0, 9000000000.0, 9000000000.0], v1000, z0, tool0]
    MoveL [[485,115,5],[30,-30,30],[0, 0, 0, 0],[9000000000.0, 9000000000.0, 9000000000.0, 9000000000.0, 9000000000.0, 9000000000.0],  v1000, z0, tool0]
    MoveL [[485,115,10],[30,-30,30],[0, 0, 0, 0],[9000000000.0, 9000000000.0, 9000000000.0, 9000000000.0, 9000000000.0, 9000000000.0], v1000, z0, tool0]
    MoveL [[488,122,10],[30,-30,30],[0, 0, 0, 0],[9000000000.0, 9000000000.0, 9000000000.0, 9000000000.0, 9000000000.0, 9000000000.0], v1000, z0, tool0]
    MoveL [[500,112,5],[30,-30,30],[0, 0, 0, 0],[9000000000.0, 9000000000.0, 9000000000.0, 9000000000.0, 9000000000.0, 9000000000.0],  v1000, z0, tool0]
    MoveL [[500,112,10],[30,-30,30],[0, 0, 0, 0],[9000000000.0, 9000000000.0, 9000000000.0, 9000000000.0, 9000000000.0, 9000000000.0], v1000, z0, tool0]
    MoveL [[512,113,10],[30,-30,30],[0, 0, 0, 0],[9000000000.0, 9000000000.0, 9000000000.0, 9000000000.0, 9000000000.0, 9000000000.0], v1000, z0, tool0]
    MoveL [[460,146,5],[30,-30,30],[0, 0, 0, 0],[9000000000.0, 9000000000.0, 9000000000.0, 9000000000.0, 9000000000.0, 9000000000.0],  v1000, z0, tool0]
    MoveL [[460,146,10],[30,-30,30],[0, 0, 0, 0],[9000000000.0, 9000000000.0, 9000000000.0, 9000000000.0, 9000000000.0, 9000000000.0], v1000, z0, tool0]
    MoveL [[100,120,10],[30,-30,30],[0, 0, 0, 0],[9000000000.0, 9000000000.0, 9000000000.0, 9000000000.0, 9000000000.0, 9000000000.0], v1000, z0, tool0]
    MoveL [[118,114,5],[30,-30,30],[0, 0, 0, 0],[9000000000.0, 9000000000.0, 9000000000.0, 9000000000.0, 9000000000.0, 9000000000.0],  v1000, z0, tool0]
    MoveL [[118,114,10],[30,-30,30],[0, 0, 0, 0],[9000000000.0, 9000000000.0, 9000000000.0, 9000000000.0, 9000000000.0, 9000000000.0], v1000, z0, tool0]
    MoveL [[118,116,10],[30,-30,30],[0, 0, 0, 0],[9000000000.0, 9000000000.0, 9000000000.0, 9000000000.0, 9000000000.0, 9000000000.0], v1000, z0, tool0]
    MoveL [[206,126,5],[30,-30,30],[0, 0, 0, 0],[9000000000.0, 9000000000.0, 9000000000.0, 9000000000.0, 9000000000.0, 9000000000.0],  v1000, z0, tool0]
    MoveL [[206,126,10],[30,-30,30],[0, 0, 0, 0],[9000000000.0, 9000000000.0, 9000000000.0, 9000000000.0, 9000000000.0, 9000000000.0], v1000, z0, tool0]
    MoveL [[487,115,10],[30,-30,30],[0, 0, 0, 0],[9000000000.0, 9000000000.0, 9000000000.0, 9000000000.0, 9000000000.0, 9000000000.0], v1000, z0, tool0]
    MoveL [[446,139,5],[30,-30,30],[0, 0, 0, 0],[9000000000.0, 9000000000.0, 9000000000.0, 9000000000.0, 9000000000.0, 9000000000.0],  v1000, z0, tool0]
    MoveL [[446,139,10],[30,-30,30],[0, 0, 0, 0],[9000000000.0, 9000000000.0, 9000000000.0, 9000000000.0, 9000000000.0, 9000000000.0], v1000, z0, tool0]
    MoveL [[81,125,10],[30,-30,30],[0, 0, 0, 0],[9000000000.0, 9000000000.0, 9000000000.0, 9000000000.0, 9000000000.0, 9000000000.0], v1000, z0, tool0]
    MoveL [[81,118,5],[30,-30,30],[0, 0, 0, 0],[9000000000.0, 9000000000.0, 9000000000.0, 9000000000.0, 9000000000.0, 9000000000.0],  v1000, z0, tool0]
    MoveL [[81,118,10],[30,-30,30],[0, 0, 0, 0],[9000000000.0, 9000000000.0, 9000000000.0, 9000000000.0, 9000000000.0, 9000000000.0], v1000, z0, tool0]
    MoveL [[476,128,10],[30,-30,30],[0, 0, 0, 0],[9000000000.0, 9000000000.0, 9000000000.0, 9000000000.0, 9000000000.0, 9000000000.0], v1000, z0, tool0]
    MoveL [[488,121,5],[30,-30,30],[0, 0, 0, 0],[9000000000.0, 9000000000.0, 9000000000.0, 9000000000.0, 9000000000.0, 9000000000.0],  v1000, z0, tool0]
    MoveL [[488,121,10],[30,-30,30],[0, 0, 0, 0],[9000000000.0, 9000000000.0, 9000000000.0, 9000000000.0, 9000000000.0, 9000000000.0], v1000, z0, tool0]
    MoveL [[96,126,10],[30,-30,30],[0, 0, 0, 0],[9000000000.0, 9000000000.0, 9000000000.0, 9000000000.0, 9000000000.0, 9000000000.0], v1000, z0, tool0]
    MoveL [[100,122,5],[30,-30,30],[0, 0, 0, 0],[9000000000.0, 9000000000.0, 9000000000.0, 9000000000.0, 9000000000.0, 9000000000.0],  v1000, z0, tool0]
    MoveL [[100,122,10],[30,-30,30],[0, 0, 0, 0],[9000000000.0, 9000000000.0, 9000000000.0, 9000000000.0, 9000000000.0, 9000000000.0], v1000, z0, tool0]
    MoveL [[365,125,10],[30,-30,30],[0, 0, 0, 0],[9000000000.0, 9000000000.0, 9000000000.0, 9000000000.0, 9000000000.0, 9000000000.0], v1000, z0, tool0]
    MoveL [[391,123,5],[30,-30,30],[0, 0, 0, 0],[9000000000.0, 9000000000.0, 9000000000.0, 9000000000.0, 9000000000.0, 9000000000.0],  v1000, z0, tool0]
    MoveL [[391,123,10],[30,-30,30],[0, 0, 0, 0],[9000000000.0, 9000000000.0, 9000000000.0, 9000000000.0, 9000000000.0, 9000000000.0], v1000, z0, tool0]
    MoveL [[207,126,10],[30,-30,30],[0, 0, 0, 0],[9000000000.0, 9000000000.0, 9000000000.0, 9000000000.0, 9000000000.0, 9000000000.0], v1000, z0, tool0]
    MoveL [[297,128,5],[30,-30,30],[0, 0, 0, 0],[9000000000.0, 9000000000.0, 9000000000.0, 9000000000.0, 9000000000.0, 9000000000.0],  v1000, z0, tool0]
    MoveL [[297,128,10],[30,-30,30],[0, 0, 0, 0],[9000000000.0, 9000000000.0, 9000000000.0, 9000000000.0, 9000000000.0, 9000000000.0], v1000, z0, tool0]
    MoveL [[297,128,10],[30,-30,30],[0, 0, 0, 0],[9000000000.0, 9000000000.0, 9000000000.0, 9000000000.0, 9000000000.0, 9000000000.0], v1000, z0, tool0]
    MoveL [[365,125,5],[30,-30,30],[0, 0, 0, 0],[9000000000.0, 9000000000.0, 9000000000.0, 9000000000.0, 9000000000.0, 9000000000.0],  v1000, z0, tool0]
    MoveL [[365,125,10],[30,-30,30],[0, 0, 0, 0],[9000000000.0, 9000000000.0, 9000000000.0, 9000000000.0, 9000000000.0, 9000000000.0], v1000, z0, tool0]
    MoveL [[105,158,10],[30,-30,30],[0, 0, 0, 0],[9000000000.0, 9000000000.0, 9000000000.0, 9000000000.0, 9000000000.0, 9000000000.0], v1000, z0, tool0]
    MoveL [[79,125,5],[30,-30,30],[0, 0, 0, 0],[9000000000.0, 9000000000.0, 9000000000.0, 9000000000.0, 9000000000.0, 9000000000.0],  v1000, z0, tool0]
    MoveL [[79,125,10],[30,-30,30],[0, 0, 0, 0],[9000000000.0, 9000000000.0, 9000000000.0, 9000000000.0, 9000000000.0, 9000000000.0], v1000, z0, tool0]
    MoveL [[121,155,10],[30,-30,30],[0, 0, 0, 0],[9000000000.0, 9000000000.0, 9000000000.0, 9000000000.0, 9000000000.0, 9000000000.0], v1000, z0, tool0]
    MoveL [[96,126,5],[30,-30,30],[0, 0, 0, 0],[9000000000.0, 9000000000.0, 9000000000.0, 9000000000.0, 9000000000.0, 9000000000.0],  v1000, z0, tool0]
    MoveL [[96,126,10],[30,-30,30],[0, 0, 0, 0],[9000000000.0, 9000000000.0, 9000000000.0, 9000000000.0, 9000000000.0, 9000000000.0], v1000, z0, tool0]
    MoveL [[377,126,10],[30,-30,30],[0, 0, 0, 0],[9000000000.0, 9000000000.0, 9000000000.0, 9000000000.0, 9000000000.0, 9000000000.0], v1000, z0, tool0]
    MoveL [[374,133,5],[30,-30,30],[0, 0, 0, 0],[9000000000.0, 9000000000.0, 9000000000.0, 9000000000.0, 9000000000.0, 9000000000.0],  v1000, z0, tool0]
    MoveL [[374,133,10],[30,-30,30],[0, 0, 0, 0],[9000000000.0, 9000000000.0, 9000000000.0, 9000000000.0, 9000000000.0, 9000000000.0], v1000, z0, tool0]
    MoveL [[391,126,10],[30,-30,30],[0, 0, 0, 0],[9000000000.0, 9000000000.0, 9000000000.0, 9000000000.0, 9000000000.0, 9000000000.0], v1000, z0, tool0]
    MoveL [[387,136,5],[30,-30,30],[0, 0, 0, 0],[9000000000.0, 9000000000.0, 9000000000.0, 9000000000.0, 9000000000.0, 9000000000.0],  v1000, z0, tool0]
    MoveL [[387,136,10],[30,-30,30],[0, 0, 0, 0],[9000000000.0, 9000000000.0, 9000000000.0, 9000000000.0, 9000000000.0, 9000000000.0], v1000, z0, tool0]
    MoveL [[182,130,10],[30,-30,30],[0, 0, 0, 0],[9000000000.0, 9000000000.0, 9000000000.0, 9000000000.0, 9000000000.0, 9000000000.0], v1000, z0, tool0]
    MoveL [[189,128,5],[30,-30,30],[0, 0, 0, 0],[9000000000.0, 9000000000.0, 9000000000.0, 9000000000.0, 9000000000.0, 9000000000.0],  v1000, z0, tool0]
    MoveL [[189,128,10],[30,-30,30],[0, 0, 0, 0],[9000000000.0, 9000000000.0, 9000000000.0, 9000000000.0, 9000000000.0, 9000000000.0], v1000, z0, tool0]
    MoveL [[371,130,10],[30,-30,30],[0, 0, 0, 0],[9000000000.0, 9000000000.0, 9000000000.0, 9000000000.0, 9000000000.0, 9000000000.0], v1000, z0, tool0]
    MoveL [[230,131,5],[30,-30,30],[0, 0, 0, 0],[9000000000.0, 9000000000.0, 9000000000.0, 9000000000.0, 9000000000.0, 9000000000.0],  v1000, z0, tool0]
    MoveL [[230,131,10],[30,-30,30],[0, 0, 0, 0],[9000000000.0, 9000000000.0, 9000000000.0, 9000000000.0, 9000000000.0, 9000000000.0], v1000, z0, tool0]
    MoveL [[469,133,10],[30,-30,30],[0, 0, 0, 0],[9000000000.0, 9000000000.0, 9000000000.0, 9000000000.0, 9000000000.0, 9000000000.0], v1000, z0, tool0]
    MoveL [[477,128,5],[30,-30,30],[0, 0, 0, 0],[9000000000.0, 9000000000.0, 9000000000.0, 9000000000.0, 9000000000.0, 9000000000.0],  v1000, z0, tool0]
    MoveL [[477,128,10],[30,-30,30],[0, 0, 0, 0],[9000000000.0, 9000000000.0, 9000000000.0, 9000000000.0, 9000000000.0, 9000000000.0], v1000, z0, tool0]
    MoveL [[90,129,10],[30,-30,30],[0, 0, 0, 0],[9000000000.0, 9000000000.0, 9000000000.0, 9000000000.0, 9000000000.0, 9000000000.0], v1000, z0, tool0]
    MoveL [[120,160,5],[30,-30,30],[0, 0, 0, 0],[9000000000.0, 9000000000.0, 9000000000.0, 9000000000.0, 9000000000.0, 9000000000.0],  v1000, z0, tool0]
    MoveL [[120,160,10],[30,-30,30],[0, 0, 0, 0],[9000000000.0, 9000000000.0, 9000000000.0, 9000000000.0, 9000000000.0, 9000000000.0], v1000, z0, tool0]
    MoveL [[180,132,10],[30,-30,30],[0, 0, 0, 0],[9000000000.0, 9000000000.0, 9000000000.0, 9000000000.0, 9000000000.0, 9000000000.0], v1000, z0, tool0]
    MoveL [[171,130,5],[30,-30,30],[0, 0, 0, 0],[9000000000.0, 9000000000.0, 9000000000.0, 9000000000.0, 9000000000.0, 9000000000.0],  v1000, z0, tool0]
    MoveL [[171,130,10],[30,-30,30],[0, 0, 0, 0],[9000000000.0, 9000000000.0, 9000000000.0, 9000000000.0, 9000000000.0, 9000000000.0], v1000, z0, tool0]
    MoveL [[220,129,10],[30,-30,30],[0, 0, 0, 0],[9000000000.0, 9000000000.0, 9000000000.0, 9000000000.0, 9000000000.0, 9000000000.0], v1000, z0, tool0]
    MoveL [[215,135,5],[30,-30,30],[0, 0, 0, 0],[9000000000.0, 9000000000.0, 9000000000.0, 9000000000.0, 9000000000.0, 9000000000.0],  v1000, z0, tool0]
    MoveL [[215,135,10],[30,-30,30],[0, 0, 0, 0],[9000000000.0, 9000000000.0, 9000000000.0, 9000000000.0, 9000000000.0, 9000000000.0], v1000, z0, tool0]
    MoveL [[227,135,10],[30,-30,30],[0, 0, 0, 0],[9000000000.0, 9000000000.0, 9000000000.0, 9000000000.0, 9000000000.0, 9000000000.0], v1000, z0, tool0]
    MoveL [[223,129,5],[30,-30,30],[0, 0, 0, 0],[9000000000.0, 9000000000.0, 9000000000.0, 9000000000.0, 9000000000.0, 9000000000.0],  v1000, z0, tool0]
    MoveL [[223,129,10],[30,-30,30],[0, 0, 0, 0],[9000000000.0, 9000000000.0, 9000000000.0, 9000000000.0, 9000000000.0, 9000000000.0], v1000, z0, tool0]
    MoveL [[418,129,10],[30,-30,30],[0, 0, 0, 0],[9000000000.0, 9000000000.0, 9000000000.0, 9000000000.0, 9000000000.0, 9000000000.0], v1000, z0, tool0]
    MoveL [[404,135,5],[30,-30,30],[0, 0, 0, 0],[9000000000.0, 9000000000.0, 9000000000.0, 9000000000.0, 9000000000.0, 9000000000.0],  v1000, z0, tool0]
    MoveL [[404,135,10],[30,-30,30],[0, 0, 0, 0],[9000000000.0, 9000000000.0, 9000000000.0, 9000000000.0, 9000000000.0, 9000000000.0], v1000, z0, tool0]
    MoveL [[171,130,10],[30,-30,30],[0, 0, 0, 0],[9000000000.0, 9000000000.0, 9000000000.0, 9000000000.0, 9000000000.0, 9000000000.0], v1000, z0, tool0]
    MoveL [[166,140,5],[30,-30,30],[0, 0, 0, 0],[9000000000.0, 9000000000.0, 9000000000.0, 9000000000.0, 9000000000.0, 9000000000.0],  v1000, z0, tool0]
    MoveL [[166,140,10],[30,-30,30],[0, 0, 0, 0],[9000000000.0, 9000000000.0, 9000000000.0, 9000000000.0, 9000000000.0, 9000000000.0], v1000, z0, tool0]
    MoveL [[391,136,10],[30,-30,30],[0, 0, 0, 0],[9000000000.0, 9000000000.0, 9000000000.0, 9000000000.0, 9000000000.0, 9000000000.0], v1000, z0, tool0]
    MoveL [[394,129,5],[30,-30,30],[0, 0, 0, 0],[9000000000.0, 9000000000.0, 9000000000.0, 9000000000.0, 9000000000.0, 9000000000.0],  v1000, z0, tool0]
    MoveL [[394,129,10],[30,-30,30],[0, 0, 0, 0],[9000000000.0, 9000000000.0, 9000000000.0, 9000000000.0, 9000000000.0, 9000000000.0], v1000, z0, tool0]
    MoveL [[426,136,10],[30,-30,30],[0, 0, 0, 0],[9000000000.0, 9000000000.0, 9000000000.0, 9000000000.0, 9000000000.0, 9000000000.0], v1000, z0, tool0]
    MoveL [[421,131,5],[30,-30,30],[0, 0, 0, 0],[9000000000.0, 9000000000.0, 9000000000.0, 9000000000.0, 9000000000.0, 9000000000.0],  v1000, z0, tool0]
    MoveL [[421,131,10],[30,-30,30],[0, 0, 0, 0],[9000000000.0, 9000000000.0, 9000000000.0, 9000000000.0, 9000000000.0, 9000000000.0], v1000, z0, tool0]
    MoveL [[214,139,10],[30,-30,30],[0, 0, 0, 0],[9000000000.0, 9000000000.0, 9000000000.0, 9000000000.0, 9000000000.0, 9000000000.0], v1000, z0, tool0]
    MoveL [[208,131,5],[30,-30,30],[0, 0, 0, 0],[9000000000.0, 9000000000.0, 9000000000.0, 9000000000.0, 9000000000.0, 9000000000.0],  v1000, z0, tool0]
    MoveL [[208,131,10],[30,-30,30],[0, 0, 0, 0],[9000000000.0, 9000000000.0, 9000000000.0, 9000000000.0, 9000000000.0, 9000000000.0], v1000, z0, tool0]
    MoveL [[191,141,10],[30,-30,30],[0, 0, 0, 0],[9000000000.0, 9000000000.0, 9000000000.0, 9000000000.0, 9000000000.0, 9000000000.0], v1000, z0, tool0]
    MoveL [[180,133,5],[30,-30,30],[0, 0, 0, 0],[9000000000.0, 9000000000.0, 9000000000.0, 9000000000.0, 9000000000.0, 9000000000.0],  v1000, z0, tool0]
    MoveL [[180,133,10],[30,-30,30],[0, 0, 0, 0],[9000000000.0, 9000000000.0, 9000000000.0, 9000000000.0, 9000000000.0, 9000000000.0], v1000, z0, tool0]
    MoveL [[406,138,10],[30,-30,30],[0, 0, 0, 0],[9000000000.0, 9000000000.0, 9000000000.0, 9000000000.0, 9000000000.0, 9000000000.0], v1000, z0, tool0]
    MoveL [[417,132,5],[30,-30,30],[0, 0, 0, 0],[9000000000.0, 9000000000.0, 9000000000.0, 9000000000.0, 9000000000.0, 9000000000.0],  v1000, z0, tool0]
    MoveL [[417,132,10],[30,-30,30],[0, 0, 0, 0],[9000000000.0, 9000000000.0, 9000000000.0, 9000000000.0, 9000000000.0, 9000000000.0], v1000, z0, tool0]
    MoveL [[459,139,10],[30,-30,30],[0, 0, 0, 0],[9000000000.0, 9000000000.0, 9000000000.0, 9000000000.0, 9000000000.0, 9000000000.0], v1000, z0, tool0]
    MoveL [[471,133,5],[30,-30,30],[0, 0, 0, 0],[9000000000.0, 9000000000.0, 9000000000.0, 9000000000.0, 9000000000.0, 9000000000.0],  v1000, z0, tool0]
    MoveL [[471,133,10],[30,-30,30],[0, 0, 0, 0],[9000000000.0, 9000000000.0, 9000000000.0, 9000000000.0, 9000000000.0, 9000000000.0], v1000, z0, tool0]
    MoveL [[313,140,10],[30,-30,30],[0, 0, 0, 0],[9000000000.0, 9000000000.0, 9000000000.0, 9000000000.0, 9000000000.0, 9000000000.0], v1000, z0, tool0]
    MoveL [[312,133,5],[30,-30,30],[0, 0, 0, 0],[9000000000.0, 9000000000.0, 9000000000.0, 9000000000.0, 9000000000.0, 9000000000.0],  v1000, z0, tool0]
    MoveL [[312,133,10],[30,-30,30],[0, 0, 0, 0],[9000000000.0, 9000000000.0, 9000000000.0, 9000000000.0, 9000000000.0, 9000000000.0], v1000, z0, tool0]
    MoveL [[315,133,10],[30,-30,30],[0, 0, 0, 0],[9000000000.0, 9000000000.0, 9000000000.0, 9000000000.0, 9000000000.0, 9000000000.0], v1000, z0, tool0]
    MoveL [[318,141,5],[30,-30,30],[0, 0, 0, 0],[9000000000.0, 9000000000.0, 9000000000.0, 9000000000.0, 9000000000.0, 9000000000.0],  v1000, z0, tool0]
    MoveL [[318,141,10],[30,-30,30],[0, 0, 0, 0],[9000000000.0, 9000000000.0, 9000000000.0, 9000000000.0, 9000000000.0, 9000000000.0], v1000, z0, tool0]
    MoveL [[342,137,10],[30,-30,30],[0, 0, 0, 0],[9000000000.0, 9000000000.0, 9000000000.0, 9000000000.0, 9000000000.0, 9000000000.0], v1000, z0, tool0]
    MoveL [[357,135,5],[30,-30,30],[0, 0, 0, 0],[9000000000.0, 9000000000.0, 9000000000.0, 9000000000.0, 9000000000.0, 9000000000.0],  v1000, z0, tool0]
    MoveL [[357,135,10],[30,-30,30],[0, 0, 0, 0],[9000000000.0, 9000000000.0, 9000000000.0, 9000000000.0, 9000000000.0, 9000000000.0], v1000, z0, tool0]
    MoveL [[246,136,10],[30,-30,30],[0, 0, 0, 0],[9000000000.0, 9000000000.0, 9000000000.0, 9000000000.0, 9000000000.0, 9000000000.0], v1000, z0, tool0]
    MoveL [[267,138,5],[30,-30,30],[0, 0, 0, 0],[9000000000.0, 9000000000.0, 9000000000.0, 9000000000.0, 9000000000.0, 9000000000.0],  v1000, z0, tool0]
    MoveL [[267,138,10],[30,-30,30],[0, 0, 0, 0],[9000000000.0, 9000000000.0, 9000000000.0, 9000000000.0, 9000000000.0, 9000000000.0], v1000, z0, tool0]
    MoveL [[178,137,10],[30,-30,30],[0, 0, 0, 0],[9000000000.0, 9000000000.0, 9000000000.0, 9000000000.0, 9000000000.0, 9000000000.0], v1000, z0, tool0]
    MoveL [[191,148,5],[30,-30,30],[0, 0, 0, 0],[9000000000.0, 9000000000.0, 9000000000.0, 9000000000.0, 9000000000.0, 9000000000.0],  v1000, z0, tool0]
    MoveL [[191,148,10],[30,-30,30],[0, 0, 0, 0],[9000000000.0, 9000000000.0, 9000000000.0, 9000000000.0, 9000000000.0, 9000000000.0], v1000, z0, tool0]
    MoveL [[231,140,10],[30,-30,30],[0, 0, 0, 0],[9000000000.0, 9000000000.0, 9000000000.0, 9000000000.0, 9000000000.0, 9000000000.0], v1000, z0, tool0]
    MoveL [[240,137,5],[30,-30,30],[0, 0, 0, 0],[9000000000.0, 9000000000.0, 9000000000.0, 9000000000.0, 9000000000.0, 9000000000.0],  v1000, z0, tool0]
    MoveL [[240,137,10],[30,-30,30],[0, 0, 0, 0],[9000000000.0, 9000000000.0, 9000000000.0, 9000000000.0, 9000000000.0, 9000000000.0], v1000, z0, tool0]
    MoveL [[418,135,10],[30,-30,30],[0, 0, 0, 0],[9000000000.0, 9000000000.0, 9000000000.0, 9000000000.0, 9000000000.0, 9000000000.0], v1000, z0, tool0]
    MoveL [[422,140,5],[30,-30,30],[0, 0, 0, 0],[9000000000.0, 9000000000.0, 9000000000.0, 9000000000.0, 9000000000.0, 9000000000.0],  v1000, z0, tool0]
    MoveL [[422,140,10],[30,-30,30],[0, 0, 0, 0],[9000000000.0, 9000000000.0, 9000000000.0, 9000000000.0, 9000000000.0, 9000000000.0], v1000, z0, tool0]
    MoveL [[426,141,10],[30,-30,30],[0, 0, 0, 0],[9000000000.0, 9000000000.0, 9000000000.0, 9000000000.0, 9000000000.0, 9000000000.0], v1000, z0, tool0]
    MoveL [[425,136,5],[30,-30,30],[0, 0, 0, 0],[9000000000.0, 9000000000.0, 9000000000.0, 9000000000.0, 9000000000.0, 9000000000.0],  v1000, z0, tool0]
    MoveL [[425,136,10],[30,-30,30],[0, 0, 0, 0],[9000000000.0, 9000000000.0, 9000000000.0, 9000000000.0, 9000000000.0, 9000000000.0], v1000, z0, tool0]
    MoveL [[446,138,10],[30,-30,30],[0, 0, 0, 0],[9000000000.0, 9000000000.0, 9000000000.0, 9000000000.0, 9000000000.0, 9000000000.0], v1000, z0, tool0]
    MoveL [[432,140,5],[30,-30,30],[0, 0, 0, 0],[9000000000.0, 9000000000.0, 9000000000.0, 9000000000.0, 9000000000.0, 9000000000.0],  v1000, z0, tool0]
    MoveL [[432,140,10],[30,-30,30],[0, 0, 0, 0],[9000000000.0, 9000000000.0, 9000000000.0, 9000000000.0, 9000000000.0, 9000000000.0], v1000, z0, tool0]
    MoveL [[202,137,10],[30,-30,30],[0, 0, 0, 0],[9000000000.0, 9000000000.0, 9000000000.0, 9000000000.0, 9000000000.0, 9000000000.0], v1000, z0, tool0]
    MoveL [[203,146,5],[30,-30,30],[0, 0, 0, 0],[9000000000.0, 9000000000.0, 9000000000.0, 9000000000.0, 9000000000.0, 9000000000.0],  v1000, z0, tool0]
    MoveL [[203,146,10],[30,-30,30],[0, 0, 0, 0],[9000000000.0, 9000000000.0, 9000000000.0, 9000000000.0, 9000000000.0, 9000000000.0], v1000, z0, tool0]
    MoveL [[268,138,10],[30,-30,30],[0, 0, 0, 0],[9000000000.0, 9000000000.0, 9000000000.0, 9000000000.0, 9000000000.0, 9000000000.0], v1000, z0, tool0]
    MoveL [[279,143,5],[30,-30,30],[0, 0, 0, 0],[9000000000.0, 9000000000.0, 9000000000.0, 9000000000.0, 9000000000.0, 9000000000.0],  v1000, z0, tool0]
    MoveL [[279,143,10],[30,-30,30],[0, 0, 0, 0],[9000000000.0, 9000000000.0, 9000000000.0, 9000000000.0, 9000000000.0, 9000000000.0], v1000, z0, tool0]
    MoveL [[394,143,10],[30,-30,30],[0, 0, 0, 0],[9000000000.0, 9000000000.0, 9000000000.0, 9000000000.0, 9000000000.0, 9000000000.0], v1000, z0, tool0]
    MoveL [[391,137,5],[30,-30,30],[0, 0, 0, 0],[9000000000.0, 9000000000.0, 9000000000.0, 9000000000.0, 9000000000.0, 9000000000.0],  v1000, z0, tool0]
    MoveL [[391,137,10],[30,-30,30],[0, 0, 0, 0],[9000000000.0, 9000000000.0, 9000000000.0, 9000000000.0, 9000000000.0, 9000000000.0], v1000, z0, tool0]
    MoveL [[431,146,10],[30,-30,30],[0, 0, 0, 0],[9000000000.0, 9000000000.0, 9000000000.0, 9000000000.0, 9000000000.0, 9000000000.0], v1000, z0, tool0]
    MoveL [[460,139,5],[30,-30,30],[0, 0, 0, 0],[9000000000.0, 9000000000.0, 9000000000.0, 9000000000.0, 9000000000.0, 9000000000.0],  v1000, z0, tool0]
    MoveL [[460,139,10],[30,-30,30],[0, 0, 0, 0],[9000000000.0, 9000000000.0, 9000000000.0, 9000000000.0, 9000000000.0, 9000000000.0], v1000, z0, tool0]
    MoveL [[380,141,10],[30,-30,30],[0, 0, 0, 0],[9000000000.0, 9000000000.0, 9000000000.0, 9000000000.0, 9000000000.0, 9000000000.0], v1000, z0, tool0]
    MoveL [[351,139,5],[30,-30,30],[0, 0, 0, 0],[9000000000.0, 9000000000.0, 9000000000.0, 9000000000.0, 9000000000.0, 9000000000.0],  v1000, z0, tool0]
    MoveL [[351,139,10],[30,-30,30],[0, 0, 0, 0],[9000000000.0, 9000000000.0, 9000000000.0, 9000000000.0, 9000000000.0, 9000000000.0], v1000, z0, tool0]
    MoveL [[415,147,10],[30,-30,30],[0, 0, 0, 0],[9000000000.0, 9000000000.0, 9000000000.0, 9000000000.0, 9000000000.0, 9000000000.0], v1000, z0, tool0]
    MoveL [[416,138,5],[30,-30,30],[0, 0, 0, 0],[9000000000.0, 9000000000.0, 9000000000.0, 9000000000.0, 9000000000.0, 9000000000.0],  v1000, z0, tool0]
    MoveL [[416,138,10],[30,-30,30],[0, 0, 0, 0],[9000000000.0, 9000000000.0, 9000000000.0, 9000000000.0, 9000000000.0, 9000000000.0], v1000, z0, tool0]
    MoveL [[181,143,10],[30,-30,30],[0, 0, 0, 0],[9000000000.0, 9000000000.0, 9000000000.0, 9000000000.0, 9000000000.0, 9000000000.0], v1000, z0, tool0]
    MoveL [[174,141,5],[30,-30,30],[0, 0, 0, 0],[9000000000.0, 9000000000.0, 9000000000.0, 9000000000.0, 9000000000.0, 9000000000.0],  v1000, z0, tool0]
    MoveL [[174,141,10],[30,-30,30],[0, 0, 0, 0],[9000000000.0, 9000000000.0, 9000000000.0, 9000000000.0, 9000000000.0, 9000000000.0], v1000, z0, tool0]
    MoveL [[239,141,10],[30,-30,30],[0, 0, 0, 0],[9000000000.0, 9000000000.0, 9000000000.0, 9000000000.0, 9000000000.0, 9000000000.0], v1000, z0, tool0]
    MoveL [[232,142,5],[30,-30,30],[0, 0, 0, 0],[9000000000.0, 9000000000.0, 9000000000.0, 9000000000.0, 9000000000.0, 9000000000.0],  v1000, z0, tool0]
    MoveL [[232,142,10],[30,-30,30],[0, 0, 0, 0],[9000000000.0, 9000000000.0, 9000000000.0, 9000000000.0, 9000000000.0, 9000000000.0], v1000, z0, tool0]
    MoveL [[262,141,10],[30,-30,30],[0, 0, 0, 0],[9000000000.0, 9000000000.0, 9000000000.0, 9000000000.0, 9000000000.0, 9000000000.0], v1000, z0, tool0]
    MoveL [[248,140,5],[30,-30,30],[0, 0, 0, 0],[9000000000.0, 9000000000.0, 9000000000.0, 9000000000.0, 9000000000.0, 9000000000.0],  v1000, z0, tool0]
    MoveL [[248,140,10],[30,-30,30],[0, 0, 0, 0],[9000000000.0, 9000000000.0, 9000000000.0, 9000000000.0, 9000000000.0, 9000000000.0], v1000, z0, tool0]
    MoveL [[281,141,10],[30,-30,30],[0, 0, 0, 0],[9000000000.0, 9000000000.0, 9000000000.0, 9000000000.0, 9000000000.0, 9000000000.0], v1000, z0, tool0]
    MoveL [[294,151,5],[30,-30,30],[0, 0, 0, 0],[9000000000.0, 9000000000.0, 9000000000.0, 9000000000.0, 9000000000.0, 9000000000.0],  v1000, z0, tool0]
    MoveL [[294,151,10],[30,-30,30],[0, 0, 0, 0],[9000000000.0, 9000000000.0, 9000000000.0, 9000000000.0, 9000000000.0, 9000000000.0], v1000, z0, tool0]
    MoveL [[166,141,10],[30,-30,30],[0, 0, 0, 0],[9000000000.0, 9000000000.0, 9000000000.0, 9000000000.0, 9000000000.0, 9000000000.0], v1000, z0, tool0]
    MoveL [[166,146,5],[30,-30,30],[0, 0, 0, 0],[9000000000.0, 9000000000.0, 9000000000.0, 9000000000.0, 9000000000.0, 9000000000.0],  v1000, z0, tool0]
    MoveL [[166,146,10],[30,-30,30],[0, 0, 0, 0],[9000000000.0, 9000000000.0, 9000000000.0, 9000000000.0, 9000000000.0, 9000000000.0], v1000, z0, tool0]
    MoveL [[322,144,10],[30,-30,30],[0, 0, 0, 0],[9000000000.0, 9000000000.0, 9000000000.0, 9000000000.0, 9000000000.0, 9000000000.0], v1000, z0, tool0]
    MoveL [[337,143,5],[30,-30,30],[0, 0, 0, 0],[9000000000.0, 9000000000.0, 9000000000.0, 9000000000.0, 9000000000.0, 9000000000.0],  v1000, z0, tool0]
    MoveL [[337,143,10],[30,-30,30],[0, 0, 0, 0],[9000000000.0, 9000000000.0, 9000000000.0, 9000000000.0, 9000000000.0, 9000000000.0], v1000, z0, tool0]
    MoveL [[353,141,10],[30,-30,30],[0, 0, 0, 0],[9000000000.0, 9000000000.0, 9000000000.0, 9000000000.0, 9000000000.0, 9000000000.0], v1000, z0, tool0]
    MoveL [[373,145,5],[30,-30,30],[0, 0, 0, 0],[9000000000.0, 9000000000.0, 9000000000.0, 9000000000.0, 9000000000.0, 9000000000.0],  v1000, z0, tool0]
    MoveL [[373,145,10],[30,-30,30],[0, 0, 0, 0],[9000000000.0, 9000000000.0, 9000000000.0, 9000000000.0, 9000000000.0, 9000000000.0], v1000, z0, tool0]
    MoveL [[421,147,10],[30,-30,30],[0, 0, 0, 0],[9000000000.0, 9000000000.0, 9000000000.0, 9000000000.0, 9000000000.0, 9000000000.0], v1000, z0, tool0]
    MoveL [[425,142,5],[30,-30,30],[0, 0, 0, 0],[9000000000.0, 9000000000.0, 9000000000.0, 9000000000.0, 9000000000.0, 9000000000.0],  v1000, z0, tool0]
    MoveL [[425,142,10],[30,-30,30],[0, 0, 0, 0],[9000000000.0, 9000000000.0, 9000000000.0, 9000000000.0, 9000000000.0, 9000000000.0], v1000, z0, tool0]
    MoveL [[237,146,10],[30,-30,30],[0, 0, 0, 0],[9000000000.0, 9000000000.0, 9000000000.0, 9000000000.0, 9000000000.0, 9000000000.0], v1000, z0, tool0]
    MoveL [[253,142,5],[30,-30,30],[0, 0, 0, 0],[9000000000.0, 9000000000.0, 9000000000.0, 9000000000.0, 9000000000.0, 9000000000.0],  v1000, z0, tool0]
    MoveL [[253,142,10],[30,-30,30],[0, 0, 0, 0],[9000000000.0, 9000000000.0, 9000000000.0, 9000000000.0, 9000000000.0, 9000000000.0], v1000, z0, tool0]
    MoveL [[401,146,10],[30,-30,30],[0, 0, 0, 0],[9000000000.0, 9000000000.0, 9000000000.0, 9000000000.0, 9000000000.0, 9000000000.0], v1000, z0, tool0]
    MoveL [[393,143,5],[30,-30,30],[0, 0, 0, 0],[9000000000.0, 9000000000.0, 9000000000.0, 9000000000.0, 9000000000.0, 9000000000.0],  v1000, z0, tool0]
    MoveL [[393,143,10],[30,-30,30],[0, 0, 0, 0],[9000000000.0, 9000000000.0, 9000000000.0, 9000000000.0, 9000000000.0, 9000000000.0], v1000, z0, tool0]
    MoveL [[459,144,10],[30,-30,30],[0, 0, 0, 0],[9000000000.0, 9000000000.0, 9000000000.0, 9000000000.0, 9000000000.0, 9000000000.0], v1000, z0, tool0]
    MoveL [[428,151,5],[30,-30,30],[0, 0, 0, 0],[9000000000.0, 9000000000.0, 9000000000.0, 9000000000.0, 9000000000.0, 9000000000.0],  v1000, z0, tool0]
    MoveL [[428,151,10],[30,-30,30],[0, 0, 0, 0],[9000000000.0, 9000000000.0, 9000000000.0, 9000000000.0, 9000000000.0, 9000000000.0], v1000, z0, tool0]
    MoveL [[189,154,10],[30,-30,30],[0, 0, 0, 0],[9000000000.0, 9000000000.0, 9000000000.0, 9000000000.0, 9000000000.0, 9000000000.0], v1000, z0, tool0]
    MoveL [[181,144,5],[30,-30,30],[0, 0, 0, 0],[9000000000.0, 9000000000.0, 9000000000.0, 9000000000.0, 9000000000.0, 9000000000.0],  v1000, z0, tool0]
    MoveL [[181,144,10],[30,-30,30],[0, 0, 0, 0],[9000000000.0, 9000000000.0, 9000000000.0, 9000000000.0, 9000000000.0, 9000000000.0], v1000, z0, tool0]
    MoveL [[412,143,10],[30,-30,30],[0, 0, 0, 0],[9000000000.0, 9000000000.0, 9000000000.0, 9000000000.0, 9000000000.0, 9000000000.0], v1000, z0, tool0]
    MoveL [[404,148,5],[30,-30,30],[0, 0, 0, 0],[9000000000.0, 9000000000.0, 9000000000.0, 9000000000.0, 9000000000.0, 9000000000.0],  v1000, z0, tool0]
    MoveL [[404,148,10],[30,-30,30],[0, 0, 0, 0],[9000000000.0, 9000000000.0, 9000000000.0, 9000000000.0, 9000000000.0, 9000000000.0], v1000, z0, tool0]
    MoveL [[168,146,10],[30,-30,30],[0, 0, 0, 0],[9000000000.0, 9000000000.0, 9000000000.0, 9000000000.0, 9000000000.0, 9000000000.0], v1000, z0, tool0]
    MoveL [[168,166,5],[30,-30,30],[0, 0, 0, 0],[9000000000.0, 9000000000.0, 9000000000.0, 9000000000.0, 9000000000.0, 9000000000.0],  v1000, z0, tool0]
    MoveL [[168,166,10],[30,-30,30],[0, 0, 0, 0],[9000000000.0, 9000000000.0, 9000000000.0, 9000000000.0, 9000000000.0, 9000000000.0], v1000, z0, tool0]
    MoveL [[367,147,10],[30,-30,30],[0, 0, 0, 0],[9000000000.0, 9000000000.0, 9000000000.0, 9000000000.0, 9000000000.0, 9000000000.0], v1000, z0, tool0]
    MoveL [[343,150,5],[30,-30,30],[0, 0, 0, 0],[9000000000.0, 9000000000.0, 9000000000.0, 9000000000.0, 9000000000.0, 9000000000.0],  v1000, z0, tool0]
    MoveL [[343,150,10],[30,-30,30],[0, 0, 0, 0],[9000000000.0, 9000000000.0, 9000000000.0, 9000000000.0, 9000000000.0, 9000000000.0], v1000, z0, tool0]
    MoveL [[279,150,10],[30,-30,30],[0, 0, 0, 0],[9000000000.0, 9000000000.0, 9000000000.0, 9000000000.0, 9000000000.0, 9000000000.0], v1000, z0, tool0]
    MoveL [[273,148,5],[30,-30,30],[0, 0, 0, 0],[9000000000.0, 9000000000.0, 9000000000.0, 9000000000.0, 9000000000.0, 9000000000.0],  v1000, z0, tool0]
    MoveL [[273,148,10],[30,-30,30],[0, 0, 0, 0],[9000000000.0, 9000000000.0, 9000000000.0, 9000000000.0, 9000000000.0, 9000000000.0], v1000, z0, tool0]
    MoveL [[263,151,10],[30,-30,30],[0, 0, 0, 0],[9000000000.0, 9000000000.0, 9000000000.0, 9000000000.0, 9000000000.0, 9000000000.0], v1000, z0, tool0]
    MoveL [[237,150,5],[30,-30,30],[0, 0, 0, 0],[9000000000.0, 9000000000.0, 9000000000.0, 9000000000.0, 9000000000.0, 9000000000.0],  v1000, z0, tool0]
    MoveL [[237,150,10],[30,-30,30],[0, 0, 0, 0],[9000000000.0, 9000000000.0, 9000000000.0, 9000000000.0, 9000000000.0, 9000000000.0], v1000, z0, tool0]
    MoveL [[337,150,10],[30,-30,30],[0, 0, 0, 0],[9000000000.0, 9000000000.0, 9000000000.0, 9000000000.0, 9000000000.0, 9000000000.0], v1000, z0, tool0]
    MoveL [[350,153,5],[30,-30,30],[0, 0, 0, 0],[9000000000.0, 9000000000.0, 9000000000.0, 9000000000.0, 9000000000.0, 9000000000.0],  v1000, z0, tool0]
    MoveL [[350,153,10],[30,-30,30],[0, 0, 0, 0],[9000000000.0, 9000000000.0, 9000000000.0, 9000000000.0, 9000000000.0, 9000000000.0], v1000, z0, tool0]
    MoveL [[353,155,10],[30,-30,30],[0, 0, 0, 0],[9000000000.0, 9000000000.0, 9000000000.0, 9000000000.0, 9000000000.0, 9000000000.0], v1000, z0, tool0]
    MoveL [[331,152,5],[30,-30,30],[0, 0, 0, 0],[9000000000.0, 9000000000.0, 9000000000.0, 9000000000.0, 9000000000.0, 9000000000.0],  v1000, z0, tool0]
    MoveL [[331,152,10],[30,-30,30],[0, 0, 0, 0],[9000000000.0, 9000000000.0, 9000000000.0, 9000000000.0, 9000000000.0, 9000000000.0], v1000, z0, tool0]
    MoveL [[403,155,10],[30,-30,30],[0, 0, 0, 0],[9000000000.0, 9000000000.0, 9000000000.0, 9000000000.0, 9000000000.0, 9000000000.0], v1000, z0, tool0]
    MoveL [[398,150,5],[30,-30,30],[0, 0, 0, 0],[9000000000.0, 9000000000.0, 9000000000.0, 9000000000.0, 9000000000.0, 9000000000.0],  v1000, z0, tool0]
    MoveL [[398,150,10],[30,-30,30],[0, 0, 0, 0],[9000000000.0, 9000000000.0, 9000000000.0, 9000000000.0, 9000000000.0, 9000000000.0], v1000, z0, tool0]
    MoveL [[411,151,10],[30,-30,30],[0, 0, 0, 0],[9000000000.0, 9000000000.0, 9000000000.0, 9000000000.0, 9000000000.0, 9000000000.0], v1000, z0, tool0]
    MoveL [[404,159,5],[30,-30,30],[0, 0, 0, 0],[9000000000.0, 9000000000.0, 9000000000.0, 9000000000.0, 9000000000.0, 9000000000.0],  v1000, z0, tool0]
    MoveL [[404,159,10],[30,-30,30],[0, 0, 0, 0],[9000000000.0, 9000000000.0, 9000000000.0, 9000000000.0, 9000000000.0, 9000000000.0], v1000, z0, tool0]
    MoveL [[168,167,10],[30,-30,30],[0, 0, 0, 0],[9000000000.0, 9000000000.0, 9000000000.0, 9000000000.0, 9000000000.0, 9000000000.0], v1000, z0, tool0]
    MoveL [[122,155,5],[30,-30,30],[0, 0, 0, 0],[9000000000.0, 9000000000.0, 9000000000.0, 9000000000.0, 9000000000.0, 9000000000.0],  v1000, z0, tool0]
    MoveL [[122,155,10],[30,-30,30],[0, 0, 0, 0],[9000000000.0, 9000000000.0, 9000000000.0, 9000000000.0, 9000000000.0, 9000000000.0], v1000, z0, tool0]
    MoveL [[271,154,10],[30,-30,30],[0, 0, 0, 0],[9000000000.0, 9000000000.0, 9000000000.0, 9000000000.0, 9000000000.0, 9000000000.0], v1000, z0, tool0]
    MoveL [[262,154,5],[30,-30,30],[0, 0, 0, 0],[9000000000.0, 9000000000.0, 9000000000.0, 9000000000.0, 9000000000.0, 9000000000.0],  v1000, z0, tool0]
    MoveL [[262,154,10],[30,-30,30],[0, 0, 0, 0],[9000000000.0, 9000000000.0, 9000000000.0, 9000000000.0, 9000000000.0, 9000000000.0], v1000, z0, tool0]
    MoveL [[293,153,10],[30,-30,30],[0, 0, 0, 0],[9000000000.0, 9000000000.0, 9000000000.0, 9000000000.0, 9000000000.0, 9000000000.0], v1000, z0, tool0]
    MoveL [[289,157,5],[30,-30,30],[0, 0, 0, 0],[9000000000.0, 9000000000.0, 9000000000.0, 9000000000.0, 9000000000.0, 9000000000.0],  v1000, z0, tool0]
    MoveL [[289,157,10],[30,-30,30],[0, 0, 0, 0],[9000000000.0, 9000000000.0, 9000000000.0, 9000000000.0, 9000000000.0, 9000000000.0], v1000, z0, tool0]
    MoveL [[427,153,10],[30,-30,30],[0, 0, 0, 0],[9000000000.0, 9000000000.0, 9000000000.0, 9000000000.0, 9000000000.0, 9000000000.0], v1000, z0, tool0]
    MoveL [[428,160,5],[30,-30,30],[0, 0, 0, 0],[9000000000.0, 9000000000.0, 9000000000.0, 9000000000.0, 9000000000.0, 9000000000.0],  v1000, z0, tool0]
    MoveL [[428,160,10],[30,-30,30],[0, 0, 0, 0],[9000000000.0, 9000000000.0, 9000000000.0, 9000000000.0, 9000000000.0, 9000000000.0], v1000, z0, tool0]
    MoveL [[115,162,10],[30,-30,30],[0, 0, 0, 0],[9000000000.0, 9000000000.0, 9000000000.0, 9000000000.0, 9000000000.0, 9000000000.0], v1000, z0, tool0]
    MoveL [[104,156,5],[30,-30,30],[0, 0, 0, 0],[9000000000.0, 9000000000.0, 9000000000.0, 9000000000.0, 9000000000.0, 9000000000.0],  v1000, z0, tool0]
    MoveL [[104,156,10],[30,-30,30],[0, 0, 0, 0],[9000000000.0, 9000000000.0, 9000000000.0, 9000000000.0, 9000000000.0, 9000000000.0], v1000, z0, tool0]
    MoveL [[415,164,10],[30,-30,30],[0, 0, 0, 0],[9000000000.0, 9000000000.0, 9000000000.0, 9000000000.0, 9000000000.0, 9000000000.0], v1000, z0, tool0]
    MoveL [[422,157,5],[30,-30,30],[0, 0, 0, 0],[9000000000.0, 9000000000.0, 9000000000.0, 9000000000.0, 9000000000.0, 9000000000.0],  v1000, z0, tool0]
    MoveL [[422,157,10],[30,-30,30],[0, 0, 0, 0],[9000000000.0, 9000000000.0, 9000000000.0, 9000000000.0, 9000000000.0, 9000000000.0], v1000, z0, tool0]
    MoveL [[118,158,10],[30,-30,30],[0, 0, 0, 0],[9000000000.0, 9000000000.0, 9000000000.0, 9000000000.0, 9000000000.0, 9000000000.0], v1000, z0, tool0]
    MoveL [[167,171,5],[30,-30,30],[0, 0, 0, 0],[9000000000.0, 9000000000.0, 9000000000.0, 9000000000.0, 9000000000.0, 9000000000.0],  v1000, z0, tool0]
    MoveL [[167,171,10],[30,-30,30],[0, 0, 0, 0],[9000000000.0, 9000000000.0, 9000000000.0, 9000000000.0, 9000000000.0, 9000000000.0], v1000, z0, tool0]
    MoveL [[200,158,10],[30,-30,30],[0, 0, 0, 0],[9000000000.0, 9000000000.0, 9000000000.0, 9000000000.0, 9000000000.0, 9000000000.0], v1000, z0, tool0]
    MoveL [[195,164,5],[30,-30,30],[0, 0, 0, 0],[9000000000.0, 9000000000.0, 9000000000.0, 9000000000.0, 9000000000.0, 9000000000.0],  v1000, z0, tool0]
    MoveL [[195,164,10],[30,-30,30],[0, 0, 0, 0],[9000000000.0, 9000000000.0, 9000000000.0, 9000000000.0, 9000000000.0, 9000000000.0], v1000, z0, tool0]
    MoveL [[185,164,10],[30,-30,30],[0, 0, 0, 0],[9000000000.0, 9000000000.0, 9000000000.0, 9000000000.0, 9000000000.0, 9000000000.0], v1000, z0, tool0]
    MoveL [[184,159,5],[30,-30,30],[0, 0, 0, 0],[9000000000.0, 9000000000.0, 9000000000.0, 9000000000.0, 9000000000.0, 9000000000.0],  v1000, z0, tool0]
    MoveL [[184,159,10],[30,-30,30],[0, 0, 0, 0],[9000000000.0, 9000000000.0, 9000000000.0, 9000000000.0, 9000000000.0, 9000000000.0], v1000, z0, tool0]
    MoveL [[428,159,10],[30,-30,30],[0, 0, 0, 0],[9000000000.0, 9000000000.0, 9000000000.0, 9000000000.0, 9000000000.0, 9000000000.0], v1000, z0, tool0]
    MoveL [[421,168,5],[30,-30,30],[0, 0, 0, 0],[9000000000.0, 9000000000.0, 9000000000.0, 9000000000.0, 9000000000.0, 9000000000.0],  v1000, z0, tool0]
    MoveL [[421,168,10],[30,-30,30],[0, 0, 0, 0],[9000000000.0, 9000000000.0, 9000000000.0, 9000000000.0, 9000000000.0, 9000000000.0], v1000, z0, tool0]
    MoveL [[172,177,10],[30,-30,30],[0, 0, 0, 0],[9000000000.0, 9000000000.0, 9000000000.0, 9000000000.0, 9000000000.0, 9000000000.0], v1000, z0, tool0]
    MoveL [[114,164,5],[30,-30,30],[0, 0, 0, 0],[9000000000.0, 9000000000.0, 9000000000.0, 9000000000.0, 9000000000.0, 9000000000.0],  v1000, z0, tool0]
    MoveL [[114,164,10],[30,-30,30],[0, 0, 0, 0],[9000000000.0, 9000000000.0, 9000000000.0, 9000000000.0, 9000000000.0, 9000000000.0], v1000, z0, tool0]
    MoveL [[169,162,10],[30,-30,30],[0, 0, 0, 0],[9000000000.0, 9000000000.0, 9000000000.0, 9000000000.0, 9000000000.0, 9000000000.0], v1000, z0, tool0]
    MoveL [[180,179,5],[30,-30,30],[0, 0, 0, 0],[9000000000.0, 9000000000.0, 9000000000.0, 9000000000.0, 9000000000.0, 9000000000.0],  v1000, z0, tool0]
    MoveL [[180,179,10],[30,-30,30],[0, 0, 0, 0],[9000000000.0, 9000000000.0, 9000000000.0, 9000000000.0, 9000000000.0, 9000000000.0], v1000, z0, tool0]
    MoveL [[188,171,10],[30,-30,30],[0, 0, 0, 0],[9000000000.0, 9000000000.0, 9000000000.0, 9000000000.0, 9000000000.0, 9000000000.0], v1000, z0, tool0]
    MoveL [[184,163,5],[30,-30,30],[0, 0, 0, 0],[9000000000.0, 9000000000.0, 9000000000.0, 9000000000.0, 9000000000.0, 9000000000.0],  v1000, z0, tool0]
    MoveL [[184,163,10],[30,-30,30],[0, 0, 0, 0],[9000000000.0, 9000000000.0, 9000000000.0, 9000000000.0, 9000000000.0, 9000000000.0], v1000, z0, tool0]
    MoveL [[417,170,10],[30,-30,30],[0, 0, 0, 0],[9000000000.0, 9000000000.0, 9000000000.0, 9000000000.0, 9000000000.0, 9000000000.0], v1000, z0, tool0]
    MoveL [[416,164,5],[30,-30,30],[0, 0, 0, 0],[9000000000.0, 9000000000.0, 9000000000.0, 9000000000.0, 9000000000.0, 9000000000.0],  v1000, z0, tool0]
    MoveL [[416,164,10],[30,-30,30],[0, 0, 0, 0],[9000000000.0, 9000000000.0, 9000000000.0, 9000000000.0, 9000000000.0, 9000000000.0], v1000, z0, tool0]
    MoveL [[405,181,10],[30,-30,30],[0, 0, 0, 0],[9000000000.0, 9000000000.0, 9000000000.0, 9000000000.0, 9000000000.0, 9000000000.0], v1000, z0, tool0]
    MoveL [[420,169,5],[30,-30,30],[0, 0, 0, 0],[9000000000.0, 9000000000.0, 9000000000.0, 9000000000.0, 9000000000.0, 9000000000.0],  v1000, z0, tool0]
    MoveL [[420,169,10],[30,-30,30],[0, 0, 0, 0],[9000000000.0, 9000000000.0, 9000000000.0, 9000000000.0, 9000000000.0, 9000000000.0], v1000, z0, tool0]
    MoveL [[280,175,10],[30,-30,30],[0, 0, 0, 0],[9000000000.0, 9000000000.0, 9000000000.0, 9000000000.0, 9000000000.0, 9000000000.0], v1000, z0, tool0]
    MoveL [[286,172,5],[30,-30,30],[0, 0, 0, 0],[9000000000.0, 9000000000.0, 9000000000.0, 9000000000.0, 9000000000.0, 9000000000.0],  v1000, z0, tool0]
    MoveL [[286,172,10],[30,-30,30],[0, 0, 0, 0],[9000000000.0, 9000000000.0, 9000000000.0, 9000000000.0, 9000000000.0, 9000000000.0], v1000, z0, tool0]
    MoveL [[424,172,10],[30,-30,30],[0, 0, 0, 0],[9000000000.0, 9000000000.0, 9000000000.0, 9000000000.0, 9000000000.0, 9000000000.0], v1000, z0, tool0]
    MoveL [[411,184,5],[30,-30,30],[0, 0, 0, 0],[9000000000.0, 9000000000.0, 9000000000.0, 9000000000.0, 9000000000.0, 9000000000.0],  v1000, z0, tool0]
    MoveL [[411,184,10],[30,-30,30],[0, 0, 0, 0],[9000000000.0, 9000000000.0, 9000000000.0, 9000000000.0, 9000000000.0, 9000000000.0], v1000, z0, tool0]
    MoveL [[328,174,10],[30,-30,30],[0, 0, 0, 0],[9000000000.0, 9000000000.0, 9000000000.0, 9000000000.0, 9000000000.0, 9000000000.0], v1000, z0, tool0]
    MoveL [[334,179,5],[30,-30,30],[0, 0, 0, 0],[9000000000.0, 9000000000.0, 9000000000.0, 9000000000.0, 9000000000.0, 9000000000.0],  v1000, z0, tool0]
    MoveL [[334,179,10],[30,-30,30],[0, 0, 0, 0],[9000000000.0, 9000000000.0, 9000000000.0, 9000000000.0, 9000000000.0, 9000000000.0], v1000, z0, tool0]
    MoveL [[178,183,10],[30,-30,30],[0, 0, 0, 0],[9000000000.0, 9000000000.0, 9000000000.0, 9000000000.0, 9000000000.0, 9000000000.0], v1000, z0, tool0]
    MoveL [[170,177,5],[30,-30,30],[0, 0, 0, 0],[9000000000.0, 9000000000.0, 9000000000.0, 9000000000.0, 9000000000.0, 9000000000.0],  v1000, z0, tool0]
    MoveL [[170,177,10],[30,-30,30],[0, 0, 0, 0],[9000000000.0, 9000000000.0, 9000000000.0, 9000000000.0, 9000000000.0, 9000000000.0], v1000, z0, tool0]
    MoveL [[180,179,10],[30,-30,30],[0, 0, 0, 0],[9000000000.0, 9000000000.0, 9000000000.0, 9000000000.0, 9000000000.0, 9000000000.0], v1000, z0, tool0]
    MoveL [[194,182,5],[30,-30,30],[0, 0, 0, 0],[9000000000.0, 9000000000.0, 9000000000.0, 9000000000.0, 9000000000.0, 9000000000.0],  v1000, z0, tool0]
    MoveL [[194,182,10],[30,-30,30],[0, 0, 0, 0],[9000000000.0, 9000000000.0, 9000000000.0, 9000000000.0, 9000000000.0, 9000000000.0], v1000, z0, tool0]
    MoveL [[331,182,10],[30,-30,30],[0, 0, 0, 0],[9000000000.0, 9000000000.0, 9000000000.0, 9000000000.0, 9000000000.0, 9000000000.0], v1000, z0, tool0]
    MoveL [[326,176,5],[30,-30,30],[0, 0, 0, 0],[9000000000.0, 9000000000.0, 9000000000.0, 9000000000.0, 9000000000.0, 9000000000.0],  v1000, z0, tool0]
    MoveL [[326,176,10],[30,-30,30],[0, 0, 0, 0],[9000000000.0, 9000000000.0, 9000000000.0, 9000000000.0, 9000000000.0, 9000000000.0], v1000, z0, tool0]
    MoveL [[396,186,10],[30,-30,30],[0, 0, 0, 0],[9000000000.0, 9000000000.0, 9000000000.0, 9000000000.0, 9000000000.0, 9000000000.0], v1000, z0, tool0]
    MoveL [[399,179,5],[30,-30,30],[0, 0, 0, 0],[9000000000.0, 9000000000.0, 9000000000.0, 9000000000.0, 9000000000.0, 9000000000.0],  v1000, z0, tool0]
    MoveL [[399,179,10],[30,-30,30],[0, 0, 0, 0],[9000000000.0, 9000000000.0, 9000000000.0, 9000000000.0, 9000000000.0, 9000000000.0], v1000, z0, tool0]
    MoveL [[269,185,10],[30,-30,30],[0, 0, 0, 0],[9000000000.0, 9000000000.0, 9000000000.0, 9000000000.0, 9000000000.0, 9000000000.0], v1000, z0, tool0]
    MoveL [[268,179,5],[30,-30,30],[0, 0, 0, 0],[9000000000.0, 9000000000.0, 9000000000.0, 9000000000.0, 9000000000.0, 9000000000.0],  v1000, z0, tool0]
    MoveL [[268,179,10],[30,-30,30],[0, 0, 0, 0],[9000000000.0, 9000000000.0, 9000000000.0, 9000000000.0, 9000000000.0, 9000000000.0], v1000, z0, tool0]
    MoveL [[411,183,10],[30,-30,30],[0, 0, 0, 0],[9000000000.0, 9000000000.0, 9000000000.0, 9000000000.0, 9000000000.0, 9000000000.0], v1000, z0, tool0]
    MoveL [[404,186,5],[30,-30,30],[0, 0, 0, 0],[9000000000.0, 9000000000.0, 9000000000.0, 9000000000.0, 9000000000.0, 9000000000.0],  v1000, z0, tool0]
    MoveL [[404,186,10],[30,-30,30],[0, 0, 0, 0],[9000000000.0, 9000000000.0, 9000000000.0, 9000000000.0, 9000000000.0, 9000000000.0], v1000, z0, tool0]
    MoveL [[193,187,10],[30,-30,30],[0, 0, 0, 0],[9000000000.0, 9000000000.0, 9000000000.0, 9000000000.0, 9000000000.0, 9000000000.0], v1000, z0, tool0]
    MoveL [[179,183,5],[30,-30,30],[0, 0, 0, 0],[9000000000.0, 9000000000.0, 9000000000.0, 9000000000.0, 9000000000.0, 9000000000.0],  v1000, z0, tool0]
    MoveL [[179,183,10],[30,-30,30],[0, 0, 0, 0],[9000000000.0, 9000000000.0, 9000000000.0, 9000000000.0, 9000000000.0, 9000000000.0], v1000, z0, tool0]
    MoveL [[310,189,10],[30,-30,30],[0, 0, 0, 0],[9000000000.0, 9000000000.0, 9000000000.0, 9000000000.0, 9000000000.0, 9000000000.0], v1000, z0, tool0]
    MoveL [[331,184,5],[30,-30,30],[0, 0, 0, 0],[9000000000.0, 9000000000.0, 9000000000.0, 9000000000.0, 9000000000.0, 9000000000.0],  v1000, z0, tool0]
    MoveL [[331,184,10],[30,-30,30],[0, 0, 0, 0],[9000000000.0, 9000000000.0, 9000000000.0, 9000000000.0, 9000000000.0, 9000000000.0], v1000, z0, tool0]
    MoveL [[277,187,10],[30,-30,30],[0, 0, 0, 0],[9000000000.0, 9000000000.0, 9000000000.0, 9000000000.0, 9000000000.0, 9000000000.0], v1000, z0, tool0]
    MoveL [[284,186,5],[30,-30,30],[0, 0, 0, 0],[9000000000.0, 9000000000.0, 9000000000.0, 9000000000.0, 9000000000.0, 9000000000.0],  v1000, z0, tool0]
    MoveL [[284,186,10],[30,-30,30],[0, 0, 0, 0],[9000000000.0, 9000000000.0, 9000000000.0, 9000000000.0, 9000000000.0, 9000000000.0], v1000, z0, tool0]
    MoveL [[284,186,10],[30,-30,30],[0, 0, 0, 0],[9000000000.0, 9000000000.0, 9000000000.0, 9000000000.0, 9000000000.0, 9000000000.0], v1000, z0, tool0]
    MoveL [[296,192,5],[30,-30,30],[0, 0, 0, 0],[9000000000.0, 9000000000.0, 9000000000.0, 9000000000.0, 9000000000.0, 9000000000.0],  v1000, z0, tool0]
    MoveL [[296,192,10],[30,-30,30],[0, 0, 0, 0],[9000000000.0, 9000000000.0, 9000000000.0, 9000000000.0, 9000000000.0, 9000000000.0], v1000, z0, tool0]
    MoveL [[406,187,10],[30,-30,30],[0, 0, 0, 0],[9000000000.0, 9000000000.0, 9000000000.0, 9000000000.0, 9000000000.0, 9000000000.0], v1000, z0, tool0]
    MoveL [[390,213,5],[30,-30,30],[0, 0, 0, 0],[9000000000.0, 9000000000.0, 9000000000.0, 9000000000.0, 9000000000.0, 9000000000.0],  v1000, z0, tool0]
    MoveL [[390,213,10],[30,-30,30],[0, 0, 0, 0],[9000000000.0, 9000000000.0, 9000000000.0, 9000000000.0, 9000000000.0, 9000000000.0], v1000, z0, tool0]
    MoveL [[275,190,10],[30,-30,30],[0, 0, 0, 0],[9000000000.0, 9000000000.0, 9000000000.0, 9000000000.0, 9000000000.0, 9000000000.0], v1000, z0, tool0]
    MoveL [[268,185,5],[30,-30,30],[0, 0, 0, 0],[9000000000.0, 9000000000.0, 9000000000.0, 9000000000.0, 9000000000.0, 9000000000.0],  v1000, z0, tool0]
    MoveL [[268,185,10],[30,-30,30],[0, 0, 0, 0],[9000000000.0, 9000000000.0, 9000000000.0, 9000000000.0, 9000000000.0, 9000000000.0], v1000, z0, tool0]
    MoveL [[330,188,10],[30,-30,30],[0, 0, 0, 0],[9000000000.0, 9000000000.0, 9000000000.0, 9000000000.0, 9000000000.0, 9000000000.0], v1000, z0, tool0]
    MoveL [[311,192,5],[30,-30,30],[0, 0, 0, 0],[9000000000.0, 9000000000.0, 9000000000.0, 9000000000.0, 9000000000.0, 9000000000.0],  v1000, z0, tool0]
    MoveL [[311,192,10],[30,-30,30],[0, 0, 0, 0],[9000000000.0, 9000000000.0, 9000000000.0, 9000000000.0, 9000000000.0, 9000000000.0], v1000, z0, tool0]
    MoveL [[285,189,10],[30,-30,30],[0, 0, 0, 0],[9000000000.0, 9000000000.0, 9000000000.0, 9000000000.0, 9000000000.0, 9000000000.0], v1000, z0, tool0]
    MoveL [[276,189,5],[30,-30,30],[0, 0, 0, 0],[9000000000.0, 9000000000.0, 9000000000.0, 9000000000.0, 9000000000.0, 9000000000.0],  v1000, z0, tool0]
    MoveL [[276,189,10],[30,-30,30],[0, 0, 0, 0],[9000000000.0, 9000000000.0, 9000000000.0, 9000000000.0, 9000000000.0, 9000000000.0], v1000, z0, tool0]
    MoveL [[168,207,10],[30,-30,30],[0, 0, 0, 0],[9000000000.0, 9000000000.0, 9000000000.0, 9000000000.0, 9000000000.0, 9000000000.0], v1000, z0, tool0]
    MoveL [[194,189,5],[30,-30,30],[0, 0, 0, 0],[9000000000.0, 9000000000.0, 9000000000.0, 9000000000.0, 9000000000.0, 9000000000.0],  v1000, z0, tool0]
    MoveL [[194,189,10],[30,-30,30],[0, 0, 0, 0],[9000000000.0, 9000000000.0, 9000000000.0, 9000000000.0, 9000000000.0, 9000000000.0], v1000, z0, tool0]
    MoveL [[360,190,10],[30,-30,30],[0, 0, 0, 0],[9000000000.0, 9000000000.0, 9000000000.0, 9000000000.0, 9000000000.0, 9000000000.0], v1000, z0, tool0]
    MoveL [[364,196,5],[30,-30,30],[0, 0, 0, 0],[9000000000.0, 9000000000.0, 9000000000.0, 9000000000.0, 9000000000.0, 9000000000.0],  v1000, z0, tool0]
    MoveL [[364,196,10],[30,-30,30],[0, 0, 0, 0],[9000000000.0, 9000000000.0, 9000000000.0, 9000000000.0, 9000000000.0, 9000000000.0], v1000, z0, tool0]
    MoveL [[297,192,10],[30,-30,30],[0, 0, 0, 0],[9000000000.0, 9000000000.0, 9000000000.0, 9000000000.0, 9000000000.0, 9000000000.0], v1000, z0, tool0]
    MoveL [[305,192,5],[30,-30,30],[0, 0, 0, 0],[9000000000.0, 9000000000.0, 9000000000.0, 9000000000.0, 9000000000.0, 9000000000.0],  v1000, z0, tool0]
    MoveL [[305,192,10],[30,-30,30],[0, 0, 0, 0],[9000000000.0, 9000000000.0, 9000000000.0, 9000000000.0, 9000000000.0, 9000000000.0], v1000, z0, tool0]
    MoveL [[241,198,10],[30,-30,30],[0, 0, 0, 0],[9000000000.0, 9000000000.0, 9000000000.0, 9000000000.0, 9000000000.0, 9000000000.0], v1000, z0, tool0]
    MoveL [[244,192,5],[30,-30,30],[0, 0, 0, 0],[9000000000.0, 9000000000.0, 9000000000.0, 9000000000.0, 9000000000.0, 9000000000.0],  v1000, z0, tool0]
    MoveL [[244,192,10],[30,-30,30],[0, 0, 0, 0],[9000000000.0, 9000000000.0, 9000000000.0, 9000000000.0, 9000000000.0, 9000000000.0], v1000, z0, tool0]
    MoveL [[199,194,10],[30,-30,30],[0, 0, 0, 0],[9000000000.0, 9000000000.0, 9000000000.0, 9000000000.0, 9000000000.0, 9000000000.0], v1000, z0, tool0]
    MoveL [[191,199,5],[30,-30,30],[0, 0, 0, 0],[9000000000.0, 9000000000.0, 9000000000.0, 9000000000.0, 9000000000.0, 9000000000.0],  v1000, z0, tool0]
    MoveL [[191,199,10],[30,-30,30],[0, 0, 0, 0],[9000000000.0, 9000000000.0, 9000000000.0, 9000000000.0, 9000000000.0, 9000000000.0], v1000, z0, tool0]
    MoveL [[306,195,10],[30,-30,30],[0, 0, 0, 0],[9000000000.0, 9000000000.0, 9000000000.0, 9000000000.0, 9000000000.0, 9000000000.0], v1000, z0, tool0]
    MoveL [[293,195,5],[30,-30,30],[0, 0, 0, 0],[9000000000.0, 9000000000.0, 9000000000.0, 9000000000.0, 9000000000.0, 9000000000.0],  v1000, z0, tool0]
    MoveL [[293,195,10],[30,-30,30],[0, 0, 0, 0],[9000000000.0, 9000000000.0, 9000000000.0, 9000000000.0, 9000000000.0, 9000000000.0], v1000, z0, tool0]
    MoveL [[360,204,10],[30,-30,30],[0, 0, 0, 0],[9000000000.0, 9000000000.0, 9000000000.0, 9000000000.0, 9000000000.0, 9000000000.0], v1000, z0, tool0]
    MoveL [[358,193,5],[30,-30,30],[0, 0, 0, 0],[9000000000.0, 9000000000.0, 9000000000.0, 9000000000.0, 9000000000.0, 9000000000.0],  v1000, z0, tool0]
    MoveL [[358,193,10],[30,-30,30],[0, 0, 0, 0],[9000000000.0, 9000000000.0, 9000000000.0, 9000000000.0, 9000000000.0, 9000000000.0], v1000, z0, tool0]
    MoveL [[392,198,10],[30,-30,30],[0, 0, 0, 0],[9000000000.0, 9000000000.0, 9000000000.0, 9000000000.0, 9000000000.0, 9000000000.0], v1000, z0, tool0]
    MoveL [[394,194,5],[30,-30,30],[0, 0, 0, 0],[9000000000.0, 9000000000.0, 9000000000.0, 9000000000.0, 9000000000.0, 9000000000.0],  v1000, z0, tool0]
    MoveL [[394,194,10],[30,-30,30],[0, 0, 0, 0],[9000000000.0, 9000000000.0, 9000000000.0, 9000000000.0, 9000000000.0, 9000000000.0], v1000, z0, tool0]
    MoveL [[323,196,10],[30,-30,30],[0, 0, 0, 0],[9000000000.0, 9000000000.0, 9000000000.0, 9000000000.0, 9000000000.0, 9000000000.0], v1000, z0, tool0]
    MoveL [[318,198,5],[30,-30,30],[0, 0, 0, 0],[9000000000.0, 9000000000.0, 9000000000.0, 9000000000.0, 9000000000.0, 9000000000.0],  v1000, z0, tool0]
    MoveL [[318,198,10],[30,-30,30],[0, 0, 0, 0],[9000000000.0, 9000000000.0, 9000000000.0, 9000000000.0, 9000000000.0, 9000000000.0], v1000, z0, tool0]
    MoveL [[363,196,10],[30,-30,30],[0, 0, 0, 0],[9000000000.0, 9000000000.0, 9000000000.0, 9000000000.0, 9000000000.0, 9000000000.0], v1000, z0, tool0]
    MoveL [[364,202,5],[30,-30,30],[0, 0, 0, 0],[9000000000.0, 9000000000.0, 9000000000.0, 9000000000.0, 9000000000.0, 9000000000.0],  v1000, z0, tool0]
    MoveL [[364,202,10],[30,-30,30],[0, 0, 0, 0],[9000000000.0, 9000000000.0, 9000000000.0, 9000000000.0, 9000000000.0, 9000000000.0], v1000, z0, tool0]
    MoveL [[192,199,10],[30,-30,30],[0, 0, 0, 0],[9000000000.0, 9000000000.0, 9000000000.0, 9000000000.0, 9000000000.0, 9000000000.0], v1000, z0, tool0]
    MoveL [[185,207,5],[30,-30,30],[0, 0, 0, 0],[9000000000.0, 9000000000.0, 9000000000.0, 9000000000.0, 9000000000.0, 9000000000.0],  v1000, z0, tool0]
    MoveL [[185,207,10],[30,-30,30],[0, 0, 0, 0],[9000000000.0, 9000000000.0, 9000000000.0, 9000000000.0, 9000000000.0, 9000000000.0], v1000, z0, tool0]
    MoveL [[387,200,10],[30,-30,30],[0, 0, 0, 0],[9000000000.0, 9000000000.0, 9000000000.0, 9000000000.0, 9000000000.0, 9000000000.0], v1000, z0, tool0]
    MoveL [[393,200,5],[30,-30,30],[0, 0, 0, 0],[9000000000.0, 9000000000.0, 9000000000.0, 9000000000.0, 9000000000.0, 9000000000.0],  v1000, z0, tool0]
    MoveL [[393,200,10],[30,-30,30],[0, 0, 0, 0],[9000000000.0, 9000000000.0, 9000000000.0, 9000000000.0, 9000000000.0, 9000000000.0], v1000, z0, tool0]
    MoveL [[286,203,10],[30,-30,30],[0, 0, 0, 0],[9000000000.0, 9000000000.0, 9000000000.0, 9000000000.0, 9000000000.0, 9000000000.0], v1000, z0, tool0]
    MoveL [[295,201,5],[30,-30,30],[0, 0, 0, 0],[9000000000.0, 9000000000.0, 9000000000.0, 9000000000.0, 9000000000.0, 9000000000.0],  v1000, z0, tool0]
    MoveL [[295,201,10],[30,-30,30],[0, 0, 0, 0],[9000000000.0, 9000000000.0, 9000000000.0, 9000000000.0, 9000000000.0, 9000000000.0], v1000, z0, tool0]
    MoveL [[192,208,10],[30,-30,30],[0, 0, 0, 0],[9000000000.0, 9000000000.0, 9000000000.0, 9000000000.0, 9000000000.0, 9000000000.0], v1000, z0, tool0]
    MoveL [[194,201,5],[30,-30,30],[0, 0, 0, 0],[9000000000.0, 9000000000.0, 9000000000.0, 9000000000.0, 9000000000.0, 9000000000.0],  v1000, z0, tool0]
    MoveL [[194,201,10],[30,-30,30],[0, 0, 0, 0],[9000000000.0, 9000000000.0, 9000000000.0, 9000000000.0, 9000000000.0, 9000000000.0], v1000, z0, tool0]
    MoveL [[201,201,10],[30,-30,30],[0, 0, 0, 0],[9000000000.0, 9000000000.0, 9000000000.0, 9000000000.0, 9000000000.0, 9000000000.0], v1000, z0, tool0]
    MoveL [[207,202,5],[30,-30,30],[0, 0, 0, 0],[9000000000.0, 9000000000.0, 9000000000.0, 9000000000.0, 9000000000.0, 9000000000.0],  v1000, z0, tool0]
    MoveL [[207,202,10],[30,-30,30],[0, 0, 0, 0],[9000000000.0, 9000000000.0, 9000000000.0, 9000000000.0, 9000000000.0, 9000000000.0], v1000, z0, tool0]
    MoveL [[257,201,10],[30,-30,30],[0, 0, 0, 0],[9000000000.0, 9000000000.0, 9000000000.0, 9000000000.0, 9000000000.0, 9000000000.0], v1000, z0, tool0]
    MoveL [[277,205,5],[30,-30,30],[0, 0, 0, 0],[9000000000.0, 9000000000.0, 9000000000.0, 9000000000.0, 9000000000.0, 9000000000.0],  v1000, z0, tool0]
    MoveL [[277,205,10],[30,-30,30],[0, 0, 0, 0],[9000000000.0, 9000000000.0, 9000000000.0, 9000000000.0, 9000000000.0, 9000000000.0], v1000, z0, tool0]
    MoveL [[207,203,10],[30,-30,30],[0, 0, 0, 0],[9000000000.0, 9000000000.0, 9000000000.0, 9000000000.0, 9000000000.0, 9000000000.0], v1000, z0, tool0]
    MoveL [[210,207,5],[30,-30,30],[0, 0, 0, 0],[9000000000.0, 9000000000.0, 9000000000.0, 9000000000.0, 9000000000.0, 9000000000.0],  v1000, z0, tool0]
    MoveL [[210,207,10],[30,-30,30],[0, 0, 0, 0],[9000000000.0, 9000000000.0, 9000000000.0, 9000000000.0, 9000000000.0, 9000000000.0], v1000, z0, tool0]
    MoveL [[262,205,10],[30,-30,30],[0, 0, 0, 0],[9000000000.0, 9000000000.0, 9000000000.0, 9000000000.0, 9000000000.0, 9000000000.0], v1000, z0, tool0]
    MoveL [[252,202,5],[30,-30,30],[0, 0, 0, 0],[9000000000.0, 9000000000.0, 9000000000.0, 9000000000.0, 9000000000.0, 9000000000.0],  v1000, z0, tool0]
    MoveL [[252,202,10],[30,-30,30],[0, 0, 0, 0],[9000000000.0, 9000000000.0, 9000000000.0, 9000000000.0, 9000000000.0, 9000000000.0], v1000, z0, tool0]
    MoveL [[276,206,10],[30,-30,30],[0, 0, 0, 0],[9000000000.0, 9000000000.0, 9000000000.0, 9000000000.0, 9000000000.0, 9000000000.0], v1000, z0, tool0]
    MoveL [[283,202,5],[30,-30,30],[0, 0, 0, 0],[9000000000.0, 9000000000.0, 9000000000.0, 9000000000.0, 9000000000.0, 9000000000.0],  v1000, z0, tool0]
    MoveL [[283,202,10],[30,-30,30],[0, 0, 0, 0],[9000000000.0, 9000000000.0, 9000000000.0, 9000000000.0, 9000000000.0, 9000000000.0], v1000, z0, tool0]
    MoveL [[326,205,10],[30,-30,30],[0, 0, 0, 0],[9000000000.0, 9000000000.0, 9000000000.0, 9000000000.0, 9000000000.0, 9000000000.0], v1000, z0, tool0]
    MoveL [[345,203,5],[30,-30,30],[0, 0, 0, 0],[9000000000.0, 9000000000.0, 9000000000.0, 9000000000.0, 9000000000.0, 9000000000.0],  v1000, z0, tool0]
    MoveL [[345,203,10],[30,-30,30],[0, 0, 0, 0],[9000000000.0, 9000000000.0, 9000000000.0, 9000000000.0, 9000000000.0, 9000000000.0], v1000, z0, tool0]
    MoveL [[298,203,10],[30,-30,30],[0, 0, 0, 0],[9000000000.0, 9000000000.0, 9000000000.0, 9000000000.0, 9000000000.0, 9000000000.0], v1000, z0, tool0]
    MoveL [[290,206,5],[30,-30,30],[0, 0, 0, 0],[9000000000.0, 9000000000.0, 9000000000.0, 9000000000.0, 9000000000.0, 9000000000.0],  v1000, z0, tool0]
    MoveL [[290,206,10],[30,-30,30],[0, 0, 0, 0],[9000000000.0, 9000000000.0, 9000000000.0, 9000000000.0, 9000000000.0, 9000000000.0], v1000, z0, tool0]
    MoveL [[322,208,10],[30,-30,30],[0, 0, 0, 0],[9000000000.0, 9000000000.0, 9000000000.0, 9000000000.0, 9000000000.0, 9000000000.0], v1000, z0, tool0]
    MoveL [[328,204,5],[30,-30,30],[0, 0, 0, 0],[9000000000.0, 9000000000.0, 9000000000.0, 9000000000.0, 9000000000.0, 9000000000.0],  v1000, z0, tool0]
    MoveL [[328,204,10],[30,-30,30],[0, 0, 0, 0],[9000000000.0, 9000000000.0, 9000000000.0, 9000000000.0, 9000000000.0, 9000000000.0], v1000, z0, tool0]
    MoveL [[380,215,10],[30,-30,30],[0, 0, 0, 0],[9000000000.0, 9000000000.0, 9000000000.0, 9000000000.0, 9000000000.0, 9000000000.0], v1000, z0, tool0]
    MoveL [[390,204,5],[30,-30,30],[0, 0, 0, 0],[9000000000.0, 9000000000.0, 9000000000.0, 9000000000.0, 9000000000.0, 9000000000.0],  v1000, z0, tool0]
    MoveL [[390,204,10],[30,-30,30],[0, 0, 0, 0],[9000000000.0, 9000000000.0, 9000000000.0, 9000000000.0, 9000000000.0, 9000000000.0], v1000, z0, tool0]
    MoveL [[185,207,10],[30,-30,30],[0, 0, 0, 0],[9000000000.0, 9000000000.0, 9000000000.0, 9000000000.0, 9000000000.0, 9000000000.0], v1000, z0, tool0]
    MoveL [[176,209,5],[30,-30,30],[0, 0, 0, 0],[9000000000.0, 9000000000.0, 9000000000.0, 9000000000.0, 9000000000.0, 9000000000.0],  v1000, z0, tool0]
    MoveL [[176,209,10],[30,-30,30],[0, 0, 0, 0],[9000000000.0, 9000000000.0, 9000000000.0, 9000000000.0, 9000000000.0, 9000000000.0], v1000, z0, tool0]
    MoveL [[313,214,10],[30,-30,30],[0, 0, 0, 0],[9000000000.0, 9000000000.0, 9000000000.0, 9000000000.0, 9000000000.0, 9000000000.0], v1000, z0, tool0]
    MoveL [[270,208,5],[30,-30,30],[0, 0, 0, 0],[9000000000.0, 9000000000.0, 9000000000.0, 9000000000.0, 9000000000.0, 9000000000.0],  v1000, z0, tool0]
    MoveL [[270,208,10],[30,-30,30],[0, 0, 0, 0],[9000000000.0, 9000000000.0, 9000000000.0, 9000000000.0, 9000000000.0, 9000000000.0], v1000, z0, tool0]
    MoveL [[345,206,10],[30,-30,30],[0, 0, 0, 0],[9000000000.0, 9000000000.0, 9000000000.0, 9000000000.0, 9000000000.0, 9000000000.0], v1000, z0, tool0]
    MoveL [[313,212,5],[30,-30,30],[0, 0, 0, 0],[9000000000.0, 9000000000.0, 9000000000.0, 9000000000.0, 9000000000.0, 9000000000.0],  v1000, z0, tool0]
    MoveL [[313,212,10],[30,-30,30],[0, 0, 0, 0],[9000000000.0, 9000000000.0, 9000000000.0, 9000000000.0, 9000000000.0, 9000000000.0], v1000, z0, tool0]
    MoveL [[178,215,10],[30,-30,30],[0, 0, 0, 0],[9000000000.0, 9000000000.0, 9000000000.0, 9000000000.0, 9000000000.0, 9000000000.0], v1000, z0, tool0]
    MoveL [[191,207,5],[30,-30,30],[0, 0, 0, 0],[9000000000.0, 9000000000.0, 9000000000.0, 9000000000.0, 9000000000.0, 9000000000.0],  v1000, z0, tool0]
    MoveL [[191,207,10],[30,-30,30],[0, 0, 0, 0],[9000000000.0, 9000000000.0, 9000000000.0, 9000000000.0, 9000000000.0, 9000000000.0], v1000, z0, tool0]
