MODULE Module1
    CONST robtarget point_0_clearance:=[[266,44,10],[0,0,1,0],[0, 0, 0, 0],[9000000000.0, 9000000000.0, 9000000000.0, 9000000000.0, 9000000000.0, 9000000000.0]];
    CONST robtarget point_0_contact:=[[266,44,5],[0,0,1,0],[0, 0, 0, 0],[9000000000.0, 9000000000.0, 9000000000.0, 9000000000.0, 9000000000.0, 9000000000.0]];
    CONST robtarget point_1_contact:=[[292,41,5],[0,0,1,0],[0, 0, 0, 0],[9000000000.0, 9000000000.0, 9000000000.0, 9000000000.0, 9000000000.0, 9000000000.0]];
    CONST robtarget point_1_clearance:=[[292,41,10],[0,0,1,0],[0, 0, 0, 0],[9000000000.0, 9000000000.0, 9000000000.0, 9000000000.0, 9000000000.0, 9000000000.0]];
    CONST robtarget point_2_clearance:=[[329,41,10],[0,0,1,0],[0, 0, 0, 0],[9000000000.0, 9000000000.0, 9000000000.0, 9000000000.0, 9000000000.0, 9000000000.0]];
    CONST robtarget point_2_contact:=[[329,41,5],[0,0,1,0],[0, 0, 0, 0],[9000000000.0, 9000000000.0, 9000000000.0, 9000000000.0, 9000000000.0, 9000000000.0]];
    CONST robtarget point_3_contact:=[[351,44,5],[0,0,1,0],[0, 0, 0, 0],[9000000000.0, 9000000000.0, 9000000000.0, 9000000000.0, 9000000000.0, 9000000000.0]];
    CONST robtarget point_3_clearance:=[[351,44,10],[0,0,1,0],[0, 0, 0, 0],[9000000000.0, 9000000000.0, 9000000000.0, 9000000000.0, 9000000000.0, 9000000000.0]];
    CONST robtarget point_4_clearance:=[[324,41,10],[0,0,1,0],[0, 0, 0, 0],[9000000000.0, 9000000000.0, 9000000000.0, 9000000000.0, 9000000000.0, 9000000000.0]];
    CONST robtarget point_4_contact:=[[324,41,5],[0,0,1,0],[0, 0, 0, 0],[9000000000.0, 9000000000.0, 9000000000.0, 9000000000.0, 9000000000.0, 9000000000.0]];
    CONST robtarget point_5_contact:=[[323,48,5],[0,0,1,0],[0, 0, 0, 0],[9000000000.0, 9000000000.0, 9000000000.0, 9000000000.0, 9000000000.0, 9000000000.0]];
    CONST robtarget point_5_clearance:=[[323,48,10],[0,0,1,0],[0, 0, 0, 0],[9000000000.0, 9000000000.0, 9000000000.0, 9000000000.0, 9000000000.0, 9000000000.0]];
    CONST robtarget point_6_clearance:=[[328,50,10],[0,0,1,0],[0, 0, 0, 0],[9000000000.0, 9000000000.0, 9000000000.0, 9000000000.0, 9000000000.0, 9000000000.0]];
    CONST robtarget point_6_contact:=[[328,50,5],[0,0,1,0],[0, 0, 0, 0],[9000000000.0, 9000000000.0, 9000000000.0, 9000000000.0, 9000000000.0, 9000000000.0]];
    CONST robtarget point_7_contact:=[[328,41,5],[0,0,1,0],[0, 0, 0, 0],[9000000000.0, 9000000000.0, 9000000000.0, 9000000000.0, 9000000000.0, 9000000000.0]];
    CONST robtarget point_7_clearance:=[[328,41,10],[0,0,1,0],[0, 0, 0, 0],[9000000000.0, 9000000000.0, 9000000000.0, 9000000000.0, 9000000000.0, 9000000000.0]];
    CONST robtarget point_8_clearance:=[[298,48,10],[0,0,1,0],[0, 0, 0, 0],[9000000000.0, 9000000000.0, 9000000000.0, 9000000000.0, 9000000000.0, 9000000000.0]];
    CONST robtarget point_8_contact:=[[298,48,5],[0,0,1,0],[0, 0, 0, 0],[9000000000.0, 9000000000.0, 9000000000.0, 9000000000.0, 9000000000.0, 9000000000.0]];
    CONST robtarget point_9_contact:=[[298,42,5],[0,0,1,0],[0, 0, 0, 0],[9000000000.0, 9000000000.0, 9000000000.0, 9000000000.0, 9000000000.0, 9000000000.0]];
    CONST robtarget point_9_clearance:=[[298,42,10],[0,0,1,0],[0, 0, 0, 0],[9000000000.0, 9000000000.0, 9000000000.0, 9000000000.0, 9000000000.0, 9000000000.0]];
    CONST robtarget point_10_clearance:=[[353,53,10],[0,0,1,0],[0, 0, 0, 0],[9000000000.0, 9000000000.0, 9000000000.0, 9000000000.0, 9000000000.0, 9000000000.0]];
    CONST robtarget point_10_contact:=[[353,53,5],[0,0,1,0],[0, 0, 0, 0],[9000000000.0, 9000000000.0, 9000000000.0, 9000000000.0, 9000000000.0, 9000000000.0]];
    CONST robtarget point_11_contact:=[[355,43,5],[0,0,1,0],[0, 0, 0, 0],[9000000000.0, 9000000000.0, 9000000000.0, 9000000000.0, 9000000000.0, 9000000000.0]];
    CONST robtarget point_11_clearance:=[[355,43,10],[0,0,1,0],[0, 0, 0, 0],[9000000000.0, 9000000000.0, 9000000000.0, 9000000000.0, 9000000000.0, 9000000000.0]];
    CONST robtarget point_12_clearance:=[[355,45,10],[0,0,1,0],[0, 0, 0, 0],[9000000000.0, 9000000000.0, 9000000000.0, 9000000000.0, 9000000000.0, 9000000000.0]];
    CONST robtarget point_12_contact:=[[355,45,5],[0,0,1,0],[0, 0, 0, 0],[9000000000.0, 9000000000.0, 9000000000.0, 9000000000.0, 9000000000.0, 9000000000.0]];
    CONST robtarget point_13_contact:=[[379,51,5],[0,0,1,0],[0, 0, 0, 0],[9000000000.0, 9000000000.0, 9000000000.0, 9000000000.0, 9000000000.0, 9000000000.0]];
    CONST robtarget point_13_clearance:=[[379,51,10],[0,0,1,0],[0, 0, 0, 0],[9000000000.0, 9000000000.0, 9000000000.0, 9000000000.0, 9000000000.0, 9000000000.0]];
    CONST robtarget point_14_clearance:=[[232,53,10],[0,0,1,0],[0, 0, 0, 0],[9000000000.0, 9000000000.0, 9000000000.0, 9000000000.0, 9000000000.0, 9000000000.0]];
    CONST robtarget point_14_contact:=[[232,53,5],[0,0,1,0],[0, 0, 0, 0],[9000000000.0, 9000000000.0, 9000000000.0, 9000000000.0, 9000000000.0, 9000000000.0]];
    CONST robtarget point_15_contact:=[[260,46,5],[0,0,1,0],[0, 0, 0, 0],[9000000000.0, 9000000000.0, 9000000000.0, 9000000000.0, 9000000000.0, 9000000000.0]];
    CONST robtarget point_15_clearance:=[[260,46,10],[0,0,1,0],[0, 0, 0, 0],[9000000000.0, 9000000000.0, 9000000000.0, 9000000000.0, 9000000000.0, 9000000000.0]];
    CONST robtarget point_16_clearance:=[[261,45,10],[0,0,1,0],[0, 0, 0, 0],[9000000000.0, 9000000000.0, 9000000000.0, 9000000000.0, 9000000000.0, 9000000000.0]];
    CONST robtarget point_16_contact:=[[261,45,5],[0,0,1,0],[0, 0, 0, 0],[9000000000.0, 9000000000.0, 9000000000.0, 9000000000.0, 9000000000.0, 9000000000.0]];
    CONST robtarget point_17_contact:=[[264,53,5],[0,0,1,0],[0, 0, 0, 0],[9000000000.0, 9000000000.0, 9000000000.0, 9000000000.0, 9000000000.0, 9000000000.0]];
    CONST robtarget point_17_clearance:=[[264,53,10],[0,0,1,0],[0, 0, 0, 0],[9000000000.0, 9000000000.0, 9000000000.0, 9000000000.0, 9000000000.0, 9000000000.0]];
    CONST robtarget point_18_clearance:=[[385,54,10],[0,0,1,0],[0, 0, 0, 0],[9000000000.0, 9000000000.0, 9000000000.0, 9000000000.0, 9000000000.0, 9000000000.0]];
    CONST robtarget point_18_contact:=[[385,54,5],[0,0,1,0],[0, 0, 0, 0],[9000000000.0, 9000000000.0, 9000000000.0, 9000000000.0, 9000000000.0, 9000000000.0]];
    CONST robtarget point_19_contact:=[[400,62,5],[0,0,1,0],[0, 0, 0, 0],[9000000000.0, 9000000000.0, 9000000000.0, 9000000000.0, 9000000000.0, 9000000000.0]];
    CONST robtarget point_19_clearance:=[[400,62,10],[0,0,1,0],[0, 0, 0, 0],[9000000000.0, 9000000000.0, 9000000000.0, 9000000000.0, 9000000000.0, 9000000000.0]];
    CONST robtarget point_20_clearance:=[[212,64,10],[0,0,1,0],[0, 0, 0, 0],[9000000000.0, 9000000000.0, 9000000000.0, 9000000000.0, 9000000000.0, 9000000000.0]];
    CONST robtarget point_20_contact:=[[212,64,5],[0,0,1,0],[0, 0, 0, 0],[9000000000.0, 9000000000.0, 9000000000.0, 9000000000.0, 9000000000.0, 9000000000.0]];
    CONST robtarget point_21_contact:=[[227,56,5],[0,0,1,0],[0, 0, 0, 0],[9000000000.0, 9000000000.0, 9000000000.0, 9000000000.0, 9000000000.0, 9000000000.0]];
    CONST robtarget point_21_clearance:=[[227,56,10],[0,0,1,0],[0, 0, 0, 0],[9000000000.0, 9000000000.0, 9000000000.0, 9000000000.0, 9000000000.0, 9000000000.0]];
    CONST robtarget point_22_clearance:=[[228,55,10],[0,0,1,0],[0, 0, 0, 0],[9000000000.0, 9000000000.0, 9000000000.0, 9000000000.0, 9000000000.0, 9000000000.0]];
    CONST robtarget point_22_contact:=[[228,55,5],[0,0,1,0],[0, 0, 0, 0],[9000000000.0, 9000000000.0, 9000000000.0, 9000000000.0, 9000000000.0, 9000000000.0]];
    CONST robtarget point_23_contact:=[[229,62,5],[0,0,1,0],[0, 0, 0, 0],[9000000000.0, 9000000000.0, 9000000000.0, 9000000000.0, 9000000000.0, 9000000000.0]];
    CONST robtarget point_23_clearance:=[[229,62,10],[0,0,1,0],[0, 0, 0, 0],[9000000000.0, 9000000000.0, 9000000000.0, 9000000000.0, 9000000000.0, 9000000000.0]];
    CONST robtarget point_24_clearance:=[[398,71,10],[0,0,1,0],[0, 0, 0, 0],[9000000000.0, 9000000000.0, 9000000000.0, 9000000000.0, 9000000000.0, 9000000000.0]];
    CONST robtarget point_24_contact:=[[398,71,5],[0,0,1,0],[0, 0, 0, 0],[9000000000.0, 9000000000.0, 9000000000.0, 9000000000.0, 9000000000.0, 9000000000.0]];
    CONST robtarget point_25_contact:=[[403,64,5],[0,0,1,0],[0, 0, 0, 0],[9000000000.0, 9000000000.0, 9000000000.0, 9000000000.0, 9000000000.0, 9000000000.0]];
    CONST robtarget point_25_clearance:=[[403,64,10],[0,0,1,0],[0, 0, 0, 0],[9000000000.0, 9000000000.0, 9000000000.0, 9000000000.0, 9000000000.0, 9000000000.0]];
    CONST robtarget point_26_clearance:=[[403,64,10],[0,0,1,0],[0, 0, 0, 0],[9000000000.0, 9000000000.0, 9000000000.0, 9000000000.0, 9000000000.0, 9000000000.0]];
    CONST robtarget point_26_contact:=[[403,64,5],[0,0,1,0],[0, 0, 0, 0],[9000000000.0, 9000000000.0, 9000000000.0, 9000000000.0, 9000000000.0, 9000000000.0]];
    CONST robtarget point_27_contact:=[[416,77,5],[0,0,1,0],[0, 0, 0, 0],[9000000000.0, 9000000000.0, 9000000000.0, 9000000000.0, 9000000000.0, 9000000000.0]];
    CONST robtarget point_27_clearance:=[[416,77,10],[0,0,1,0],[0, 0, 0, 0],[9000000000.0, 9000000000.0, 9000000000.0, 9000000000.0, 9000000000.0, 9000000000.0]];
    CONST robtarget point_28_clearance:=[[193,75,10],[0,0,1,0],[0, 0, 0, 0],[9000000000.0, 9000000000.0, 9000000000.0, 9000000000.0, 9000000000.0, 9000000000.0]];
    CONST robtarget point_28_contact:=[[193,75,5],[0,0,1,0],[0, 0, 0, 0],[9000000000.0, 9000000000.0, 9000000000.0, 9000000000.0, 9000000000.0, 9000000000.0]];
    CONST robtarget point_29_contact:=[[207,66,5],[0,0,1,0],[0, 0, 0, 0],[9000000000.0, 9000000000.0, 9000000000.0, 9000000000.0, 9000000000.0, 9000000000.0]];
    CONST robtarget point_29_clearance:=[[207,66,10],[0,0,1,0],[0, 0, 0, 0],[9000000000.0, 9000000000.0, 9000000000.0, 9000000000.0, 9000000000.0, 9000000000.0]];
    CONST robtarget point_30_clearance:=[[207,66,10],[0,0,1,0],[0, 0, 0, 0],[9000000000.0, 9000000000.0, 9000000000.0, 9000000000.0, 9000000000.0, 9000000000.0]];
    CONST robtarget point_30_contact:=[[207,66,5],[0,0,1,0],[0, 0, 0, 0],[9000000000.0, 9000000000.0, 9000000000.0, 9000000000.0, 9000000000.0, 9000000000.0]];
    CONST robtarget point_31_contact:=[[216,72,5],[0,0,1,0],[0, 0, 0, 0],[9000000000.0, 9000000000.0, 9000000000.0, 9000000000.0, 9000000000.0, 9000000000.0]];
    CONST robtarget point_31_clearance:=[[216,72,10],[0,0,1,0],[0, 0, 0, 0],[9000000000.0, 9000000000.0, 9000000000.0, 9000000000.0, 9000000000.0, 9000000000.0]];
    CONST robtarget point_32_clearance:=[[219,70,10],[0,0,1,0],[0, 0, 0, 0],[9000000000.0, 9000000000.0, 9000000000.0, 9000000000.0, 9000000000.0, 9000000000.0]];
    CONST robtarget point_32_contact:=[[219,70,5],[0,0,1,0],[0, 0, 0, 0],[9000000000.0, 9000000000.0, 9000000000.0, 9000000000.0, 9000000000.0, 9000000000.0]];
    CONST robtarget point_33_contact:=[[211,64,5],[0,0,1,0],[0, 0, 0, 0],[9000000000.0, 9000000000.0, 9000000000.0, 9000000000.0, 9000000000.0, 9000000000.0]];
    CONST robtarget point_33_clearance:=[[211,64,10],[0,0,1,0],[0, 0, 0, 0],[9000000000.0, 9000000000.0, 9000000000.0, 9000000000.0, 9000000000.0, 9000000000.0]];
    CONST robtarget point_34_clearance:=[[316,76,10],[0,0,1,0],[0, 0, 0, 0],[9000000000.0, 9000000000.0, 9000000000.0, 9000000000.0, 9000000000.0, 9000000000.0]];
    CONST robtarget point_34_contact:=[[316,76,5],[0,0,1,0],[0, 0, 0, 0],[9000000000.0, 9000000000.0, 9000000000.0, 9000000000.0, 9000000000.0, 9000000000.0]];
    CONST robtarget point_35_contact:=[[277,80,5],[0,0,1,0],[0, 0, 0, 0],[9000000000.0, 9000000000.0, 9000000000.0, 9000000000.0, 9000000000.0, 9000000000.0]];
    CONST robtarget point_35_clearance:=[[277,80,10],[0,0,1,0],[0, 0, 0, 0],[9000000000.0, 9000000000.0, 9000000000.0, 9000000000.0, 9000000000.0, 9000000000.0]];
    CONST robtarget point_36_clearance:=[[327,78,10],[0,0,1,0],[0, 0, 0, 0],[9000000000.0, 9000000000.0, 9000000000.0, 9000000000.0, 9000000000.0, 9000000000.0]];
    CONST robtarget point_36_contact:=[[327,78,5],[0,0,1,0],[0, 0, 0, 0],[9000000000.0, 9000000000.0, 9000000000.0, 9000000000.0, 9000000000.0, 9000000000.0]];
    CONST robtarget point_37_contact:=[[315,77,5],[0,0,1,0],[0, 0, 0, 0],[9000000000.0, 9000000000.0, 9000000000.0, 9000000000.0, 9000000000.0, 9000000000.0]];
    CONST robtarget point_37_clearance:=[[315,77,10],[0,0,1,0],[0, 0, 0, 0],[9000000000.0, 9000000000.0, 9000000000.0, 9000000000.0, 9000000000.0, 9000000000.0]];
    CONST robtarget point_38_clearance:=[[347,82,10],[0,0,1,0],[0, 0, 0, 0],[9000000000.0, 9000000000.0, 9000000000.0, 9000000000.0, 9000000000.0, 9000000000.0]];
    CONST robtarget point_38_contact:=[[347,82,5],[0,0,1,0],[0, 0, 0, 0],[9000000000.0, 9000000000.0, 9000000000.0, 9000000000.0, 9000000000.0, 9000000000.0]];
    CONST robtarget point_39_contact:=[[326,78,5],[0,0,1,0],[0, 0, 0, 0],[9000000000.0, 9000000000.0, 9000000000.0, 9000000000.0, 9000000000.0, 9000000000.0]];
    CONST robtarget point_39_clearance:=[[326,78,10],[0,0,1,0],[0, 0, 0, 0],[9000000000.0, 9000000000.0, 9000000000.0, 9000000000.0, 9000000000.0, 9000000000.0]];
    CONST robtarget point_40_clearance:=[[175,92,10],[0,0,1,0],[0, 0, 0, 0],[9000000000.0, 9000000000.0, 9000000000.0, 9000000000.0, 9000000000.0, 9000000000.0]];
    CONST robtarget point_40_contact:=[[175,92,5],[0,0,1,0],[0, 0, 0, 0],[9000000000.0, 9000000000.0, 9000000000.0, 9000000000.0, 9000000000.0, 9000000000.0]];
    CONST robtarget point_41_contact:=[[189,78,5],[0,0,1,0],[0, 0, 0, 0],[9000000000.0, 9000000000.0, 9000000000.0, 9000000000.0, 9000000000.0, 9000000000.0]];
    CONST robtarget point_41_clearance:=[[189,78,10],[0,0,1,0],[0, 0, 0, 0],[9000000000.0, 9000000000.0, 9000000000.0, 9000000000.0, 9000000000.0, 9000000000.0]];
    CONST robtarget point_42_clearance:=[[190,78,10],[0,0,1,0],[0, 0, 0, 0],[9000000000.0, 9000000000.0, 9000000000.0, 9000000000.0, 9000000000.0, 9000000000.0]];
    CONST robtarget point_42_contact:=[[190,78,5],[0,0,1,0],[0, 0, 0, 0],[9000000000.0, 9000000000.0, 9000000000.0, 9000000000.0, 9000000000.0, 9000000000.0]];
    CONST robtarget point_43_contact:=[[196,83,5],[0,0,1,0],[0, 0, 0, 0],[9000000000.0, 9000000000.0, 9000000000.0, 9000000000.0, 9000000000.0, 9000000000.0]];
    CONST robtarget point_43_clearance:=[[196,83,10],[0,0,1,0],[0, 0, 0, 0],[9000000000.0, 9000000000.0, 9000000000.0, 9000000000.0, 9000000000.0, 9000000000.0]];
    CONST robtarget point_44_clearance:=[[202,80,10],[0,0,1,0],[0, 0, 0, 0],[9000000000.0, 9000000000.0, 9000000000.0, 9000000000.0, 9000000000.0, 9000000000.0]];
    CONST robtarget point_44_contact:=[[202,80,5],[0,0,1,0],[0, 0, 0, 0],[9000000000.0, 9000000000.0, 9000000000.0, 9000000000.0, 9000000000.0, 9000000000.0]];
    CONST robtarget point_45_contact:=[[195,78,5],[0,0,1,0],[0, 0, 0, 0],[9000000000.0, 9000000000.0, 9000000000.0, 9000000000.0, 9000000000.0, 9000000000.0]];
    CONST robtarget point_45_clearance:=[[195,78,10],[0,0,1,0],[0, 0, 0, 0],[9000000000.0, 9000000000.0, 9000000000.0, 9000000000.0, 9000000000.0, 9000000000.0]];
    CONST robtarget point_46_clearance:=[[276,81,10],[0,0,1,0],[0, 0, 0, 0],[9000000000.0, 9000000000.0, 9000000000.0, 9000000000.0, 9000000000.0, 9000000000.0]];
    CONST robtarget point_46_contact:=[[276,81,5],[0,0,1,0],[0, 0, 0, 0],[9000000000.0, 9000000000.0, 9000000000.0, 9000000000.0, 9000000000.0, 9000000000.0]];
    CONST robtarget point_47_contact:=[[248,92,5],[0,0,1,0],[0, 0, 0, 0],[9000000000.0, 9000000000.0, 9000000000.0, 9000000000.0, 9000000000.0, 9000000000.0]];
    CONST robtarget point_47_clearance:=[[248,92,10],[0,0,1,0],[0, 0, 0, 0],[9000000000.0, 9000000000.0, 9000000000.0, 9000000000.0, 9000000000.0, 9000000000.0]];
    CONST robtarget point_48_clearance:=[[362,88,10],[0,0,1,0],[0, 0, 0, 0],[9000000000.0, 9000000000.0, 9000000000.0, 9000000000.0, 9000000000.0, 9000000000.0]];
    CONST robtarget point_48_contact:=[[362,88,5],[0,0,1,0],[0, 0, 0, 0],[9000000000.0, 9000000000.0, 9000000000.0, 9000000000.0, 9000000000.0, 9000000000.0]];
    CONST robtarget point_49_contact:=[[346,82,5],[0,0,1,0],[0, 0, 0, 0],[9000000000.0, 9000000000.0, 9000000000.0, 9000000000.0, 9000000000.0, 9000000000.0]];
    CONST robtarget point_49_clearance:=[[346,82,10],[0,0,1,0],[0, 0, 0, 0],[9000000000.0, 9000000000.0, 9000000000.0, 9000000000.0, 9000000000.0, 9000000000.0]];
    CONST robtarget point_50_clearance:=[[419,81,10],[0,0,1,0],[0, 0, 0, 0],[9000000000.0, 9000000000.0, 9000000000.0, 9000000000.0, 9000000000.0, 9000000000.0]];
    CONST robtarget point_50_contact:=[[419,81,5],[0,0,1,0],[0, 0, 0, 0],[9000000000.0, 9000000000.0, 9000000000.0, 9000000000.0, 9000000000.0, 9000000000.0]];
    CONST robtarget point_51_contact:=[[425,99,5],[0,0,1,0],[0, 0, 0, 0],[9000000000.0, 9000000000.0, 9000000000.0, 9000000000.0, 9000000000.0, 9000000000.0]];
    CONST robtarget point_51_clearance:=[[425,99,10],[0,0,1,0],[0, 0, 0, 0],[9000000000.0, 9000000000.0, 9000000000.0, 9000000000.0, 9000000000.0, 9000000000.0]];
    CONST robtarget point_52_clearance:=[[372,95,10],[0,0,1,0],[0, 0, 0, 0],[9000000000.0, 9000000000.0, 9000000000.0, 9000000000.0, 9000000000.0, 9000000000.0]];
    CONST robtarget point_52_contact:=[[372,95,5],[0,0,1,0],[0, 0, 0, 0],[9000000000.0, 9000000000.0, 9000000000.0, 9000000000.0, 9000000000.0, 9000000000.0]];
    CONST robtarget point_53_contact:=[[361,88,5],[0,0,1,0],[0, 0, 0, 0],[9000000000.0, 9000000000.0, 9000000000.0, 9000000000.0, 9000000000.0, 9000000000.0]];
    CONST robtarget point_53_clearance:=[[361,88,10],[0,0,1,0],[0, 0, 0, 0],[9000000000.0, 9000000000.0, 9000000000.0, 9000000000.0, 9000000000.0, 9000000000.0]];
    CONST robtarget point_54_clearance:=[[256,88,10],[0,0,1,0],[0, 0, 0, 0],[9000000000.0, 9000000000.0, 9000000000.0, 9000000000.0, 9000000000.0, 9000000000.0]];
    CONST robtarget point_54_contact:=[[256,88,5],[0,0,1,0],[0, 0, 0, 0],[9000000000.0, 9000000000.0, 9000000000.0, 9000000000.0, 9000000000.0, 9000000000.0]];
    CONST robtarget point_55_contact:=[[239,99,5],[0,0,1,0],[0, 0, 0, 0],[9000000000.0, 9000000000.0, 9000000000.0, 9000000000.0, 9000000000.0, 9000000000.0]];
    CONST robtarget point_55_clearance:=[[239,99,10],[0,0,1,0],[0, 0, 0, 0],[9000000000.0, 9000000000.0, 9000000000.0, 9000000000.0, 9000000000.0, 9000000000.0]];
    CONST robtarget point_56_clearance:=[[167,103,10],[0,0,1,0],[0, 0, 0, 0],[9000000000.0, 9000000000.0, 9000000000.0, 9000000000.0, 9000000000.0, 9000000000.0]];
    CONST robtarget point_56_contact:=[[167,103,5],[0,0,1,0],[0, 0, 0, 0],[9000000000.0, 9000000000.0, 9000000000.0, 9000000000.0, 9000000000.0, 9000000000.0]];
    CONST robtarget point_57_contact:=[[172,94,5],[0,0,1,0],[0, 0, 0, 0],[9000000000.0, 9000000000.0, 9000000000.0, 9000000000.0, 9000000000.0, 9000000000.0]];
    CONST robtarget point_57_clearance:=[[172,94,10],[0,0,1,0],[0, 0, 0, 0],[9000000000.0, 9000000000.0, 9000000000.0, 9000000000.0, 9000000000.0, 9000000000.0]];
    CONST robtarget point_58_clearance:=[[183,98,10],[0,0,1,0],[0, 0, 0, 0],[9000000000.0, 9000000000.0, 9000000000.0, 9000000000.0, 9000000000.0, 9000000000.0]];
    CONST robtarget point_58_contact:=[[183,98,5],[0,0,1,0],[0, 0, 0, 0],[9000000000.0, 9000000000.0, 9000000000.0, 9000000000.0, 9000000000.0, 9000000000.0]];
    CONST robtarget point_59_contact:=[[175,93,5],[0,0,1,0],[0, 0, 0, 0],[9000000000.0, 9000000000.0, 9000000000.0, 9000000000.0, 9000000000.0, 9000000000.0]];
    CONST robtarget point_59_clearance:=[[175,93,10],[0,0,1,0],[0, 0, 0, 0],[9000000000.0, 9000000000.0, 9000000000.0, 9000000000.0, 9000000000.0, 9000000000.0]];
    CONST robtarget point_60_clearance:=[[383,116,10],[0,0,1,0],[0, 0, 0, 0],[9000000000.0, 9000000000.0, 9000000000.0, 9000000000.0, 9000000000.0, 9000000000.0]];
    CONST robtarget point_60_contact:=[[383,116,5],[0,0,1,0],[0, 0, 0, 0],[9000000000.0, 9000000000.0, 9000000000.0, 9000000000.0, 9000000000.0, 9000000000.0]];
    CONST robtarget point_61_contact:=[[373,94,5],[0,0,1,0],[0, 0, 0, 0],[9000000000.0, 9000000000.0, 9000000000.0, 9000000000.0, 9000000000.0, 9000000000.0]];
    CONST robtarget point_61_clearance:=[[373,94,10],[0,0,1,0],[0, 0, 0, 0],[9000000000.0, 9000000000.0, 9000000000.0, 9000000000.0, 9000000000.0, 9000000000.0]];
    CONST robtarget point_62_clearance:=[[173,96,10],[0,0,1,0],[0, 0, 0, 0],[9000000000.0, 9000000000.0, 9000000000.0, 9000000000.0, 9000000000.0, 9000000000.0]];
    CONST robtarget point_62_contact:=[[173,96,5],[0,0,1,0],[0, 0, 0, 0],[9000000000.0, 9000000000.0, 9000000000.0, 9000000000.0, 9000000000.0, 9000000000.0]];
    CONST robtarget point_63_contact:=[[180,100,5],[0,0,1,0],[0, 0, 0, 0],[9000000000.0, 9000000000.0, 9000000000.0, 9000000000.0, 9000000000.0, 9000000000.0]];
    CONST robtarget point_63_clearance:=[[180,100,10],[0,0,1,0],[0, 0, 0, 0],[9000000000.0, 9000000000.0, 9000000000.0, 9000000000.0, 9000000000.0, 9000000000.0]];
    CONST robtarget point_64_clearance:=[[317,114,10],[0,0,1,0],[0, 0, 0, 0],[9000000000.0, 9000000000.0, 9000000000.0, 9000000000.0, 9000000000.0, 9000000000.0]];
    CONST robtarget point_64_contact:=[[317,114,5],[0,0,1,0],[0, 0, 0, 0],[9000000000.0, 9000000000.0, 9000000000.0, 9000000000.0, 9000000000.0, 9000000000.0]];
    CONST robtarget point_65_contact:=[[324,96,5],[0,0,1,0],[0, 0, 0, 0],[9000000000.0, 9000000000.0, 9000000000.0, 9000000000.0, 9000000000.0, 9000000000.0]];
    CONST robtarget point_65_clearance:=[[324,96,10],[0,0,1,0],[0, 0, 0, 0],[9000000000.0, 9000000000.0, 9000000000.0, 9000000000.0, 9000000000.0, 9000000000.0]];
    CONST robtarget point_66_clearance:=[[324,97,10],[0,0,1,0],[0, 0, 0, 0],[9000000000.0, 9000000000.0, 9000000000.0, 9000000000.0, 9000000000.0, 9000000000.0]];
    CONST robtarget point_66_contact:=[[324,97,5],[0,0,1,0],[0, 0, 0, 0],[9000000000.0, 9000000000.0, 9000000000.0, 9000000000.0, 9000000000.0, 9000000000.0]];
    CONST robtarget point_67_contact:=[[347,132,5],[0,0,1,0],[0, 0, 0, 0],[9000000000.0, 9000000000.0, 9000000000.0, 9000000000.0, 9000000000.0, 9000000000.0]];
    CONST robtarget point_67_clearance:=[[347,132,10],[0,0,1,0],[0, 0, 0, 0],[9000000000.0, 9000000000.0, 9000000000.0, 9000000000.0, 9000000000.0, 9000000000.0]];
    CONST robtarget point_68_clearance:=[[239,99,10],[0,0,1,0],[0, 0, 0, 0],[9000000000.0, 9000000000.0, 9000000000.0, 9000000000.0, 9000000000.0, 9000000000.0]];
    CONST robtarget point_68_contact:=[[239,99,5],[0,0,1,0],[0, 0, 0, 0],[9000000000.0, 9000000000.0, 9000000000.0, 9000000000.0, 9000000000.0, 9000000000.0]];
    CONST robtarget point_69_contact:=[[234,104,5],[0,0,1,0],[0, 0, 0, 0],[9000000000.0, 9000000000.0, 9000000000.0, 9000000000.0, 9000000000.0, 9000000000.0]];
    CONST robtarget point_69_clearance:=[[234,104,10],[0,0,1,0],[0, 0, 0, 0],[9000000000.0, 9000000000.0, 9000000000.0, 9000000000.0, 9000000000.0, 9000000000.0]];
    CONST robtarget point_70_clearance:=[[176,104,10],[0,0,1,0],[0, 0, 0, 0],[9000000000.0, 9000000000.0, 9000000000.0, 9000000000.0, 9000000000.0, 9000000000.0]];
    CONST robtarget point_70_contact:=[[176,104,5],[0,0,1,0],[0, 0, 0, 0],[9000000000.0, 9000000000.0, 9000000000.0, 9000000000.0, 9000000000.0, 9000000000.0]];
    CONST robtarget point_71_contact:=[[167,104,5],[0,0,1,0],[0, 0, 0, 0],[9000000000.0, 9000000000.0, 9000000000.0, 9000000000.0, 9000000000.0, 9000000000.0]];
    CONST robtarget point_71_clearance:=[[167,104,10],[0,0,1,0],[0, 0, 0, 0],[9000000000.0, 9000000000.0, 9000000000.0, 9000000000.0, 9000000000.0, 9000000000.0]];
    CONST robtarget point_72_clearance:=[[232,103,10],[0,0,1,0],[0, 0, 0, 0],[9000000000.0, 9000000000.0, 9000000000.0, 9000000000.0, 9000000000.0, 9000000000.0]];
    CONST robtarget point_72_contact:=[[232,103,5],[0,0,1,0],[0, 0, 0, 0],[9000000000.0, 9000000000.0, 9000000000.0, 9000000000.0, 9000000000.0, 9000000000.0]];
    CONST robtarget point_73_contact:=[[217,134,5],[0,0,1,0],[0, 0, 0, 0],[9000000000.0, 9000000000.0, 9000000000.0, 9000000000.0, 9000000000.0, 9000000000.0]];
    CONST robtarget point_73_clearance:=[[217,134,10],[0,0,1,0],[0, 0, 0, 0],[9000000000.0, 9000000000.0, 9000000000.0, 9000000000.0, 9000000000.0, 9000000000.0]];
    CONST robtarget point_74_clearance:=[[425,104,10],[0,0,1,0],[0, 0, 0, 0],[9000000000.0, 9000000000.0, 9000000000.0, 9000000000.0, 9000000000.0, 9000000000.0]];
    CONST robtarget point_74_contact:=[[425,104,5],[0,0,1,0],[0, 0, 0, 0],[9000000000.0, 9000000000.0, 9000000000.0, 9000000000.0, 9000000000.0, 9000000000.0]];
    CONST robtarget point_75_contact:=[[419,123,5],[0,0,1,0],[0, 0, 0, 0],[9000000000.0, 9000000000.0, 9000000000.0, 9000000000.0, 9000000000.0, 9000000000.0]];
    CONST robtarget point_75_clearance:=[[419,123,10],[0,0,1,0],[0, 0, 0, 0],[9000000000.0, 9000000000.0, 9000000000.0, 9000000000.0, 9000000000.0, 9000000000.0]];
    CONST robtarget point_76_clearance:=[[161,112,10],[0,0,1,0],[0, 0, 0, 0],[9000000000.0, 9000000000.0, 9000000000.0, 9000000000.0, 9000000000.0, 9000000000.0]];
    CONST robtarget point_76_contact:=[[161,112,5],[0,0,1,0],[0, 0, 0, 0],[9000000000.0, 9000000000.0, 9000000000.0, 9000000000.0, 9000000000.0, 9000000000.0]];
    CONST robtarget point_77_contact:=[[167,105,5],[0,0,1,0],[0, 0, 0, 0],[9000000000.0, 9000000000.0, 9000000000.0, 9000000000.0, 9000000000.0, 9000000000.0]];
    CONST robtarget point_77_clearance:=[[167,105,10],[0,0,1,0],[0, 0, 0, 0],[9000000000.0, 9000000000.0, 9000000000.0, 9000000000.0, 9000000000.0, 9000000000.0]];
    CONST robtarget point_78_clearance:=[[167,107,10],[0,0,1,0],[0, 0, 0, 0],[9000000000.0, 9000000000.0, 9000000000.0, 9000000000.0, 9000000000.0, 9000000000.0]];
    CONST robtarget point_78_contact:=[[167,107,5],[0,0,1,0],[0, 0, 0, 0],[9000000000.0, 9000000000.0, 9000000000.0, 9000000000.0, 9000000000.0, 9000000000.0]];
    CONST robtarget point_79_contact:=[[176,108,5],[0,0,1,0],[0, 0, 0, 0],[9000000000.0, 9000000000.0, 9000000000.0, 9000000000.0, 9000000000.0, 9000000000.0]];
    CONST robtarget point_79_clearance:=[[176,108,10],[0,0,1,0],[0, 0, 0, 0],[9000000000.0, 9000000000.0, 9000000000.0, 9000000000.0, 9000000000.0, 9000000000.0]];
    CONST robtarget point_80_clearance:=[[145,112,10],[0,0,1,0],[0, 0, 0, 0],[9000000000.0, 9000000000.0, 9000000000.0, 9000000000.0, 9000000000.0, 9000000000.0]];
    CONST robtarget point_80_contact:=[[145,112,5],[0,0,1,0],[0, 0, 0, 0],[9000000000.0, 9000000000.0, 9000000000.0, 9000000000.0, 9000000000.0, 9000000000.0]];
    CONST robtarget point_81_contact:=[[161,112,5],[0,0,1,0],[0, 0, 0, 0],[9000000000.0, 9000000000.0, 9000000000.0, 9000000000.0, 9000000000.0, 9000000000.0]];
    CONST robtarget point_81_clearance:=[[161,112,10],[0,0,1,0],[0, 0, 0, 0],[9000000000.0, 9000000000.0, 9000000000.0, 9000000000.0, 9000000000.0, 9000000000.0]];
    CONST robtarget point_82_clearance:=[[127,116,10],[0,0,1,0],[0, 0, 0, 0],[9000000000.0, 9000000000.0, 9000000000.0, 9000000000.0, 9000000000.0, 9000000000.0]];
    CONST robtarget point_82_contact:=[[127,116,5],[0,0,1,0],[0, 0, 0, 0],[9000000000.0, 9000000000.0, 9000000000.0, 9000000000.0, 9000000000.0, 9000000000.0]];
    CONST robtarget point_83_contact:=[[145,112,5],[0,0,1,0],[0, 0, 0, 0],[9000000000.0, 9000000000.0, 9000000000.0, 9000000000.0, 9000000000.0, 9000000000.0]];
    CONST robtarget point_83_clearance:=[[145,112,10],[0,0,1,0],[0, 0, 0, 0],[9000000000.0, 9000000000.0, 9000000000.0, 9000000000.0, 9000000000.0, 9000000000.0]];
    CONST robtarget point_84_clearance:=[[228,150,10],[0,0,1,0],[0, 0, 0, 0],[9000000000.0, 9000000000.0, 9000000000.0, 9000000000.0, 9000000000.0, 9000000000.0]];
    CONST robtarget point_84_contact:=[[228,150,5],[0,0,1,0],[0, 0, 0, 0],[9000000000.0, 9000000000.0, 9000000000.0, 9000000000.0, 9000000000.0, 9000000000.0]];
    CONST robtarget point_85_contact:=[[271,113,5],[0,0,1,0],[0, 0, 0, 0],[9000000000.0, 9000000000.0, 9000000000.0, 9000000000.0, 9000000000.0, 9000000000.0]];
    CONST robtarget point_85_clearance:=[[271,113,10],[0,0,1,0],[0, 0, 0, 0],[9000000000.0, 9000000000.0, 9000000000.0, 9000000000.0, 9000000000.0, 9000000000.0]];
    CONST robtarget point_86_clearance:=[[274,111,10],[0,0,1,0],[0, 0, 0, 0],[9000000000.0, 9000000000.0, 9000000000.0, 9000000000.0, 9000000000.0, 9000000000.0]];
    CONST robtarget point_86_contact:=[[274,111,5],[0,0,1,0],[0, 0, 0, 0],[9000000000.0, 9000000000.0, 9000000000.0, 9000000000.0, 9000000000.0, 9000000000.0]];
    CONST robtarget point_87_contact:=[[271,161,5],[0,0,1,0],[0, 0, 0, 0],[9000000000.0, 9000000000.0, 9000000000.0, 9000000000.0, 9000000000.0, 9000000000.0]];
    CONST robtarget point_87_clearance:=[[271,161,10],[0,0,1,0],[0, 0, 0, 0],[9000000000.0, 9000000000.0, 9000000000.0, 9000000000.0, 9000000000.0, 9000000000.0]];
    CONST robtarget point_88_clearance:=[[318,123,10],[0,0,1,0],[0, 0, 0, 0],[9000000000.0, 9000000000.0, 9000000000.0, 9000000000.0, 9000000000.0, 9000000000.0]];
    CONST robtarget point_88_contact:=[[318,123,5],[0,0,1,0],[0, 0, 0, 0],[9000000000.0, 9000000000.0, 9000000000.0, 9000000000.0, 9000000000.0, 9000000000.0]];
    CONST robtarget point_89_contact:=[[317,115,5],[0,0,1,0],[0, 0, 0, 0],[9000000000.0, 9000000000.0, 9000000000.0, 9000000000.0, 9000000000.0, 9000000000.0]];
    CONST robtarget point_89_clearance:=[[317,115,10],[0,0,1,0],[0, 0, 0, 0],[9000000000.0, 9000000000.0, 9000000000.0, 9000000000.0, 9000000000.0, 9000000000.0]];
    CONST robtarget point_90_clearance:=[[379,128,10],[0,0,1,0],[0, 0, 0, 0],[9000000000.0, 9000000000.0, 9000000000.0, 9000000000.0, 9000000000.0, 9000000000.0]];
    CONST robtarget point_90_contact:=[[379,128,5],[0,0,1,0],[0, 0, 0, 0],[9000000000.0, 9000000000.0, 9000000000.0, 9000000000.0, 9000000000.0, 9000000000.0]];
    CONST robtarget point_91_contact:=[[382,116,5],[0,0,1,0],[0, 0, 0, 0],[9000000000.0, 9000000000.0, 9000000000.0, 9000000000.0, 9000000000.0, 9000000000.0]];
    CONST robtarget point_91_clearance:=[[382,116,10],[0,0,1,0],[0, 0, 0, 0],[9000000000.0, 9000000000.0, 9000000000.0, 9000000000.0, 9000000000.0, 9000000000.0]];
    CONST robtarget point_92_clearance:=[[114,125,10],[0,0,1,0],[0, 0, 0, 0],[9000000000.0, 9000000000.0, 9000000000.0, 9000000000.0, 9000000000.0, 9000000000.0]];
    CONST robtarget point_92_contact:=[[114,125,5],[0,0,1,0],[0, 0, 0, 0],[9000000000.0, 9000000000.0, 9000000000.0, 9000000000.0, 9000000000.0, 9000000000.0]];
    CONST robtarget point_93_contact:=[[128,121,5],[0,0,1,0],[0, 0, 0, 0],[9000000000.0, 9000000000.0, 9000000000.0, 9000000000.0, 9000000000.0, 9000000000.0]];
    CONST robtarget point_93_clearance:=[[128,121,10],[0,0,1,0],[0, 0, 0, 0],[9000000000.0, 9000000000.0, 9000000000.0, 9000000000.0, 9000000000.0, 9000000000.0]];
    CONST robtarget point_94_clearance:=[[154,126,10],[0,0,1,0],[0, 0, 0, 0],[9000000000.0, 9000000000.0, 9000000000.0, 9000000000.0, 9000000000.0, 9000000000.0]];
    CONST robtarget point_94_contact:=[[154,126,5],[0,0,1,0],[0, 0, 0, 0],[9000000000.0, 9000000000.0, 9000000000.0, 9000000000.0, 9000000000.0, 9000000000.0]];
    CONST robtarget point_95_contact:=[[143,130,5],[0,0,1,0],[0, 0, 0, 0],[9000000000.0, 9000000000.0, 9000000000.0, 9000000000.0, 9000000000.0, 9000000000.0]];
    CONST robtarget point_95_clearance:=[[143,130,10],[0,0,1,0],[0, 0, 0, 0],[9000000000.0, 9000000000.0, 9000000000.0, 9000000000.0, 9000000000.0, 9000000000.0]];
    CONST robtarget point_96_clearance:=[[151,139,10],[0,0,1,0],[0, 0, 0, 0],[9000000000.0, 9000000000.0, 9000000000.0, 9000000000.0, 9000000000.0, 9000000000.0]];
    CONST robtarget point_96_contact:=[[151,139,5],[0,0,1,0],[0, 0, 0, 0],[9000000000.0, 9000000000.0, 9000000000.0, 9000000000.0, 9000000000.0, 9000000000.0]];
    CONST robtarget point_97_contact:=[[155,126,5],[0,0,1,0],[0, 0, 0, 0],[9000000000.0, 9000000000.0, 9000000000.0, 9000000000.0, 9000000000.0, 9000000000.0]];
    CONST robtarget point_97_clearance:=[[155,126,10],[0,0,1,0],[0, 0, 0, 0],[9000000000.0, 9000000000.0, 9000000000.0, 9000000000.0, 9000000000.0, 9000000000.0]];
    CONST robtarget point_98_clearance:=[[329,143,10],[0,0,1,0],[0, 0, 0, 0],[9000000000.0, 9000000000.0, 9000000000.0, 9000000000.0, 9000000000.0, 9000000000.0]];
    CONST robtarget point_98_contact:=[[329,143,5],[0,0,1,0],[0, 0, 0, 0],[9000000000.0, 9000000000.0, 9000000000.0, 9000000000.0, 9000000000.0, 9000000000.0]];
    CONST robtarget point_99_contact:=[[319,127,5],[0,0,1,0],[0, 0, 0, 0],[9000000000.0, 9000000000.0, 9000000000.0, 9000000000.0, 9000000000.0, 9000000000.0]];
    CONST robtarget point_99_clearance:=[[319,127,10],[0,0,1,0],[0, 0, 0, 0],[9000000000.0, 9000000000.0, 9000000000.0, 9000000000.0, 9000000000.0, 9000000000.0]];
    CONST robtarget point_100_clearance:=[[346,129,10],[0,0,1,0],[0, 0, 0, 0],[9000000000.0, 9000000000.0, 9000000000.0, 9000000000.0, 9000000000.0, 9000000000.0]];
    CONST robtarget point_100_contact:=[[346,129,5],[0,0,1,0],[0, 0, 0, 0],[9000000000.0, 9000000000.0, 9000000000.0, 9000000000.0, 9000000000.0, 9000000000.0]];
    CONST robtarget point_101_contact:=[[371,133,5],[0,0,1,0],[0, 0, 0, 0],[9000000000.0, 9000000000.0, 9000000000.0, 9000000000.0, 9000000000.0, 9000000000.0]];
    CONST robtarget point_101_clearance:=[[371,133,10],[0,0,1,0],[0, 0, 0, 0],[9000000000.0, 9000000000.0, 9000000000.0, 9000000000.0, 9000000000.0, 9000000000.0]];
    CONST robtarget point_102_clearance:=[[369,132,10],[0,0,1,0],[0, 0, 0, 0],[9000000000.0, 9000000000.0, 9000000000.0, 9000000000.0, 9000000000.0, 9000000000.0]];
    CONST robtarget point_102_contact:=[[369,132,5],[0,0,1,0],[0, 0, 0, 0],[9000000000.0, 9000000000.0, 9000000000.0, 9000000000.0, 9000000000.0, 9000000000.0]];
    CONST robtarget point_103_contact:=[[379,128,5],[0,0,1,0],[0, 0, 0, 0],[9000000000.0, 9000000000.0, 9000000000.0, 9000000000.0, 9000000000.0, 9000000000.0]];
    CONST robtarget point_103_clearance:=[[379,128,10],[0,0,1,0],[0, 0, 0, 0],[9000000000.0, 9000000000.0, 9000000000.0, 9000000000.0, 9000000000.0, 9000000000.0]];
    CONST robtarget point_104_clearance:=[[143,129,10],[0,0,1,0],[0, 0, 0, 0],[9000000000.0, 9000000000.0, 9000000000.0, 9000000000.0, 9000000000.0, 9000000000.0]];
    CONST robtarget point_104_contact:=[[143,129,5],[0,0,1,0],[0, 0, 0, 0],[9000000000.0, 9000000000.0, 9000000000.0, 9000000000.0, 9000000000.0, 9000000000.0]];
    CONST robtarget point_105_contact:=[[130,148,5],[0,0,1,0],[0, 0, 0, 0],[9000000000.0, 9000000000.0, 9000000000.0, 9000000000.0, 9000000000.0, 9000000000.0]];
    CONST robtarget point_105_clearance:=[[130,148,10],[0,0,1,0],[0, 0, 0, 0],[9000000000.0, 9000000000.0, 9000000000.0, 9000000000.0, 9000000000.0, 9000000000.0]];
    CONST robtarget point_106_clearance:=[[417,127,10],[0,0,1,0],[0, 0, 0, 0],[9000000000.0, 9000000000.0, 9000000000.0, 9000000000.0, 9000000000.0, 9000000000.0]];
    CONST robtarget point_106_contact:=[[417,127,5],[0,0,1,0],[0, 0, 0, 0],[9000000000.0, 9000000000.0, 9000000000.0, 9000000000.0, 9000000000.0, 9000000000.0]];
    CONST robtarget point_107_contact:=[[402,144,5],[0,0,1,0],[0, 0, 0, 0],[9000000000.0, 9000000000.0, 9000000000.0, 9000000000.0, 9000000000.0, 9000000000.0]];
    CONST robtarget point_107_clearance:=[[402,144,10],[0,0,1,0],[0, 0, 0, 0],[9000000000.0, 9000000000.0, 9000000000.0, 9000000000.0, 9000000000.0, 9000000000.0]];
    CONST robtarget point_108_clearance:=[[98,145,10],[0,0,1,0],[0, 0, 0, 0],[9000000000.0, 9000000000.0, 9000000000.0, 9000000000.0, 9000000000.0, 9000000000.0]];
    CONST robtarget point_108_contact:=[[98,145,5],[0,0,1,0],[0, 0, 0, 0],[9000000000.0, 9000000000.0, 9000000000.0, 9000000000.0, 9000000000.0, 9000000000.0]];
    CONST robtarget point_109_contact:=[[109,131,5],[0,0,1,0],[0, 0, 0, 0],[9000000000.0, 9000000000.0, 9000000000.0, 9000000000.0, 9000000000.0, 9000000000.0]];
    CONST robtarget point_109_clearance:=[[109,131,10],[0,0,1,0],[0, 0, 0, 0],[9000000000.0, 9000000000.0, 9000000000.0, 9000000000.0, 9000000000.0, 9000000000.0]];
    CONST robtarget point_110_clearance:=[[219,135,10],[0,0,1,0],[0, 0, 0, 0],[9000000000.0, 9000000000.0, 9000000000.0, 9000000000.0, 9000000000.0, 9000000000.0]];
    CONST robtarget point_110_contact:=[[219,135,5],[0,0,1,0],[0, 0, 0, 0],[9000000000.0, 9000000000.0, 9000000000.0, 9000000000.0, 9000000000.0, 9000000000.0]];
    CONST robtarget point_111_contact:=[[220,166,5],[0,0,1,0],[0, 0, 0, 0],[9000000000.0, 9000000000.0, 9000000000.0, 9000000000.0, 9000000000.0, 9000000000.0]];
    CONST robtarget point_111_clearance:=[[220,166,10],[0,0,1,0],[0, 0, 0, 0],[9000000000.0, 9000000000.0, 9000000000.0, 9000000000.0, 9000000000.0, 9000000000.0]];
    CONST robtarget point_112_clearance:=[[402,144,10],[0,0,1,0],[0, 0, 0, 0],[9000000000.0, 9000000000.0, 9000000000.0, 9000000000.0, 9000000000.0, 9000000000.0]];
    CONST robtarget point_112_contact:=[[402,144,5],[0,0,1,0],[0, 0, 0, 0],[9000000000.0, 9000000000.0, 9000000000.0, 9000000000.0, 9000000000.0, 9000000000.0]];
    CONST robtarget point_113_contact:=[[396,138,5],[0,0,1,0],[0, 0, 0, 0],[9000000000.0, 9000000000.0, 9000000000.0, 9000000000.0, 9000000000.0, 9000000000.0]];
    CONST robtarget point_113_clearance:=[[396,138,10],[0,0,1,0],[0, 0, 0, 0],[9000000000.0, 9000000000.0, 9000000000.0, 9000000000.0, 9000000000.0, 9000000000.0]];
    CONST robtarget point_114_clearance:=[[165,143,10],[0,0,1,0],[0, 0, 0, 0],[9000000000.0, 9000000000.0, 9000000000.0, 9000000000.0, 9000000000.0, 9000000000.0]];
    CONST robtarget point_114_contact:=[[165,143,5],[0,0,1,0],[0, 0, 0, 0],[9000000000.0, 9000000000.0, 9000000000.0, 9000000000.0, 9000000000.0, 9000000000.0]];
    CONST robtarget point_115_contact:=[[155,143,5],[0,0,1,0],[0, 0, 0, 0],[9000000000.0, 9000000000.0, 9000000000.0, 9000000000.0, 9000000000.0, 9000000000.0]];
    CONST robtarget point_115_clearance:=[[155,143,10],[0,0,1,0],[0, 0, 0, 0],[9000000000.0, 9000000000.0, 9000000000.0, 9000000000.0, 9000000000.0, 9000000000.0]];
    CONST robtarget point_116_clearance:=[[393,140,10],[0,0,1,0],[0, 0, 0, 0],[9000000000.0, 9000000000.0, 9000000000.0, 9000000000.0, 9000000000.0, 9000000000.0]];
    CONST robtarget point_116_contact:=[[393,140,5],[0,0,1,0],[0, 0, 0, 0],[9000000000.0, 9000000000.0, 9000000000.0, 9000000000.0, 9000000000.0, 9000000000.0]];
    CONST robtarget point_117_contact:=[[399,146,5],[0,0,1,0],[0, 0, 0, 0],[9000000000.0, 9000000000.0, 9000000000.0, 9000000000.0, 9000000000.0, 9000000000.0]];
    CONST robtarget point_117_clearance:=[[399,146,10],[0,0,1,0],[0, 0, 0, 0],[9000000000.0, 9000000000.0, 9000000000.0, 9000000000.0, 9000000000.0, 9000000000.0]];
    CONST robtarget point_118_clearance:=[[153,146,10],[0,0,1,0],[0, 0, 0, 0],[9000000000.0, 9000000000.0, 9000000000.0, 9000000000.0, 9000000000.0, 9000000000.0]];
    CONST robtarget point_118_contact:=[[153,146,5],[0,0,1,0],[0, 0, 0, 0],[9000000000.0, 9000000000.0, 9000000000.0, 9000000000.0, 9000000000.0, 9000000000.0]];
    CONST robtarget point_119_contact:=[[166,146,5],[0,0,1,0],[0, 0, 0, 0],[9000000000.0, 9000000000.0, 9000000000.0, 9000000000.0, 9000000000.0, 9000000000.0]];
    CONST robtarget point_119_clearance:=[[166,146,10],[0,0,1,0],[0, 0, 0, 0],[9000000000.0, 9000000000.0, 9000000000.0, 9000000000.0, 9000000000.0, 9000000000.0]];
    CONST robtarget point_120_clearance:=[[359,159,10],[0,0,1,0],[0, 0, 0, 0],[9000000000.0, 9000000000.0, 9000000000.0, 9000000000.0, 9000000000.0, 9000000000.0]];
    CONST robtarget point_120_contact:=[[359,159,5],[0,0,1,0],[0, 0, 0, 0],[9000000000.0, 9000000000.0, 9000000000.0, 9000000000.0, 9000000000.0, 9000000000.0]];
    CONST robtarget point_121_contact:=[[330,146,5],[0,0,1,0],[0, 0, 0, 0],[9000000000.0, 9000000000.0, 9000000000.0, 9000000000.0, 9000000000.0, 9000000000.0]];
    CONST robtarget point_121_clearance:=[[330,146,10],[0,0,1,0],[0, 0, 0, 0],[9000000000.0, 9000000000.0, 9000000000.0, 9000000000.0, 9000000000.0, 9000000000.0]];
    CONST robtarget point_122_clearance:=[[92,159,10],[0,0,1,0],[0, 0, 0, 0],[9000000000.0, 9000000000.0, 9000000000.0, 9000000000.0, 9000000000.0, 9000000000.0]];
    CONST robtarget point_122_contact:=[[92,159,5],[0,0,1,0],[0, 0, 0, 0],[9000000000.0, 9000000000.0, 9000000000.0, 9000000000.0, 9000000000.0, 9000000000.0]];
    CONST robtarget point_123_contact:=[[96,147,5],[0,0,1,0],[0, 0, 0, 0],[9000000000.0, 9000000000.0, 9000000000.0, 9000000000.0, 9000000000.0, 9000000000.0]];
    CONST robtarget point_123_clearance:=[[96,147,10],[0,0,1,0],[0, 0, 0, 0],[9000000000.0, 9000000000.0, 9000000000.0, 9000000000.0, 9000000000.0, 9000000000.0]];
    CONST robtarget point_124_clearance:=[[400,149,10],[0,0,1,0],[0, 0, 0, 0],[9000000000.0, 9000000000.0, 9000000000.0, 9000000000.0, 9000000000.0, 9000000000.0]];
    CONST robtarget point_124_contact:=[[400,149,5],[0,0,1,0],[0, 0, 0, 0],[9000000000.0, 9000000000.0, 9000000000.0, 9000000000.0, 9000000000.0, 9000000000.0]];
    CONST robtarget point_125_contact:=[[367,158,5],[0,0,1,0],[0, 0, 0, 0],[9000000000.0, 9000000000.0, 9000000000.0, 9000000000.0, 9000000000.0, 9000000000.0]];
    CONST robtarget point_125_clearance:=[[367,158,10],[0,0,1,0],[0, 0, 0, 0],[9000000000.0, 9000000000.0, 9000000000.0, 9000000000.0, 9000000000.0, 9000000000.0]];
    CONST robtarget point_126_clearance:=[[97,149,10],[0,0,1,0],[0, 0, 0, 0],[9000000000.0, 9000000000.0, 9000000000.0, 9000000000.0, 9000000000.0, 9000000000.0]];
    CONST robtarget point_126_contact:=[[97,149,5],[0,0,1,0],[0, 0, 0, 0],[9000000000.0, 9000000000.0, 9000000000.0, 9000000000.0, 9000000000.0, 9000000000.0]];
    CONST robtarget point_127_contact:=[[103,149,5],[0,0,1,0],[0, 0, 0, 0],[9000000000.0, 9000000000.0, 9000000000.0, 9000000000.0, 9000000000.0, 9000000000.0]];
    CONST robtarget point_127_clearance:=[[103,149,10],[0,0,1,0],[0, 0, 0, 0],[9000000000.0, 9000000000.0, 9000000000.0, 9000000000.0, 9000000000.0, 9000000000.0]];
    CONST robtarget point_128_clearance:=[[130,148,10],[0,0,1,0],[0, 0, 0, 0],[9000000000.0, 9000000000.0, 9000000000.0, 9000000000.0, 9000000000.0, 9000000000.0]];
    CONST robtarget point_128_contact:=[[130,148,5],[0,0,1,0],[0, 0, 0, 0],[9000000000.0, 9000000000.0, 9000000000.0, 9000000000.0, 9000000000.0, 9000000000.0]];
    CONST robtarget point_129_contact:=[[133,171,5],[0,0,1,0],[0, 0, 0, 0],[9000000000.0, 9000000000.0, 9000000000.0, 9000000000.0, 9000000000.0, 9000000000.0]];
    CONST robtarget point_129_clearance:=[[133,171,10],[0,0,1,0],[0, 0, 0, 0],[9000000000.0, 9000000000.0, 9000000000.0, 9000000000.0, 9000000000.0, 9000000000.0]];
    CONST robtarget point_130_clearance:=[[151,158,10],[0,0,1,0],[0, 0, 0, 0],[9000000000.0, 9000000000.0, 9000000000.0, 9000000000.0, 9000000000.0, 9000000000.0]];
    CONST robtarget point_130_contact:=[[151,158,5],[0,0,1,0],[0, 0, 0, 0],[9000000000.0, 9000000000.0, 9000000000.0, 9000000000.0, 9000000000.0, 9000000000.0]];
    CONST robtarget point_131_contact:=[[151,148,5],[0,0,1,0],[0, 0, 0, 0],[9000000000.0, 9000000000.0, 9000000000.0, 9000000000.0, 9000000000.0, 9000000000.0]];
    CONST robtarget point_131_clearance:=[[151,148,10],[0,0,1,0],[0, 0, 0, 0],[9000000000.0, 9000000000.0, 9000000000.0, 9000000000.0, 9000000000.0, 9000000000.0]];
    CONST robtarget point_132_clearance:=[[226,154,10],[0,0,1,0],[0, 0, 0, 0],[9000000000.0, 9000000000.0, 9000000000.0, 9000000000.0, 9000000000.0, 9000000000.0]];
    CONST robtarget point_132_contact:=[[226,154,5],[0,0,1,0],[0, 0, 0, 0],[9000000000.0, 9000000000.0, 9000000000.0, 9000000000.0, 9000000000.0, 9000000000.0]];
    CONST robtarget point_133_contact:=[[229,150,5],[0,0,1,0],[0, 0, 0, 0],[9000000000.0, 9000000000.0, 9000000000.0, 9000000000.0, 9000000000.0, 9000000000.0]];
    CONST robtarget point_133_clearance:=[[229,150,10],[0,0,1,0],[0, 0, 0, 0],[9000000000.0, 9000000000.0, 9000000000.0, 9000000000.0, 9000000000.0, 9000000000.0]];
    CONST robtarget point_134_clearance:=[[364,151,10],[0,0,1,0],[0, 0, 0, 0],[9000000000.0, 9000000000.0, 9000000000.0, 9000000000.0, 9000000000.0, 9000000000.0]];
    CONST robtarget point_134_contact:=[[364,151,5],[0,0,1,0],[0, 0, 0, 0],[9000000000.0, 9000000000.0, 9000000000.0, 9000000000.0, 9000000000.0, 9000000000.0]];
    CONST robtarget point_135_contact:=[[365,158,5],[0,0,1,0],[0, 0, 0, 0],[9000000000.0, 9000000000.0, 9000000000.0, 9000000000.0, 9000000000.0, 9000000000.0]];
    CONST robtarget point_135_clearance:=[[365,158,10],[0,0,1,0],[0, 0, 0, 0],[9000000000.0, 9000000000.0, 9000000000.0, 9000000000.0, 9000000000.0, 9000000000.0]];
    CONST robtarget point_136_clearance:=[[221,166,10],[0,0,1,0],[0, 0, 0, 0],[9000000000.0, 9000000000.0, 9000000000.0, 9000000000.0, 9000000000.0, 9000000000.0]];
    CONST robtarget point_136_contact:=[[221,166,5],[0,0,1,0],[0, 0, 0, 0],[9000000000.0, 9000000000.0, 9000000000.0, 9000000000.0, 9000000000.0, 9000000000.0]];
    CONST robtarget point_137_contact:=[[228,158,5],[0,0,1,0],[0, 0, 0, 0],[9000000000.0, 9000000000.0, 9000000000.0, 9000000000.0, 9000000000.0, 9000000000.0]];
    CONST robtarget point_137_clearance:=[[228,158,10],[0,0,1,0],[0, 0, 0, 0],[9000000000.0, 9000000000.0, 9000000000.0, 9000000000.0, 9000000000.0, 9000000000.0]];
    CONST robtarget point_138_clearance:=[[272,158,10],[0,0,1,0],[0, 0, 0, 0],[9000000000.0, 9000000000.0, 9000000000.0, 9000000000.0, 9000000000.0, 9000000000.0]];
    CONST robtarget point_138_contact:=[[272,158,5],[0,0,1,0],[0, 0, 0, 0],[9000000000.0, 9000000000.0, 9000000000.0, 9000000000.0, 9000000000.0, 9000000000.0]];
    CONST robtarget point_139_contact:=[[271,162,5],[0,0,1,0],[0, 0, 0, 0],[9000000000.0, 9000000000.0, 9000000000.0, 9000000000.0, 9000000000.0, 9000000000.0]];
    CONST robtarget point_139_clearance:=[[271,162,10],[0,0,1,0],[0, 0, 0, 0],[9000000000.0, 9000000000.0, 9000000000.0, 9000000000.0, 9000000000.0, 9000000000.0]];
    CONST robtarget point_140_clearance:=[[165,161,10],[0,0,1,0],[0, 0, 0, 0],[9000000000.0, 9000000000.0, 9000000000.0, 9000000000.0, 9000000000.0, 9000000000.0]];
    CONST robtarget point_140_contact:=[[165,161,5],[0,0,1,0],[0, 0, 0, 0],[9000000000.0, 9000000000.0, 9000000000.0, 9000000000.0, 9000000000.0, 9000000000.0]];
    CONST robtarget point_141_contact:=[[155,162,5],[0,0,1,0],[0, 0, 0, 0],[9000000000.0, 9000000000.0, 9000000000.0, 9000000000.0, 9000000000.0, 9000000000.0]];
    CONST robtarget point_141_clearance:=[[155,162,10],[0,0,1,0],[0, 0, 0, 0],[9000000000.0, 9000000000.0, 9000000000.0, 9000000000.0, 9000000000.0, 9000000000.0]];
    CONST robtarget point_142_clearance:=[[270,162,10],[0,0,1,0],[0, 0, 0, 0],[9000000000.0, 9000000000.0, 9000000000.0, 9000000000.0, 9000000000.0, 9000000000.0]];
    CONST robtarget point_142_contact:=[[270,162,5],[0,0,1,0],[0, 0, 0, 0],[9000000000.0, 9000000000.0, 9000000000.0, 9000000000.0, 9000000000.0, 9000000000.0]];
    CONST robtarget point_143_contact:=[[245,183,5],[0,0,1,0],[0, 0, 0, 0],[9000000000.0, 9000000000.0, 9000000000.0, 9000000000.0, 9000000000.0, 9000000000.0]];
    CONST robtarget point_143_clearance:=[[245,183,10],[0,0,1,0],[0, 0, 0, 0],[9000000000.0, 9000000000.0, 9000000000.0, 9000000000.0, 9000000000.0, 9000000000.0]];
    CONST robtarget point_144_clearance:=[[102,163,10],[0,0,1,0],[0, 0, 0, 0],[9000000000.0, 9000000000.0, 9000000000.0, 9000000000.0, 9000000000.0, 9000000000.0]];
    CONST robtarget point_144_contact:=[[102,163,5],[0,0,1,0],[0, 0, 0, 0],[9000000000.0, 9000000000.0, 9000000000.0, 9000000000.0, 9000000000.0, 9000000000.0]];
    CONST robtarget point_145_contact:=[[95,162,5],[0,0,1,0],[0, 0, 0, 0],[9000000000.0, 9000000000.0, 9000000000.0, 9000000000.0, 9000000000.0, 9000000000.0]];
    CONST robtarget point_145_clearance:=[[95,162,10],[0,0,1,0],[0, 0, 0, 0],[9000000000.0, 9000000000.0, 9000000000.0, 9000000000.0, 9000000000.0, 9000000000.0]];
    CONST robtarget point_146_clearance:=[[149,181,10],[0,0,1,0],[0, 0, 0, 0],[9000000000.0, 9000000000.0, 9000000000.0, 9000000000.0, 9000000000.0, 9000000000.0]];
    CONST robtarget point_146_contact:=[[149,181,5],[0,0,1,0],[0, 0, 0, 0],[9000000000.0, 9000000000.0, 9000000000.0, 9000000000.0, 9000000000.0, 9000000000.0]];
    CONST robtarget point_147_contact:=[[150,163,5],[0,0,1,0],[0, 0, 0, 0],[9000000000.0, 9000000000.0, 9000000000.0, 9000000000.0, 9000000000.0, 9000000000.0]];
    CONST robtarget point_147_clearance:=[[150,163,10],[0,0,1,0],[0, 0, 0, 0],[9000000000.0, 9000000000.0, 9000000000.0, 9000000000.0, 9000000000.0, 9000000000.0]];
    CONST robtarget point_148_clearance:=[[151,164,10],[0,0,1,0],[0, 0, 0, 0],[9000000000.0, 9000000000.0, 9000000000.0, 9000000000.0, 9000000000.0, 9000000000.0]];
    CONST robtarget point_148_contact:=[[151,164,5],[0,0,1,0],[0, 0, 0, 0],[9000000000.0, 9000000000.0, 9000000000.0, 9000000000.0, 9000000000.0, 9000000000.0]];
    CONST robtarget point_149_contact:=[[165,164,5],[0,0,1,0],[0, 0, 0, 0],[9000000000.0, 9000000000.0, 9000000000.0, 9000000000.0, 9000000000.0, 9000000000.0]];
    CONST robtarget point_149_clearance:=[[165,164,10],[0,0,1,0],[0, 0, 0, 0],[9000000000.0, 9000000000.0, 9000000000.0, 9000000000.0, 9000000000.0, 9000000000.0]];
    CONST robtarget point_150_clearance:=[[93,165,10],[0,0,1,0],[0, 0, 0, 0],[9000000000.0, 9000000000.0, 9000000000.0, 9000000000.0, 9000000000.0, 9000000000.0]];
    CONST robtarget point_150_contact:=[[93,165,5],[0,0,1,0],[0, 0, 0, 0],[9000000000.0, 9000000000.0, 9000000000.0, 9000000000.0, 9000000000.0, 9000000000.0]];
    CONST robtarget point_151_contact:=[[100,167,5],[0,0,1,0],[0, 0, 0, 0],[9000000000.0, 9000000000.0, 9000000000.0, 9000000000.0, 9000000000.0, 9000000000.0]];
    CONST robtarget point_151_clearance:=[[100,167,10],[0,0,1,0],[0, 0, 0, 0],[9000000000.0, 9000000000.0, 9000000000.0, 9000000000.0, 9000000000.0, 9000000000.0]];
    CONST robtarget point_152_clearance:=[[265,180,10],[0,0,1,0],[0, 0, 0, 0],[9000000000.0, 9000000000.0, 9000000000.0, 9000000000.0, 9000000000.0, 9000000000.0]];
    CONST robtarget point_152_contact:=[[265,180,5],[0,0,1,0],[0, 0, 0, 0],[9000000000.0, 9000000000.0, 9000000000.0, 9000000000.0, 9000000000.0, 9000000000.0]];
    CONST robtarget point_153_contact:=[[278,168,5],[0,0,1,0],[0, 0, 0, 0],[9000000000.0, 9000000000.0, 9000000000.0, 9000000000.0, 9000000000.0, 9000000000.0]];
    CONST robtarget point_153_clearance:=[[278,168,10],[0,0,1,0],[0, 0, 0, 0],[9000000000.0, 9000000000.0, 9000000000.0, 9000000000.0, 9000000000.0, 9000000000.0]];
    CONST robtarget point_154_clearance:=[[277,166,10],[0,0,1,0],[0, 0, 0, 0],[9000000000.0, 9000000000.0, 9000000000.0, 9000000000.0, 9000000000.0, 9000000000.0]];
    CONST robtarget point_154_contact:=[[277,166,5],[0,0,1,0],[0, 0, 0, 0],[9000000000.0, 9000000000.0, 9000000000.0, 9000000000.0, 9000000000.0, 9000000000.0]];
    CONST robtarget point_155_contact:=[[277,167,5],[0,0,1,0],[0, 0, 0, 0],[9000000000.0, 9000000000.0, 9000000000.0, 9000000000.0, 9000000000.0, 9000000000.0]];
    CONST robtarget point_155_clearance:=[[277,167,10],[0,0,1,0],[0, 0, 0, 0],[9000000000.0, 9000000000.0, 9000000000.0, 9000000000.0, 9000000000.0, 9000000000.0]];
    CONST robtarget point_156_clearance:=[[278,167,10],[0,0,1,0],[0, 0, 0, 0],[9000000000.0, 9000000000.0, 9000000000.0, 9000000000.0, 9000000000.0, 9000000000.0]];
    CONST robtarget point_156_contact:=[[278,167,5],[0,0,1,0],[0, 0, 0, 0],[9000000000.0, 9000000000.0, 9000000000.0, 9000000000.0, 9000000000.0, 9000000000.0]];
    CONST robtarget point_157_contact:=[[316,170,5],[0,0,1,0],[0, 0, 0, 0],[9000000000.0, 9000000000.0, 9000000000.0, 9000000000.0, 9000000000.0, 9000000000.0]];
    CONST robtarget point_157_clearance:=[[316,170,10],[0,0,1,0],[0, 0, 0, 0],[9000000000.0, 9000000000.0, 9000000000.0, 9000000000.0, 9000000000.0, 9000000000.0]];
    CONST robtarget point_158_clearance:=[[93,178,10],[0,0,1,0],[0, 0, 0, 0],[9000000000.0, 9000000000.0, 9000000000.0, 9000000000.0, 9000000000.0, 9000000000.0]];
    CONST robtarget point_158_contact:=[[93,178,5],[0,0,1,0],[0, 0, 0, 0],[9000000000.0, 9000000000.0, 9000000000.0, 9000000000.0, 9000000000.0, 9000000000.0]];
    CONST robtarget point_159_contact:=[[91,167,5],[0,0,1,0],[0, 0, 0, 0],[9000000000.0, 9000000000.0, 9000000000.0, 9000000000.0, 9000000000.0, 9000000000.0]];
    CONST robtarget point_159_clearance:=[[91,167,10],[0,0,1,0],[0, 0, 0, 0],[9000000000.0, 9000000000.0, 9000000000.0, 9000000000.0, 9000000000.0, 9000000000.0]];
    CONST robtarget point_160_clearance:=[[133,170,10],[0,0,1,0],[0, 0, 0, 0],[9000000000.0, 9000000000.0, 9000000000.0, 9000000000.0, 9000000000.0, 9000000000.0]];
    CONST robtarget point_160_contact:=[[133,170,5],[0,0,1,0],[0, 0, 0, 0],[9000000000.0, 9000000000.0, 9000000000.0, 9000000000.0, 9000000000.0, 9000000000.0]];
    CONST robtarget point_161_contact:=[[146,182,5],[0,0,1,0],[0, 0, 0, 0],[9000000000.0, 9000000000.0, 9000000000.0, 9000000000.0, 9000000000.0, 9000000000.0]];
    CONST robtarget point_161_clearance:=[[146,182,10],[0,0,1,0],[0, 0, 0, 0],[9000000000.0, 9000000000.0, 9000000000.0, 9000000000.0, 9000000000.0, 9000000000.0]];
    CONST robtarget point_162_clearance:=[[314,169,10],[0,0,1,0],[0, 0, 0, 0],[9000000000.0, 9000000000.0, 9000000000.0, 9000000000.0, 9000000000.0, 9000000000.0]];
    CONST robtarget point_162_contact:=[[314,169,5],[0,0,1,0],[0, 0, 0, 0],[9000000000.0, 9000000000.0, 9000000000.0, 9000000000.0, 9000000000.0, 9000000000.0]];
    CONST robtarget point_163_contact:=[[359,179,5],[0,0,1,0],[0, 0, 0, 0],[9000000000.0, 9000000000.0, 9000000000.0, 9000000000.0, 9000000000.0, 9000000000.0]];
    CONST robtarget point_163_clearance:=[[359,179,10],[0,0,1,0],[0, 0, 0, 0],[9000000000.0, 9000000000.0, 9000000000.0, 9000000000.0, 9000000000.0, 9000000000.0]];
    CONST robtarget point_164_clearance:=[[104,177,10],[0,0,1,0],[0, 0, 0, 0],[9000000000.0, 9000000000.0, 9000000000.0, 9000000000.0, 9000000000.0, 9000000000.0]];
    CONST robtarget point_164_contact:=[[104,177,5],[0,0,1,0],[0, 0, 0, 0],[9000000000.0, 9000000000.0, 9000000000.0, 9000000000.0, 9000000000.0, 9000000000.0]];
    CONST robtarget point_165_contact:=[[95,180,5],[0,0,1,0],[0, 0, 0, 0],[9000000000.0, 9000000000.0, 9000000000.0, 9000000000.0, 9000000000.0, 9000000000.0]];
    CONST robtarget point_165_clearance:=[[95,180,10],[0,0,1,0],[0, 0, 0, 0],[9000000000.0, 9000000000.0, 9000000000.0, 9000000000.0, 9000000000.0, 9000000000.0]];
    CONST robtarget point_166_clearance:=[[359,178,10],[0,0,1,0],[0, 0, 0, 0],[9000000000.0, 9000000000.0, 9000000000.0, 9000000000.0, 9000000000.0, 9000000000.0]];
    CONST robtarget point_166_contact:=[[359,178,5],[0,0,1,0],[0, 0, 0, 0],[9000000000.0, 9000000000.0, 9000000000.0, 9000000000.0, 9000000000.0, 9000000000.0]];
    CONST robtarget point_167_contact:=[[399,197,5],[0,0,1,0],[0, 0, 0, 0],[9000000000.0, 9000000000.0, 9000000000.0, 9000000000.0, 9000000000.0, 9000000000.0]];
    CONST robtarget point_167_clearance:=[[399,197,10],[0,0,1,0],[0, 0, 0, 0],[9000000000.0, 9000000000.0, 9000000000.0, 9000000000.0, 9000000000.0, 9000000000.0]];
    CONST robtarget point_168_clearance:=[[247,184,10],[0,0,1,0],[0, 0, 0, 0],[9000000000.0, 9000000000.0, 9000000000.0, 9000000000.0, 9000000000.0, 9000000000.0]];
    CONST robtarget point_168_contact:=[[247,184,5],[0,0,1,0],[0, 0, 0, 0],[9000000000.0, 9000000000.0, 9000000000.0, 9000000000.0, 9000000000.0, 9000000000.0]];
    CONST robtarget point_169_contact:=[[266,180,5],[0,0,1,0],[0, 0, 0, 0],[9000000000.0, 9000000000.0, 9000000000.0, 9000000000.0, 9000000000.0, 9000000000.0]];
    CONST robtarget point_169_clearance:=[[266,180,10],[0,0,1,0],[0, 0, 0, 0],[9000000000.0, 9000000000.0, 9000000000.0, 9000000000.0, 9000000000.0, 9000000000.0]];
    CONST robtarget point_170_clearance:=[[96,183,10],[0,0,1,0],[0, 0, 0, 0],[9000000000.0, 9000000000.0, 9000000000.0, 9000000000.0, 9000000000.0, 9000000000.0]];
    CONST robtarget point_170_contact:=[[96,183,5],[0,0,1,0],[0, 0, 0, 0],[9000000000.0, 9000000000.0, 9000000000.0, 9000000000.0, 9000000000.0, 9000000000.0]];
    CONST robtarget point_171_contact:=[[106,180,5],[0,0,1,0],[0, 0, 0, 0],[9000000000.0, 9000000000.0, 9000000000.0, 9000000000.0, 9000000000.0, 9000000000.0]];
    CONST robtarget point_171_clearance:=[[106,180,10],[0,0,1,0],[0, 0, 0, 0],[9000000000.0, 9000000000.0, 9000000000.0, 9000000000.0, 9000000000.0, 9000000000.0]];
    CONST robtarget point_172_clearance:=[[106,199,10],[0,0,1,0],[0, 0, 0, 0],[9000000000.0, 9000000000.0, 9000000000.0, 9000000000.0, 9000000000.0, 9000000000.0]];
    CONST robtarget point_172_contact:=[[106,199,5],[0,0,1,0],[0, 0, 0, 0],[9000000000.0, 9000000000.0, 9000000000.0, 9000000000.0, 9000000000.0, 9000000000.0]];
    CONST robtarget point_173_contact:=[[96,184,5],[0,0,1,0],[0, 0, 0, 0],[9000000000.0, 9000000000.0, 9000000000.0, 9000000000.0, 9000000000.0, 9000000000.0]];
    CONST robtarget point_173_clearance:=[[96,184,10],[0,0,1,0],[0, 0, 0, 0],[9000000000.0, 9000000000.0, 9000000000.0, 9000000000.0, 9000000000.0, 9000000000.0]];
    CONST robtarget point_174_clearance:=[[370,197,10],[0,0,1,0],[0, 0, 0, 0],[9000000000.0, 9000000000.0, 9000000000.0, 9000000000.0, 9000000000.0, 9000000000.0]];
    CONST robtarget point_174_contact:=[[370,197,5],[0,0,1,0],[0, 0, 0, 0],[9000000000.0, 9000000000.0, 9000000000.0, 9000000000.0, 9000000000.0, 9000000000.0]];
    CONST robtarget point_175_contact:=[[338,187,5],[0,0,1,0],[0, 0, 0, 0],[9000000000.0, 9000000000.0, 9000000000.0, 9000000000.0, 9000000000.0, 9000000000.0]];
    CONST robtarget point_175_clearance:=[[338,187,10],[0,0,1,0],[0, 0, 0, 0],[9000000000.0, 9000000000.0, 9000000000.0, 9000000000.0, 9000000000.0, 9000000000.0]];
    CONST robtarget point_176_clearance:=[[338,190,10],[0,0,1,0],[0, 0, 0, 0],[9000000000.0, 9000000000.0, 9000000000.0, 9000000000.0, 9000000000.0, 9000000000.0]];
    CONST robtarget point_176_contact:=[[338,190,5],[0,0,1,0],[0, 0, 0, 0],[9000000000.0, 9000000000.0, 9000000000.0, 9000000000.0, 9000000000.0, 9000000000.0]];
    CONST robtarget point_177_contact:=[[374,201,5],[0,0,1,0],[0, 0, 0, 0],[9000000000.0, 9000000000.0, 9000000000.0, 9000000000.0, 9000000000.0, 9000000000.0]];
    CONST robtarget point_177_clearance:=[[374,201,10],[0,0,1,0],[0, 0, 0, 0],[9000000000.0, 9000000000.0, 9000000000.0, 9000000000.0, 9000000000.0, 9000000000.0]];
    CONST robtarget point_178_clearance:=[[115,192,10],[0,0,1,0],[0, 0, 0, 0],[9000000000.0, 9000000000.0, 9000000000.0, 9000000000.0, 9000000000.0, 9000000000.0]];
    CONST robtarget point_178_contact:=[[115,192,5],[0,0,1,0],[0, 0, 0, 0],[9000000000.0, 9000000000.0, 9000000000.0, 9000000000.0, 9000000000.0, 9000000000.0]];
    CONST robtarget point_179_contact:=[[108,198,5],[0,0,1,0],[0, 0, 0, 0],[9000000000.0, 9000000000.0, 9000000000.0, 9000000000.0, 9000000000.0, 9000000000.0]];
    CONST robtarget point_179_clearance:=[[108,198,10],[0,0,1,0],[0, 0, 0, 0],[9000000000.0, 9000000000.0, 9000000000.0, 9000000000.0, 9000000000.0, 9000000000.0]];
    CONST robtarget point_180_clearance:=[[110,201,10],[0,0,1,0],[0, 0, 0, 0],[9000000000.0, 9000000000.0, 9000000000.0, 9000000000.0, 9000000000.0, 9000000000.0]];
    CONST robtarget point_180_contact:=[[110,201,5],[0,0,1,0],[0, 0, 0, 0],[9000000000.0, 9000000000.0, 9000000000.0, 9000000000.0, 9000000000.0, 9000000000.0]];
    CONST robtarget point_181_contact:=[[118,196,5],[0,0,1,0],[0, 0, 0, 0],[9000000000.0, 9000000000.0, 9000000000.0, 9000000000.0, 9000000000.0, 9000000000.0]];
    CONST robtarget point_181_clearance:=[[118,196,10],[0,0,1,0],[0, 0, 0, 0],[9000000000.0, 9000000000.0, 9000000000.0, 9000000000.0, 9000000000.0, 9000000000.0]];
    CONST robtarget point_182_clearance:=[[387,206,10],[0,0,1,0],[0, 0, 0, 0],[9000000000.0, 9000000000.0, 9000000000.0, 9000000000.0, 9000000000.0, 9000000000.0]];
    CONST robtarget point_182_contact:=[[387,206,5],[0,0,1,0],[0, 0, 0, 0],[9000000000.0, 9000000000.0, 9000000000.0, 9000000000.0, 9000000000.0, 9000000000.0]];
    CONST robtarget point_183_contact:=[[370,197,5],[0,0,1,0],[0, 0, 0, 0],[9000000000.0, 9000000000.0, 9000000000.0, 9000000000.0, 9000000000.0, 9000000000.0]];
    CONST robtarget point_183_clearance:=[[370,197,10],[0,0,1,0],[0, 0, 0, 0],[9000000000.0, 9000000000.0, 9000000000.0, 9000000000.0, 9000000000.0, 9000000000.0]];
    CONST robtarget point_184_clearance:=[[399,198,10],[0,0,1,0],[0, 0, 0, 0],[9000000000.0, 9000000000.0, 9000000000.0, 9000000000.0, 9000000000.0, 9000000000.0]];
    CONST robtarget point_184_contact:=[[399,198,5],[0,0,1,0],[0, 0, 0, 0],[9000000000.0, 9000000000.0, 9000000000.0, 9000000000.0, 9000000000.0, 9000000000.0]];
    CONST robtarget point_185_contact:=[[414,209,5],[0,0,1,0],[0, 0, 0, 0],[9000000000.0, 9000000000.0, 9000000000.0, 9000000000.0, 9000000000.0, 9000000000.0]];
    CONST robtarget point_185_clearance:=[[414,209,10],[0,0,1,0],[0, 0, 0, 0],[9000000000.0, 9000000000.0, 9000000000.0, 9000000000.0, 9000000000.0, 9000000000.0]];
    CONST robtarget point_186_clearance:=[[374,202,10],[0,0,1,0],[0, 0, 0, 0],[9000000000.0, 9000000000.0, 9000000000.0, 9000000000.0, 9000000000.0, 9000000000.0]];
    CONST robtarget point_186_contact:=[[374,202,5],[0,0,1,0],[0, 0, 0, 0],[9000000000.0, 9000000000.0, 9000000000.0, 9000000000.0, 9000000000.0, 9000000000.0]];
    CONST robtarget point_187_contact:=[[386,208,5],[0,0,1,0],[0, 0, 0, 0],[9000000000.0, 9000000000.0, 9000000000.0, 9000000000.0, 9000000000.0, 9000000000.0]];
    CONST robtarget point_187_clearance:=[[386,208,10],[0,0,1,0],[0, 0, 0, 0],[9000000000.0, 9000000000.0, 9000000000.0, 9000000000.0, 9000000000.0, 9000000000.0]];
    CONST robtarget point_188_clearance:=[[128,213,10],[0,0,1,0],[0, 0, 0, 0],[9000000000.0, 9000000000.0, 9000000000.0, 9000000000.0, 9000000000.0, 9000000000.0]];
    CONST robtarget point_188_contact:=[[128,213,5],[0,0,1,0],[0, 0, 0, 0],[9000000000.0, 9000000000.0, 9000000000.0, 9000000000.0, 9000000000.0, 9000000000.0]];
    CONST robtarget point_189_contact:=[[110,202,5],[0,0,1,0],[0, 0, 0, 0],[9000000000.0, 9000000000.0, 9000000000.0, 9000000000.0, 9000000000.0, 9000000000.0]];
    CONST robtarget point_189_clearance:=[[110,202,10],[0,0,1,0],[0, 0, 0, 0],[9000000000.0, 9000000000.0, 9000000000.0, 9000000000.0, 9000000000.0, 9000000000.0]];
    CONST robtarget point_190_clearance:=[[134,208,10],[0,0,1,0],[0, 0, 0, 0],[9000000000.0, 9000000000.0, 9000000000.0, 9000000000.0, 9000000000.0, 9000000000.0]];
    CONST robtarget point_190_contact:=[[134,208,5],[0,0,1,0],[0, 0, 0, 0],[9000000000.0, 9000000000.0, 9000000000.0, 9000000000.0, 9000000000.0, 9000000000.0]];
    CONST robtarget point_191_contact:=[[131,202,5],[0,0,1,0],[0, 0, 0, 0],[9000000000.0, 9000000000.0, 9000000000.0, 9000000000.0, 9000000000.0, 9000000000.0]];
    CONST robtarget point_191_clearance:=[[131,202,10],[0,0,1,0],[0, 0, 0, 0],[9000000000.0, 9000000000.0, 9000000000.0, 9000000000.0, 9000000000.0, 9000000000.0]];
    CONST robtarget point_192_clearance:=[[129,204,10],[0,0,1,0],[0, 0, 0, 0],[9000000000.0, 9000000000.0, 9000000000.0, 9000000000.0, 9000000000.0, 9000000000.0]];
    CONST robtarget point_192_contact:=[[129,204,5],[0,0,1,0],[0, 0, 0, 0],[9000000000.0, 9000000000.0, 9000000000.0, 9000000000.0, 9000000000.0, 9000000000.0]];
    CONST robtarget point_193_contact:=[[130,211,5],[0,0,1,0],[0, 0, 0, 0],[9000000000.0, 9000000000.0, 9000000000.0, 9000000000.0, 9000000000.0, 9000000000.0]];
    CONST robtarget point_193_clearance:=[[130,211,10],[0,0,1,0],[0, 0, 0, 0],[9000000000.0, 9000000000.0, 9000000000.0, 9000000000.0, 9000000000.0, 9000000000.0]];
    CONST robtarget point_194_clearance:=[[134,215,10],[0,0,1,0],[0, 0, 0, 0],[9000000000.0, 9000000000.0, 9000000000.0, 9000000000.0, 9000000000.0, 9000000000.0]];
    CONST robtarget point_194_contact:=[[134,215,5],[0,0,1,0],[0, 0, 0, 0],[9000000000.0, 9000000000.0, 9000000000.0, 9000000000.0, 9000000000.0, 9000000000.0]];
    CONST robtarget point_195_contact:=[[133,208,5],[0,0,1,0],[0, 0, 0, 0],[9000000000.0, 9000000000.0, 9000000000.0, 9000000000.0, 9000000000.0, 9000000000.0]];
    CONST robtarget point_195_clearance:=[[133,208,10],[0,0,1,0],[0, 0, 0, 0],[9000000000.0, 9000000000.0, 9000000000.0, 9000000000.0, 9000000000.0, 9000000000.0]];
    CONST robtarget point_196_clearance:=[[414,208,10],[0,0,1,0],[0, 0, 0, 0],[9000000000.0, 9000000000.0, 9000000000.0, 9000000000.0, 9000000000.0, 9000000000.0]];
    CONST robtarget point_196_contact:=[[414,208,5],[0,0,1,0],[0, 0, 0, 0],[9000000000.0, 9000000000.0, 9000000000.0, 9000000000.0, 9000000000.0, 9000000000.0]];
    CONST robtarget point_197_contact:=[[415,243,5],[0,0,1,0],[0, 0, 0, 0],[9000000000.0, 9000000000.0, 9000000000.0, 9000000000.0, 9000000000.0, 9000000000.0]];
    CONST robtarget point_197_clearance:=[[415,243,10],[0,0,1,0],[0, 0, 0, 0],[9000000000.0, 9000000000.0, 9000000000.0, 9000000000.0, 9000000000.0, 9000000000.0]];
    CONST robtarget point_198_clearance:=[[233,211,10],[0,0,1,0],[0, 0, 0, 0],[9000000000.0, 9000000000.0, 9000000000.0, 9000000000.0, 9000000000.0, 9000000000.0]];
    CONST robtarget point_198_contact:=[[233,211,5],[0,0,1,0],[0, 0, 0, 0],[9000000000.0, 9000000000.0, 9000000000.0, 9000000000.0, 9000000000.0, 9000000000.0]];
    CONST robtarget point_199_contact:=[[225,224,5],[0,0,1,0],[0, 0, 0, 0],[9000000000.0, 9000000000.0, 9000000000.0, 9000000000.0, 9000000000.0, 9000000000.0]];
    CONST robtarget point_199_clearance:=[[225,224,10],[0,0,1,0],[0, 0, 0, 0],[9000000000.0, 9000000000.0, 9000000000.0, 9000000000.0, 9000000000.0, 9000000000.0]];
    CONST robtarget point_200_clearance:=[[152,212,10],[0,0,1,0],[0, 0, 0, 0],[9000000000.0, 9000000000.0, 9000000000.0, 9000000000.0, 9000000000.0, 9000000000.0]];
    CONST robtarget point_200_contact:=[[152,212,5],[0,0,1,0],[0, 0, 0, 0],[9000000000.0, 9000000000.0, 9000000000.0, 9000000000.0, 9000000000.0, 9000000000.0]];
    CONST robtarget point_201_contact:=[[156,221,5],[0,0,1,0],[0, 0, 0, 0],[9000000000.0, 9000000000.0, 9000000000.0, 9000000000.0, 9000000000.0, 9000000000.0]];
    CONST robtarget point_201_clearance:=[[156,221,10],[0,0,1,0],[0, 0, 0, 0],[9000000000.0, 9000000000.0, 9000000000.0, 9000000000.0, 9000000000.0, 9000000000.0]];
    CONST robtarget point_202_clearance:=[[229,231,10],[0,0,1,0],[0, 0, 0, 0],[9000000000.0, 9000000000.0, 9000000000.0, 9000000000.0, 9000000000.0, 9000000000.0]];
    CONST robtarget point_202_contact:=[[229,231,5],[0,0,1,0],[0, 0, 0, 0],[9000000000.0, 9000000000.0, 9000000000.0, 9000000000.0, 9000000000.0, 9000000000.0]];
    CONST robtarget point_203_contact:=[[235,213,5],[0,0,1,0],[0, 0, 0, 0],[9000000000.0, 9000000000.0, 9000000000.0, 9000000000.0, 9000000000.0, 9000000000.0]];
    CONST robtarget point_203_clearance:=[[235,213,10],[0,0,1,0],[0, 0, 0, 0],[9000000000.0, 9000000000.0, 9000000000.0, 9000000000.0, 9000000000.0, 9000000000.0]];
    CONST robtarget point_204_clearance:=[[421,215,10],[0,0,1,0],[0, 0, 0, 0],[9000000000.0, 9000000000.0, 9000000000.0, 9000000000.0, 9000000000.0, 9000000000.0]];
    CONST robtarget point_204_contact:=[[421,215,5],[0,0,1,0],[0, 0, 0, 0],[9000000000.0, 9000000000.0, 9000000000.0, 9000000000.0, 9000000000.0, 9000000000.0]];
    CONST robtarget point_205_contact:=[[444,237,5],[0,0,1,0],[0, 0, 0, 0],[9000000000.0, 9000000000.0, 9000000000.0, 9000000000.0, 9000000000.0, 9000000000.0]];
    CONST robtarget point_205_clearance:=[[444,237,10],[0,0,1,0],[0, 0, 0, 0],[9000000000.0, 9000000000.0, 9000000000.0, 9000000000.0, 9000000000.0, 9000000000.0]];
    CONST robtarget point_206_clearance:=[[154,222,10],[0,0,1,0],[0, 0, 0, 0],[9000000000.0, 9000000000.0, 9000000000.0, 9000000000.0, 9000000000.0, 9000000000.0]];
    CONST robtarget point_206_contact:=[[154,222,5],[0,0,1,0],[0, 0, 0, 0],[9000000000.0, 9000000000.0, 9000000000.0, 9000000000.0, 9000000000.0, 9000000000.0]];
    CONST robtarget point_207_contact:=[[133,216,5],[0,0,1,0],[0, 0, 0, 0],[9000000000.0, 9000000000.0, 9000000000.0, 9000000000.0, 9000000000.0, 9000000000.0]];
    CONST robtarget point_207_clearance:=[[133,216,10],[0,0,1,0],[0, 0, 0, 0],[9000000000.0, 9000000000.0, 9000000000.0, 9000000000.0, 9000000000.0, 9000000000.0]];
    CONST robtarget point_208_clearance:=[[159,223,10],[0,0,1,0],[0, 0, 0, 0],[9000000000.0, 9000000000.0, 9000000000.0, 9000000000.0, 9000000000.0, 9000000000.0]];
    CONST robtarget point_208_contact:=[[159,223,5],[0,0,1,0],[0, 0, 0, 0],[9000000000.0, 9000000000.0, 9000000000.0, 9000000000.0, 9000000000.0, 9000000000.0]];
    CONST robtarget point_209_contact:=[[158,214,5],[0,0,1,0],[0, 0, 0, 0],[9000000000.0, 9000000000.0, 9000000000.0, 9000000000.0, 9000000000.0, 9000000000.0]];
    CONST robtarget point_209_clearance:=[[158,214,10],[0,0,1,0],[0, 0, 0, 0],[9000000000.0, 9000000000.0, 9000000000.0, 9000000000.0, 9000000000.0, 9000000000.0]];
    CONST robtarget point_210_clearance:=[[418,242,10],[0,0,1,0],[0, 0, 0, 0],[9000000000.0, 9000000000.0, 9000000000.0, 9000000000.0, 9000000000.0, 9000000000.0]];
    CONST robtarget point_210_contact:=[[418,242,5],[0,0,1,0],[0, 0, 0, 0],[9000000000.0, 9000000000.0, 9000000000.0, 9000000000.0, 9000000000.0, 9000000000.0]];
    CONST robtarget point_211_contact:=[[421,215,5],[0,0,1,0],[0, 0, 0, 0],[9000000000.0, 9000000000.0, 9000000000.0, 9000000000.0, 9000000000.0, 9000000000.0]];
    CONST robtarget point_211_clearance:=[[421,215,10],[0,0,1,0],[0, 0, 0, 0],[9000000000.0, 9000000000.0, 9000000000.0, 9000000000.0, 9000000000.0, 9000000000.0]];
    CONST robtarget point_212_clearance:=[[172,225,10],[0,0,1,0],[0, 0, 0, 0],[9000000000.0, 9000000000.0, 9000000000.0, 9000000000.0, 9000000000.0, 9000000000.0]];
    CONST robtarget point_212_contact:=[[172,225,5],[0,0,1,0],[0, 0, 0, 0],[9000000000.0, 9000000000.0, 9000000000.0, 9000000000.0, 9000000000.0, 9000000000.0]];
    CONST robtarget point_213_contact:=[[159,223,5],[0,0,1,0],[0, 0, 0, 0],[9000000000.0, 9000000000.0, 9000000000.0, 9000000000.0, 9000000000.0, 9000000000.0]];
    CONST robtarget point_213_clearance:=[[159,223,10],[0,0,1,0],[0, 0, 0, 0],[9000000000.0, 9000000000.0, 9000000000.0, 9000000000.0, 9000000000.0, 9000000000.0]];
    CONST robtarget point_214_clearance:=[[225,223,10],[0,0,1,0],[0, 0, 0, 0],[9000000000.0, 9000000000.0, 9000000000.0, 9000000000.0, 9000000000.0, 9000000000.0]];
    CONST robtarget point_214_contact:=[[225,223,5],[0,0,1,0],[0, 0, 0, 0],[9000000000.0, 9000000000.0, 9000000000.0, 9000000000.0, 9000000000.0, 9000000000.0]];
    CONST robtarget point_215_contact:=[[215,230,5],[0,0,1,0],[0, 0, 0, 0],[9000000000.0, 9000000000.0, 9000000000.0, 9000000000.0, 9000000000.0, 9000000000.0]];
    CONST robtarget point_215_clearance:=[[215,230,10],[0,0,1,0],[0, 0, 0, 0],[9000000000.0, 9000000000.0, 9000000000.0, 9000000000.0, 9000000000.0, 9000000000.0]];
    CONST robtarget point_216_clearance:=[[199,251,10],[0,0,1,0],[0, 0, 0, 0],[9000000000.0, 9000000000.0, 9000000000.0, 9000000000.0, 9000000000.0, 9000000000.0]];
    CONST robtarget point_216_contact:=[[199,251,5],[0,0,1,0],[0, 0, 0, 0],[9000000000.0, 9000000000.0, 9000000000.0, 9000000000.0, 9000000000.0, 9000000000.0]];
    CONST robtarget point_217_contact:=[[172,226,5],[0,0,1,0],[0, 0, 0, 0],[9000000000.0, 9000000000.0, 9000000000.0, 9000000000.0, 9000000000.0, 9000000000.0]];
    CONST robtarget point_217_clearance:=[[172,226,10],[0,0,1,0],[0, 0, 0, 0],[9000000000.0, 9000000000.0, 9000000000.0, 9000000000.0, 9000000000.0, 9000000000.0]];
    CONST robtarget point_218_clearance:=[[216,231,10],[0,0,1,0],[0, 0, 0, 0],[9000000000.0, 9000000000.0, 9000000000.0, 9000000000.0, 9000000000.0, 9000000000.0]];
    CONST robtarget point_218_contact:=[[216,231,5],[0,0,1,0],[0, 0, 0, 0],[9000000000.0, 9000000000.0, 9000000000.0, 9000000000.0, 9000000000.0, 9000000000.0]];
    CONST robtarget point_219_contact:=[[215,235,5],[0,0,1,0],[0, 0, 0, 0],[9000000000.0, 9000000000.0, 9000000000.0, 9000000000.0, 9000000000.0, 9000000000.0]];
    CONST robtarget point_219_clearance:=[[215,235,10],[0,0,1,0],[0, 0, 0, 0],[9000000000.0, 9000000000.0, 9000000000.0, 9000000000.0, 9000000000.0, 9000000000.0]];
    CONST robtarget point_220_clearance:=[[220,237,10],[0,0,1,0],[0, 0, 0, 0],[9000000000.0, 9000000000.0, 9000000000.0, 9000000000.0, 9000000000.0, 9000000000.0]];
    CONST robtarget point_220_contact:=[[220,237,5],[0,0,1,0],[0, 0, 0, 0],[9000000000.0, 9000000000.0, 9000000000.0, 9000000000.0, 9000000000.0, 9000000000.0]];
    CONST robtarget point_221_contact:=[[229,231,5],[0,0,1,0],[0, 0, 0, 0],[9000000000.0, 9000000000.0, 9000000000.0, 9000000000.0, 9000000000.0, 9000000000.0]];
    CONST robtarget point_221_clearance:=[[229,231,10],[0,0,1,0],[0, 0, 0, 0],[9000000000.0, 9000000000.0, 9000000000.0, 9000000000.0, 9000000000.0, 9000000000.0]];
    CONST robtarget point_222_clearance:=[[214,235,10],[0,0,1,0],[0, 0, 0, 0],[9000000000.0, 9000000000.0, 9000000000.0, 9000000000.0, 9000000000.0, 9000000000.0]];
    CONST robtarget point_222_contact:=[[214,235,5],[0,0,1,0],[0, 0, 0, 0],[9000000000.0, 9000000000.0, 9000000000.0, 9000000000.0, 9000000000.0, 9000000000.0]];
    CONST robtarget point_223_contact:=[[219,240,5],[0,0,1,0],[0, 0, 0, 0],[9000000000.0, 9000000000.0, 9000000000.0, 9000000000.0, 9000000000.0, 9000000000.0]];
    CONST robtarget point_223_clearance:=[[219,240,10],[0,0,1,0],[0, 0, 0, 0],[9000000000.0, 9000000000.0, 9000000000.0, 9000000000.0, 9000000000.0, 9000000000.0]];
    CONST robtarget point_224_clearance:=[[443,237,10],[0,0,1,0],[0, 0, 0, 0],[9000000000.0, 9000000000.0, 9000000000.0, 9000000000.0, 9000000000.0, 9000000000.0]];
    CONST robtarget point_224_contact:=[[443,237,5],[0,0,1,0],[0, 0, 0, 0],[9000000000.0, 9000000000.0, 9000000000.0, 9000000000.0, 9000000000.0, 9000000000.0]];
    CONST robtarget point_225_contact:=[[443,245,5],[0,0,1,0],[0, 0, 0, 0],[9000000000.0, 9000000000.0, 9000000000.0, 9000000000.0, 9000000000.0, 9000000000.0]];
    CONST robtarget point_225_clearance:=[[443,245,10],[0,0,1,0],[0, 0, 0, 0],[9000000000.0, 9000000000.0, 9000000000.0, 9000000000.0, 9000000000.0, 9000000000.0]];
    CONST robtarget point_226_clearance:=[[447,238,10],[0,0,1,0],[0, 0, 0, 0],[9000000000.0, 9000000000.0, 9000000000.0, 9000000000.0, 9000000000.0, 9000000000.0]];
    CONST robtarget point_226_contact:=[[447,238,5],[0,0,1,0],[0, 0, 0, 0],[9000000000.0, 9000000000.0, 9000000000.0, 9000000000.0, 9000000000.0, 9000000000.0]];
    CONST robtarget point_227_contact:=[[475,282,5],[0,0,1,0],[0, 0, 0, 0],[9000000000.0, 9000000000.0, 9000000000.0, 9000000000.0, 9000000000.0, 9000000000.0]];
    CONST robtarget point_227_clearance:=[[475,282,10],[0,0,1,0],[0, 0, 0, 0],[9000000000.0, 9000000000.0, 9000000000.0, 9000000000.0, 9000000000.0, 9000000000.0]];
    CONST robtarget point_228_clearance:=[[448,275,10],[0,0,1,0],[0, 0, 0, 0],[9000000000.0, 9000000000.0, 9000000000.0, 9000000000.0, 9000000000.0, 9000000000.0]];
    CONST robtarget point_228_contact:=[[448,275,5],[0,0,1,0],[0, 0, 0, 0],[9000000000.0, 9000000000.0, 9000000000.0, 9000000000.0, 9000000000.0, 9000000000.0]];
    CONST robtarget point_229_contact:=[[448,241,5],[0,0,1,0],[0, 0, 0, 0],[9000000000.0, 9000000000.0, 9000000000.0, 9000000000.0, 9000000000.0, 9000000000.0]];
    CONST robtarget point_229_clearance:=[[448,241,10],[0,0,1,0],[0, 0, 0, 0],[9000000000.0, 9000000000.0, 9000000000.0, 9000000000.0, 9000000000.0, 9000000000.0]];
    CONST robtarget point_230_clearance:=[[445,242,10],[0,0,1,0],[0, 0, 0, 0],[9000000000.0, 9000000000.0, 9000000000.0, 9000000000.0, 9000000000.0, 9000000000.0]];
    CONST robtarget point_230_contact:=[[445,242,5],[0,0,1,0],[0, 0, 0, 0],[9000000000.0, 9000000000.0, 9000000000.0, 9000000000.0, 9000000000.0, 9000000000.0]];
    CONST robtarget point_231_contact:=[[444,280,5],[0,0,1,0],[0, 0, 0, 0],[9000000000.0, 9000000000.0, 9000000000.0, 9000000000.0, 9000000000.0, 9000000000.0]];
    CONST robtarget point_231_clearance:=[[444,280,10],[0,0,1,0],[0, 0, 0, 0],[9000000000.0, 9000000000.0, 9000000000.0, 9000000000.0, 9000000000.0, 9000000000.0]];
    CONST robtarget point_232_clearance:=[[208,273,10],[0,0,1,0],[0, 0, 0, 0],[9000000000.0, 9000000000.0, 9000000000.0, 9000000000.0, 9000000000.0, 9000000000.0]];
    CONST robtarget point_232_contact:=[[208,273,5],[0,0,1,0],[0, 0, 0, 0],[9000000000.0, 9000000000.0, 9000000000.0, 9000000000.0, 9000000000.0, 9000000000.0]];
    CONST robtarget point_233_contact:=[[192,246,5],[0,0,1,0],[0, 0, 0, 0],[9000000000.0, 9000000000.0, 9000000000.0, 9000000000.0, 9000000000.0, 9000000000.0]];
    CONST robtarget point_233_clearance:=[[192,246,10],[0,0,1,0],[0, 0, 0, 0],[9000000000.0, 9000000000.0, 9000000000.0, 9000000000.0, 9000000000.0, 9000000000.0]];
    CONST robtarget point_234_clearance:=[[300,259,10],[0,0,1,0],[0, 0, 0, 0],[9000000000.0, 9000000000.0, 9000000000.0, 9000000000.0, 9000000000.0, 9000000000.0]];
    CONST robtarget point_234_contact:=[[300,259,5],[0,0,1,0],[0, 0, 0, 0],[9000000000.0, 9000000000.0, 9000000000.0, 9000000000.0, 9000000000.0, 9000000000.0]];
    CONST robtarget point_235_contact:=[[287,259,5],[0,0,1,0],[0, 0, 0, 0],[9000000000.0, 9000000000.0, 9000000000.0, 9000000000.0, 9000000000.0, 9000000000.0]];
    CONST robtarget point_235_clearance:=[[287,259,10],[0,0,1,0],[0, 0, 0, 0],[9000000000.0, 9000000000.0, 9000000000.0, 9000000000.0, 9000000000.0, 9000000000.0]];
    CONST robtarget point_236_clearance:=[[336,279,10],[0,0,1,0],[0, 0, 0, 0],[9000000000.0, 9000000000.0, 9000000000.0, 9000000000.0, 9000000000.0, 9000000000.0]];
    CONST robtarget point_236_contact:=[[336,279,5],[0,0,1,0],[0, 0, 0, 0],[9000000000.0, 9000000000.0, 9000000000.0, 9000000000.0, 9000000000.0, 9000000000.0]];
    CONST robtarget point_237_contact:=[[300,258,5],[0,0,1,0],[0, 0, 0, 0],[9000000000.0, 9000000000.0, 9000000000.0, 9000000000.0, 9000000000.0, 9000000000.0]];
    CONST robtarget point_237_clearance:=[[300,258,10],[0,0,1,0],[0, 0, 0, 0],[9000000000.0, 9000000000.0, 9000000000.0, 9000000000.0, 9000000000.0, 9000000000.0]];
    CONST robtarget point_238_clearance:=[[284,260,10],[0,0,1,0],[0, 0, 0, 0],[9000000000.0, 9000000000.0, 9000000000.0, 9000000000.0, 9000000000.0, 9000000000.0]];
    CONST robtarget point_238_contact:=[[284,260,5],[0,0,1,0],[0, 0, 0, 0],[9000000000.0, 9000000000.0, 9000000000.0, 9000000000.0, 9000000000.0, 9000000000.0]];
    CONST robtarget point_239_contact:=[[268,289,5],[0,0,1,0],[0, 0, 0, 0],[9000000000.0, 9000000000.0, 9000000000.0, 9000000000.0, 9000000000.0, 9000000000.0]];
    CONST robtarget point_239_clearance:=[[268,289,10],[0,0,1,0],[0, 0, 0, 0],[9000000000.0, 9000000000.0, 9000000000.0, 9000000000.0, 9000000000.0, 9000000000.0]];
    CONST robtarget point_240_clearance:=[[204,265,10],[0,0,1,0],[0, 0, 0, 0],[9000000000.0, 9000000000.0, 9000000000.0, 9000000000.0, 9000000000.0, 9000000000.0]];
    CONST robtarget point_240_contact:=[[204,265,5],[0,0,1,0],[0, 0, 0, 0],[9000000000.0, 9000000000.0, 9000000000.0, 9000000000.0, 9000000000.0, 9000000000.0]];
    CONST robtarget point_241_contact:=[[203,264,5],[0,0,1,0],[0, 0, 0, 0],[9000000000.0, 9000000000.0, 9000000000.0, 9000000000.0, 9000000000.0, 9000000000.0]];
    CONST robtarget point_241_clearance:=[[203,264,10],[0,0,1,0],[0, 0, 0, 0],[9000000000.0, 9000000000.0, 9000000000.0, 9000000000.0, 9000000000.0, 9000000000.0]];
    CONST robtarget point_242_clearance:=[[208,274,10],[0,0,1,0],[0, 0, 0, 0],[9000000000.0, 9000000000.0, 9000000000.0, 9000000000.0, 9000000000.0, 9000000000.0]];
    CONST robtarget point_242_contact:=[[208,274,5],[0,0,1,0],[0, 0, 0, 0],[9000000000.0, 9000000000.0, 9000000000.0, 9000000000.0, 9000000000.0, 9000000000.0]];
    CONST robtarget point_243_contact:=[[204,266,5],[0,0,1,0],[0, 0, 0, 0],[9000000000.0, 9000000000.0, 9000000000.0, 9000000000.0, 9000000000.0, 9000000000.0]];
    CONST robtarget point_243_clearance:=[[204,266,10],[0,0,1,0],[0, 0, 0, 0],[9000000000.0, 9000000000.0, 9000000000.0, 9000000000.0, 9000000000.0, 9000000000.0]];
    CONST robtarget point_244_clearance:=[[217,301,10],[0,0,1,0],[0, 0, 0, 0],[9000000000.0, 9000000000.0, 9000000000.0, 9000000000.0, 9000000000.0, 9000000000.0]];
    CONST robtarget point_244_contact:=[[217,301,5],[0,0,1,0],[0, 0, 0, 0],[9000000000.0, 9000000000.0, 9000000000.0, 9000000000.0, 9000000000.0, 9000000000.0]];
    CONST robtarget point_245_contact:=[[208,273,5],[0,0,1,0],[0, 0, 0, 0],[9000000000.0, 9000000000.0, 9000000000.0, 9000000000.0, 9000000000.0, 9000000000.0]];
    CONST robtarget point_245_clearance:=[[208,273,10],[0,0,1,0],[0, 0, 0, 0],[9000000000.0, 9000000000.0, 9000000000.0, 9000000000.0, 9000000000.0, 9000000000.0]];
    CONST robtarget point_246_clearance:=[[443,288,10],[0,0,1,0],[0, 0, 0, 0],[9000000000.0, 9000000000.0, 9000000000.0, 9000000000.0, 9000000000.0, 9000000000.0]];
    CONST robtarget point_246_contact:=[[443,288,5],[0,0,1,0],[0, 0, 0, 0],[9000000000.0, 9000000000.0, 9000000000.0, 9000000000.0, 9000000000.0, 9000000000.0]];
    CONST robtarget point_247_contact:=[[447,274,5],[0,0,1,0],[0, 0, 0, 0],[9000000000.0, 9000000000.0, 9000000000.0, 9000000000.0, 9000000000.0, 9000000000.0]];
    CONST robtarget point_247_clearance:=[[447,274,10],[0,0,1,0],[0, 0, 0, 0],[9000000000.0, 9000000000.0, 9000000000.0, 9000000000.0, 9000000000.0, 9000000000.0]];
    CONST robtarget point_248_clearance:=[[442,277,10],[0,0,1,0],[0, 0, 0, 0],[9000000000.0, 9000000000.0, 9000000000.0, 9000000000.0, 9000000000.0, 9000000000.0]];
    CONST robtarget point_248_contact:=[[442,277,5],[0,0,1,0],[0, 0, 0, 0],[9000000000.0, 9000000000.0, 9000000000.0, 9000000000.0, 9000000000.0, 9000000000.0]];
    CONST robtarget point_249_contact:=[[441,286,5],[0,0,1,0],[0, 0, 0, 0],[9000000000.0, 9000000000.0, 9000000000.0, 9000000000.0, 9000000000.0, 9000000000.0]];
    CONST robtarget point_249_clearance:=[[441,286,10],[0,0,1,0],[0, 0, 0, 0],[9000000000.0, 9000000000.0, 9000000000.0, 9000000000.0, 9000000000.0, 9000000000.0]];
    CONST robtarget point_250_clearance:=[[344,299,10],[0,0,1,0],[0, 0, 0, 0],[9000000000.0, 9000000000.0, 9000000000.0, 9000000000.0, 9000000000.0, 9000000000.0]];
    CONST robtarget point_250_contact:=[[344,299,5],[0,0,1,0],[0, 0, 0, 0],[9000000000.0, 9000000000.0, 9000000000.0, 9000000000.0, 9000000000.0, 9000000000.0]];
    CONST robtarget point_251_contact:=[[335,278,5],[0,0,1,0],[0, 0, 0, 0],[9000000000.0, 9000000000.0, 9000000000.0, 9000000000.0, 9000000000.0, 9000000000.0]];
    CONST robtarget point_251_clearance:=[[335,278,10],[0,0,1,0],[0, 0, 0, 0],[9000000000.0, 9000000000.0, 9000000000.0, 9000000000.0, 9000000000.0, 9000000000.0]];
    CONST robtarget point_252_clearance:=[[476,283,10],[0,0,1,0],[0, 0, 0, 0],[9000000000.0, 9000000000.0, 9000000000.0, 9000000000.0, 9000000000.0, 9000000000.0]];
    CONST robtarget point_252_contact:=[[476,283,5],[0,0,1,0],[0, 0, 0, 0],[9000000000.0, 9000000000.0, 9000000000.0, 9000000000.0, 9000000000.0, 9000000000.0]];
    CONST robtarget point_253_contact:=[[472,317,5],[0,0,1,0],[0, 0, 0, 0],[9000000000.0, 9000000000.0, 9000000000.0, 9000000000.0, 9000000000.0, 9000000000.0]];
    CONST robtarget point_253_clearance:=[[472,317,10],[0,0,1,0],[0, 0, 0, 0],[9000000000.0, 9000000000.0, 9000000000.0, 9000000000.0, 9000000000.0, 9000000000.0]];
    CONST robtarget point_254_clearance:=[[268,289,10],[0,0,1,0],[0, 0, 0, 0],[9000000000.0, 9000000000.0, 9000000000.0, 9000000000.0, 9000000000.0, 9000000000.0]];
    CONST robtarget point_254_contact:=[[268,289,5],[0,0,1,0],[0, 0, 0, 0],[9000000000.0, 9000000000.0, 9000000000.0, 9000000000.0, 9000000000.0, 9000000000.0]];
    CONST robtarget point_255_contact:=[[274,308,5],[0,0,1,0],[0, 0, 0, 0],[9000000000.0, 9000000000.0, 9000000000.0, 9000000000.0, 9000000000.0, 9000000000.0]];
    CONST robtarget point_255_clearance:=[[274,308,10],[0,0,1,0],[0, 0, 0, 0],[9000000000.0, 9000000000.0, 9000000000.0, 9000000000.0, 9000000000.0, 9000000000.0]];
    CONST robtarget point_256_clearance:=[[479,289,10],[0,0,1,0],[0, 0, 0, 0],[9000000000.0, 9000000000.0, 9000000000.0, 9000000000.0, 9000000000.0, 9000000000.0]];
    CONST robtarget point_256_contact:=[[479,289,5],[0,0,1,0],[0, 0, 0, 0],[9000000000.0, 9000000000.0, 9000000000.0, 9000000000.0, 9000000000.0, 9000000000.0]];
    CONST robtarget point_257_contact:=[[488,307,5],[0,0,1,0],[0, 0, 0, 0],[9000000000.0, 9000000000.0, 9000000000.0, 9000000000.0, 9000000000.0, 9000000000.0]];
    CONST robtarget point_257_clearance:=[[488,307,10],[0,0,1,0],[0, 0, 0, 0],[9000000000.0, 9000000000.0, 9000000000.0, 9000000000.0, 9000000000.0, 9000000000.0]];
    CONST robtarget point_258_clearance:=[[476,315,10],[0,0,1,0],[0, 0, 0, 0],[9000000000.0, 9000000000.0, 9000000000.0, 9000000000.0, 9000000000.0, 9000000000.0]];
    CONST robtarget point_258_contact:=[[476,315,5],[0,0,1,0],[0, 0, 0, 0],[9000000000.0, 9000000000.0, 9000000000.0, 9000000000.0, 9000000000.0, 9000000000.0]];
    CONST robtarget point_259_contact:=[[479,291,5],[0,0,1,0],[0, 0, 0, 0],[9000000000.0, 9000000000.0, 9000000000.0, 9000000000.0, 9000000000.0, 9000000000.0]];
    CONST robtarget point_259_clearance:=[[479,291,10],[0,0,1,0],[0, 0, 0, 0],[9000000000.0, 9000000000.0, 9000000000.0, 9000000000.0, 9000000000.0, 9000000000.0]];
    CONST robtarget point_260_clearance:=[[341,345,10],[0,0,1,0],[0, 0, 0, 0],[9000000000.0, 9000000000.0, 9000000000.0, 9000000000.0, 9000000000.0, 9000000000.0]];
    CONST robtarget point_260_contact:=[[341,345,5],[0,0,1,0],[0, 0, 0, 0],[9000000000.0, 9000000000.0, 9000000000.0, 9000000000.0, 9000000000.0, 9000000000.0]];
    CONST robtarget point_261_contact:=[[342,300,5],[0,0,1,0],[0, 0, 0, 0],[9000000000.0, 9000000000.0, 9000000000.0, 9000000000.0, 9000000000.0, 9000000000.0]];
    CONST robtarget point_261_clearance:=[[342,300,10],[0,0,1,0],[0, 0, 0, 0],[9000000000.0, 9000000000.0, 9000000000.0, 9000000000.0, 9000000000.0, 9000000000.0]];
    CONST robtarget point_262_clearance:=[[218,321,10],[0,0,1,0],[0, 0, 0, 0],[9000000000.0, 9000000000.0, 9000000000.0, 9000000000.0, 9000000000.0, 9000000000.0]];
    CONST robtarget point_262_contact:=[[218,321,5],[0,0,1,0],[0, 0, 0, 0],[9000000000.0, 9000000000.0, 9000000000.0, 9000000000.0, 9000000000.0, 9000000000.0]];
    CONST robtarget point_263_contact:=[[217,302,5],[0,0,1,0],[0, 0, 0, 0],[9000000000.0, 9000000000.0, 9000000000.0, 9000000000.0, 9000000000.0, 9000000000.0]];
    CONST robtarget point_263_clearance:=[[217,302,10],[0,0,1,0],[0, 0, 0, 0],[9000000000.0, 9000000000.0, 9000000000.0, 9000000000.0, 9000000000.0, 9000000000.0]];
    CONST robtarget point_264_clearance:=[[274,308,10],[0,0,1,0],[0, 0, 0, 0],[9000000000.0, 9000000000.0, 9000000000.0, 9000000000.0, 9000000000.0, 9000000000.0]];
    CONST robtarget point_264_contact:=[[274,308,5],[0,0,1,0],[0, 0, 0, 0],[9000000000.0, 9000000000.0, 9000000000.0, 9000000000.0, 9000000000.0, 9000000000.0]];
    CONST robtarget point_265_contact:=[[302,327,5],[0,0,1,0],[0, 0, 0, 0],[9000000000.0, 9000000000.0, 9000000000.0, 9000000000.0, 9000000000.0, 9000000000.0]];
    CONST robtarget point_265_clearance:=[[302,327,10],[0,0,1,0],[0, 0, 0, 0],[9000000000.0, 9000000000.0, 9000000000.0, 9000000000.0, 9000000000.0, 9000000000.0]];
    CONST robtarget point_266_clearance:=[[489,307,10],[0,0,1,0],[0, 0, 0, 0],[9000000000.0, 9000000000.0, 9000000000.0, 9000000000.0, 9000000000.0, 9000000000.0]];
    CONST robtarget point_266_contact:=[[489,307,5],[0,0,1,0],[0, 0, 0, 0],[9000000000.0, 9000000000.0, 9000000000.0, 9000000000.0, 9000000000.0, 9000000000.0]];
    CONST robtarget point_267_contact:=[[476,316,5],[0,0,1,0],[0, 0, 0, 0],[9000000000.0, 9000000000.0, 9000000000.0, 9000000000.0, 9000000000.0, 9000000000.0]];
    CONST robtarget point_267_clearance:=[[476,316,10],[0,0,1,0],[0, 0, 0, 0],[9000000000.0, 9000000000.0, 9000000000.0, 9000000000.0, 9000000000.0, 9000000000.0]];
    CONST robtarget point_268_clearance:=[[474,317,10],[0,0,1,0],[0, 0, 0, 0],[9000000000.0, 9000000000.0, 9000000000.0, 9000000000.0, 9000000000.0, 9000000000.0]];
    CONST robtarget point_268_contact:=[[474,317,5],[0,0,1,0],[0, 0, 0, 0],[9000000000.0, 9000000000.0, 9000000000.0, 9000000000.0, 9000000000.0, 9000000000.0]];
    CONST robtarget point_269_contact:=[[364,388,5],[0,0,1,0],[0, 0, 0, 0],[9000000000.0, 9000000000.0, 9000000000.0, 9000000000.0, 9000000000.0, 9000000000.0]];
    CONST robtarget point_269_clearance:=[[364,388,10],[0,0,1,0],[0, 0, 0, 0],[9000000000.0, 9000000000.0, 9000000000.0, 9000000000.0, 9000000000.0, 9000000000.0]];
    CONST robtarget point_270_clearance:=[[239,329,10],[0,0,1,0],[0, 0, 0, 0],[9000000000.0, 9000000000.0, 9000000000.0, 9000000000.0, 9000000000.0, 9000000000.0]];
    CONST robtarget point_270_contact:=[[239,329,5],[0,0,1,0],[0, 0, 0, 0],[9000000000.0, 9000000000.0, 9000000000.0, 9000000000.0, 9000000000.0, 9000000000.0]];
    CONST robtarget point_271_contact:=[[218,322,5],[0,0,1,0],[0, 0, 0, 0],[9000000000.0, 9000000000.0, 9000000000.0, 9000000000.0, 9000000000.0, 9000000000.0]];
    CONST robtarget point_271_clearance:=[[218,322,10],[0,0,1,0],[0, 0, 0, 0],[9000000000.0, 9000000000.0, 9000000000.0, 9000000000.0, 9000000000.0, 9000000000.0]];
    CONST robtarget point_272_clearance:=[[248,326,10],[0,0,1,0],[0, 0, 0, 0],[9000000000.0, 9000000000.0, 9000000000.0, 9000000000.0, 9000000000.0, 9000000000.0]];
    CONST robtarget point_272_contact:=[[248,326,5],[0,0,1,0],[0, 0, 0, 0],[9000000000.0, 9000000000.0, 9000000000.0, 9000000000.0, 9000000000.0, 9000000000.0]];
    CONST robtarget point_273_contact:=[[239,329,5],[0,0,1,0],[0, 0, 0, 0],[9000000000.0, 9000000000.0, 9000000000.0, 9000000000.0, 9000000000.0, 9000000000.0]];
    CONST robtarget point_273_clearance:=[[239,329,10],[0,0,1,0],[0, 0, 0, 0],[9000000000.0, 9000000000.0, 9000000000.0, 9000000000.0, 9000000000.0, 9000000000.0]];
    CONST robtarget point_274_clearance:=[[275,347,10],[0,0,1,0],[0, 0, 0, 0],[9000000000.0, 9000000000.0, 9000000000.0, 9000000000.0, 9000000000.0, 9000000000.0]];
    CONST robtarget point_274_contact:=[[275,347,5],[0,0,1,0],[0, 0, 0, 0],[9000000000.0, 9000000000.0, 9000000000.0, 9000000000.0, 9000000000.0, 9000000000.0]];
    CONST robtarget point_275_contact:=[[247,327,5],[0,0,1,0],[0, 0, 0, 0],[9000000000.0, 9000000000.0, 9000000000.0, 9000000000.0, 9000000000.0, 9000000000.0]];
    CONST robtarget point_275_clearance:=[[247,327,10],[0,0,1,0],[0, 0, 0, 0],[9000000000.0, 9000000000.0, 9000000000.0, 9000000000.0, 9000000000.0, 9000000000.0]];
    CONST robtarget point_276_clearance:=[[299,326,10],[0,0,1,0],[0, 0, 0, 0],[9000000000.0, 9000000000.0, 9000000000.0, 9000000000.0, 9000000000.0, 9000000000.0]];
    CONST robtarget point_276_contact:=[[299,326,5],[0,0,1,0],[0, 0, 0, 0],[9000000000.0, 9000000000.0, 9000000000.0, 9000000000.0, 9000000000.0, 9000000000.0]];
    CONST robtarget point_277_contact:=[[304,344,5],[0,0,1,0],[0, 0, 0, 0],[9000000000.0, 9000000000.0, 9000000000.0, 9000000000.0, 9000000000.0, 9000000000.0]];
    CONST robtarget point_277_clearance:=[[304,344,10],[0,0,1,0],[0, 0, 0, 0],[9000000000.0, 9000000000.0, 9000000000.0, 9000000000.0, 9000000000.0, 9000000000.0]];
    CONST robtarget point_278_clearance:=[[352,379,10],[0,0,1,0],[0, 0, 0, 0],[9000000000.0, 9000000000.0, 9000000000.0, 9000000000.0, 9000000000.0, 9000000000.0]];
    CONST robtarget point_278_contact:=[[352,379,5],[0,0,1,0],[0, 0, 0, 0],[9000000000.0, 9000000000.0, 9000000000.0, 9000000000.0, 9000000000.0, 9000000000.0]];
    CONST robtarget point_279_contact:=[[341,343,5],[0,0,1,0],[0, 0, 0, 0],[9000000000.0, 9000000000.0, 9000000000.0, 9000000000.0, 9000000000.0, 9000000000.0]];
    CONST robtarget point_279_clearance:=[[341,343,10],[0,0,1,0],[0, 0, 0, 0],[9000000000.0, 9000000000.0, 9000000000.0, 9000000000.0, 9000000000.0, 9000000000.0]];
    CONST robtarget point_280_clearance:=[[285,352,10],[0,0,1,0],[0, 0, 0, 0],[9000000000.0, 9000000000.0, 9000000000.0, 9000000000.0, 9000000000.0, 9000000000.0]];
    CONST robtarget point_280_contact:=[[285,352,5],[0,0,1,0],[0, 0, 0, 0],[9000000000.0, 9000000000.0, 9000000000.0, 9000000000.0, 9000000000.0, 9000000000.0]];
    CONST robtarget point_281_contact:=[[276,345,5],[0,0,1,0],[0, 0, 0, 0],[9000000000.0, 9000000000.0, 9000000000.0, 9000000000.0, 9000000000.0, 9000000000.0]];
    CONST robtarget point_281_clearance:=[[276,345,10],[0,0,1,0],[0, 0, 0, 0],[9000000000.0, 9000000000.0, 9000000000.0, 9000000000.0, 9000000000.0, 9000000000.0]];
    CONST robtarget point_282_clearance:=[[304,344,10],[0,0,1,0],[0, 0, 0, 0],[9000000000.0, 9000000000.0, 9000000000.0, 9000000000.0, 9000000000.0, 9000000000.0]];
    CONST robtarget point_282_contact:=[[304,344,5],[0,0,1,0],[0, 0, 0, 0],[9000000000.0, 9000000000.0, 9000000000.0, 9000000000.0, 9000000000.0, 9000000000.0]];
    CONST robtarget point_283_contact:=[[298,354,5],[0,0,1,0],[0, 0, 0, 0],[9000000000.0, 9000000000.0, 9000000000.0, 9000000000.0, 9000000000.0, 9000000000.0]];
    CONST robtarget point_283_clearance:=[[298,354,10],[0,0,1,0],[0, 0, 0, 0],[9000000000.0, 9000000000.0, 9000000000.0, 9000000000.0, 9000000000.0, 9000000000.0]];
    CONST robtarget point_284_clearance:=[[297,353,10],[0,0,1,0],[0, 0, 0, 0],[9000000000.0, 9000000000.0, 9000000000.0, 9000000000.0, 9000000000.0, 9000000000.0]];
    CONST robtarget point_284_contact:=[[297,353,5],[0,0,1,0],[0, 0, 0, 0],[9000000000.0, 9000000000.0, 9000000000.0, 9000000000.0, 9000000000.0, 9000000000.0]];
    CONST robtarget point_285_contact:=[[291,356,5],[0,0,1,0],[0, 0, 0, 0],[9000000000.0, 9000000000.0, 9000000000.0, 9000000000.0, 9000000000.0, 9000000000.0]];
    CONST robtarget point_285_clearance:=[[291,356,10],[0,0,1,0],[0, 0, 0, 0],[9000000000.0, 9000000000.0, 9000000000.0, 9000000000.0, 9000000000.0, 9000000000.0]];
    CONST robtarget point_286_clearance:=[[278,359,10],[0,0,1,0],[0, 0, 0, 0],[9000000000.0, 9000000000.0, 9000000000.0, 9000000000.0, 9000000000.0, 9000000000.0]];
    CONST robtarget point_286_contact:=[[278,359,5],[0,0,1,0],[0, 0, 0, 0],[9000000000.0, 9000000000.0, 9000000000.0, 9000000000.0, 9000000000.0, 9000000000.0]];
    CONST robtarget point_287_contact:=[[285,354,5],[0,0,1,0],[0, 0, 0, 0],[9000000000.0, 9000000000.0, 9000000000.0, 9000000000.0, 9000000000.0, 9000000000.0]];
    CONST robtarget point_287_clearance:=[[285,354,10],[0,0,1,0],[0, 0, 0, 0],[9000000000.0, 9000000000.0, 9000000000.0, 9000000000.0, 9000000000.0, 9000000000.0]];
    CONST robtarget point_288_clearance:=[[293,356,10],[0,0,1,0],[0, 0, 0, 0],[9000000000.0, 9000000000.0, 9000000000.0, 9000000000.0, 9000000000.0, 9000000000.0]];
    CONST robtarget point_288_contact:=[[293,356,5],[0,0,1,0],[0, 0, 0, 0],[9000000000.0, 9000000000.0, 9000000000.0, 9000000000.0, 9000000000.0, 9000000000.0]];
    CONST robtarget point_289_contact:=[[295,362,5],[0,0,1,0],[0, 0, 0, 0],[9000000000.0, 9000000000.0, 9000000000.0, 9000000000.0, 9000000000.0, 9000000000.0]];
    CONST robtarget point_289_clearance:=[[295,362,10],[0,0,1,0],[0, 0, 0, 0],[9000000000.0, 9000000000.0, 9000000000.0, 9000000000.0, 9000000000.0, 9000000000.0]];
    CONST robtarget point_290_clearance:=[[279,366,10],[0,0,1,0],[0, 0, 0, 0],[9000000000.0, 9000000000.0, 9000000000.0, 9000000000.0, 9000000000.0, 9000000000.0]];
    CONST robtarget point_290_contact:=[[279,366,5],[0,0,1,0],[0, 0, 0, 0],[9000000000.0, 9000000000.0, 9000000000.0, 9000000000.0, 9000000000.0, 9000000000.0]];
    CONST robtarget point_291_contact:=[[279,360,5],[0,0,1,0],[0, 0, 0, 0],[9000000000.0, 9000000000.0, 9000000000.0, 9000000000.0, 9000000000.0, 9000000000.0]];
    CONST robtarget point_291_clearance:=[[279,360,10],[0,0,1,0],[0, 0, 0, 0],[9000000000.0, 9000000000.0, 9000000000.0, 9000000000.0, 9000000000.0, 9000000000.0]];
    CONST robtarget point_292_clearance:=[[295,362,10],[0,0,1,0],[0, 0, 0, 0],[9000000000.0, 9000000000.0, 9000000000.0, 9000000000.0, 9000000000.0, 9000000000.0]];
    CONST robtarget point_292_contact:=[[295,362,5],[0,0,1,0],[0, 0, 0, 0],[9000000000.0, 9000000000.0, 9000000000.0, 9000000000.0, 9000000000.0, 9000000000.0]];
    CONST robtarget point_293_contact:=[[304,370,5],[0,0,1,0],[0, 0, 0, 0],[9000000000.0, 9000000000.0, 9000000000.0, 9000000000.0, 9000000000.0, 9000000000.0]];
    CONST robtarget point_293_clearance:=[[304,370,10],[0,0,1,0],[0, 0, 0, 0],[9000000000.0, 9000000000.0, 9000000000.0, 9000000000.0, 9000000000.0, 9000000000.0]];
    CONST robtarget point_294_clearance:=[[291,374,10],[0,0,1,0],[0, 0, 0, 0],[9000000000.0, 9000000000.0, 9000000000.0, 9000000000.0, 9000000000.0, 9000000000.0]];
    CONST robtarget point_294_contact:=[[291,374,5],[0,0,1,0],[0, 0, 0, 0],[9000000000.0, 9000000000.0, 9000000000.0, 9000000000.0, 9000000000.0, 9000000000.0]];
    CONST robtarget point_295_contact:=[[277,367,5],[0,0,1,0],[0, 0, 0, 0],[9000000000.0, 9000000000.0, 9000000000.0, 9000000000.0, 9000000000.0, 9000000000.0]];
    CONST robtarget point_295_clearance:=[[277,367,10],[0,0,1,0],[0, 0, 0, 0],[9000000000.0, 9000000000.0, 9000000000.0, 9000000000.0, 9000000000.0, 9000000000.0]];
    CONST robtarget point_296_clearance:=[[298,373,10],[0,0,1,0],[0, 0, 0, 0],[9000000000.0, 9000000000.0, 9000000000.0, 9000000000.0, 9000000000.0, 9000000000.0]];
    CONST robtarget point_296_contact:=[[298,373,5],[0,0,1,0],[0, 0, 0, 0],[9000000000.0, 9000000000.0, 9000000000.0, 9000000000.0, 9000000000.0, 9000000000.0]];
    CONST robtarget point_297_contact:=[[292,373,5],[0,0,1,0],[0, 0, 0, 0],[9000000000.0, 9000000000.0, 9000000000.0, 9000000000.0, 9000000000.0, 9000000000.0]];
    CONST robtarget point_297_clearance:=[[292,373,10],[0,0,1,0],[0, 0, 0, 0],[9000000000.0, 9000000000.0, 9000000000.0, 9000000000.0, 9000000000.0, 9000000000.0]];
    CONST robtarget point_298_clearance:=[[303,371,10],[0,0,1,0],[0, 0, 0, 0],[9000000000.0, 9000000000.0, 9000000000.0, 9000000000.0, 9000000000.0, 9000000000.0]];
    CONST robtarget point_298_contact:=[[303,371,5],[0,0,1,0],[0, 0, 0, 0],[9000000000.0, 9000000000.0, 9000000000.0, 9000000000.0, 9000000000.0, 9000000000.0]];
    CONST robtarget point_299_contact:=[[305,381,5],[0,0,1,0],[0, 0, 0, 0],[9000000000.0, 9000000000.0, 9000000000.0, 9000000000.0, 9000000000.0, 9000000000.0]];
    CONST robtarget point_299_clearance:=[[305,381,10],[0,0,1,0],[0, 0, 0, 0],[9000000000.0, 9000000000.0, 9000000000.0, 9000000000.0, 9000000000.0, 9000000000.0]];
    CONST robtarget point_300_clearance:=[[303,384,10],[0,0,1,0],[0, 0, 0, 0],[9000000000.0, 9000000000.0, 9000000000.0, 9000000000.0, 9000000000.0, 9000000000.0]];
    CONST robtarget point_300_contact:=[[303,384,5],[0,0,1,0],[0, 0, 0, 0],[9000000000.0, 9000000000.0, 9000000000.0, 9000000000.0, 9000000000.0, 9000000000.0]];
    CONST robtarget point_301_contact:=[[299,372,5],[0,0,1,0],[0, 0, 0, 0],[9000000000.0, 9000000000.0, 9000000000.0, 9000000000.0, 9000000000.0, 9000000000.0]];
    CONST robtarget point_301_clearance:=[[299,372,10],[0,0,1,0],[0, 0, 0, 0],[9000000000.0, 9000000000.0, 9000000000.0, 9000000000.0, 9000000000.0, 9000000000.0]];
    CONST robtarget point_302_clearance:=[[364,388,10],[0,0,1,0],[0, 0, 0, 0],[9000000000.0, 9000000000.0, 9000000000.0, 9000000000.0, 9000000000.0, 9000000000.0]];
    CONST robtarget point_302_contact:=[[364,388,5],[0,0,1,0],[0, 0, 0, 0],[9000000000.0, 9000000000.0, 9000000000.0, 9000000000.0, 9000000000.0, 9000000000.0]];
    CONST robtarget point_303_contact:=[[353,378,5],[0,0,1,0],[0, 0, 0, 0],[9000000000.0, 9000000000.0, 9000000000.0, 9000000000.0, 9000000000.0, 9000000000.0]];
    CONST robtarget point_303_clearance:=[[353,378,10],[0,0,1,0],[0, 0, 0, 0],[9000000000.0, 9000000000.0, 9000000000.0, 9000000000.0, 9000000000.0, 9000000000.0]];



    PROC main()
        Path_Draw
    ENDPROC
    LOCAL PROC Path_Draw()
        MoveL point_0_clearance,v1000,fine,MyTool\WObj:=Workobject_1;
        MoveL point_0_contact,v1000,fine,MyTool\WObj:=Workobject_1;
        MoveL point_1_contact,v1000,fine,MyTool\WObj:=Workobject_1;
        MoveL point_1_clearance,v1000,fine,MyTool\WObj:=Workobject_1;
        MoveL point_2_clearance,v1000,fine,MyTool\WObj:=Workobject_1;
        MoveL point_2_contact,v1000,fine,MyTool\WObj:=Workobject_1;
        MoveL point_3_contact,v1000,fine,MyTool\WObj:=Workobject_1;
        MoveL point_3_clearance,v1000,fine,MyTool\WObj:=Workobject_1;
        MoveL point_4_clearance,v1000,fine,MyTool\WObj:=Workobject_1;
        MoveL point_4_contact,v1000,fine,MyTool\WObj:=Workobject_1;
        MoveL point_5_contact,v1000,fine,MyTool\WObj:=Workobject_1;
        MoveL point_5_clearance,v1000,fine,MyTool\WObj:=Workobject_1;
