PROC main()
    MoveL [[0,0,10],[30,-30,30],[0, 0, 0, 0],[9000000000.0, 9000000000.0, 9000000000.0, 9000000000.0, 9000000000.0, 9000000000.0],  v1000, z0, tool0]
    MoveL [[188,21,10],[30,-30,30],[0, 0, 0, 0],[9000000000.0, 9000000000.0, 9000000000.0, 9000000000.0, 9000000000.0, 9000000000.0], v1000, z0, tool0]
    MoveL [[202,24,5],[30,-30,30],[0, 0, 0, 0],[9000000000.0, 9000000000.0, 9000000000.0, 9000000000.0, 9000000000.0, 9000000000.0],  v1000, z0, tool0]
    MoveL [[202,24,10],[30,-30,30],[0, 0, 0, 0],[9000000000.0, 9000000000.0, 9000000000.0, 9000000000.0, 9000000000.0, 9000000000.0], v1000, z0, tool0]
    MoveL [[162,29,10],[30,-30,30],[0, 0, 0, 0],[9000000000.0, 9000000000.0, 9000000000.0, 9000000000.0, 9000000000.0, 9000000000.0], v1000, z0, tool0]
    MoveL [[171,24,5],[30,-30,30],[0, 0, 0, 0],[9000000000.0, 9000000000.0, 9000000000.0, 9000000000.0, 9000000000.0, 9000000000.0],  v1000, z0, tool0]
    MoveL [[171,24,10],[30,-30,30],[0, 0, 0, 0],[9000000000.0, 9000000000.0, 9000000000.0, 9000000000.0, 9000000000.0, 9000000000.0], v1000, z0, tool0]
    MoveL [[187,23,10],[30,-30,30],[0, 0, 0, 0],[9000000000.0, 9000000000.0, 9000000000.0, 9000000000.0, 9000000000.0, 9000000000.0], v1000, z0, tool0]
    MoveL [[180,60,5],[30,-30,30],[0, 0, 0, 0],[9000000000.0, 9000000000.0, 9000000000.0, 9000000000.0, 9000000000.0, 9000000000.0],  v1000, z0, tool0]
    MoveL [[180,60,10],[30,-30,30],[0, 0, 0, 0],[9000000000.0, 9000000000.0, 9000000000.0, 9000000000.0, 9000000000.0, 9000000000.0], v1000, z0, tool0]
    MoveL [[202,23,10],[30,-30,30],[0, 0, 0, 0],[9000000000.0, 9000000000.0, 9000000000.0, 9000000000.0, 9000000000.0, 9000000000.0], v1000, z0, tool0]
    MoveL [[222,36,5],[30,-30,30],[0, 0, 0, 0],[9000000000.0, 9000000000.0, 9000000000.0, 9000000000.0, 9000000000.0, 9000000000.0],  v1000, z0, tool0]
    MoveL [[222,36,10],[30,-30,30],[0, 0, 0, 0],[9000000000.0, 9000000000.0, 9000000000.0, 9000000000.0, 9000000000.0, 9000000000.0], v1000, z0, tool0]
    MoveL [[281,25,10],[30,-30,30],[0, 0, 0, 0],[9000000000.0, 9000000000.0, 9000000000.0, 9000000000.0, 9000000000.0, 9000000000.0], v1000, z0, tool0]
    MoveL [[300,25,5],[30,-30,30],[0, 0, 0, 0],[9000000000.0, 9000000000.0, 9000000000.0, 9000000000.0, 9000000000.0, 9000000000.0],  v1000, z0, tool0]
    MoveL [[300,25,10],[30,-30,30],[0, 0, 0, 0],[9000000000.0, 9000000000.0, 9000000000.0, 9000000000.0, 9000000000.0, 9000000000.0], v1000, z0, tool0]
    MoveL [[182,23,10],[30,-30,30],[0, 0, 0, 0],[9000000000.0, 9000000000.0, 9000000000.0, 9000000000.0, 9000000000.0, 9000000000.0], v1000, z0, tool0]
    MoveL [[153,38,5],[30,-30,30],[0, 0, 0, 0],[9000000000.0, 9000000000.0, 9000000000.0, 9000000000.0, 9000000000.0, 9000000000.0],  v1000, z0, tool0]
    MoveL [[153,38,10],[30,-30,30],[0, 0, 0, 0],[9000000000.0, 9000000000.0, 9000000000.0, 9000000000.0, 9000000000.0, 9000000000.0], v1000, z0, tool0]
    MoveL [[190,25,10],[30,-30,30],[0, 0, 0, 0],[9000000000.0, 9000000000.0, 9000000000.0, 9000000000.0, 9000000000.0, 9000000000.0], v1000, z0, tool0]
    MoveL [[190,26,5],[30,-30,30],[0, 0, 0, 0],[9000000000.0, 9000000000.0, 9000000000.0, 9000000000.0, 9000000000.0, 9000000000.0],  v1000, z0, tool0]
    MoveL [[190,26,10],[30,-30,30],[0, 0, 0, 0],[9000000000.0, 9000000000.0, 9000000000.0, 9000000000.0, 9000000000.0, 9000000000.0], v1000, z0, tool0]
    MoveL [[207,30,10],[30,-30,30],[0, 0, 0, 0],[9000000000.0, 9000000000.0, 9000000000.0, 9000000000.0, 9000000000.0, 9000000000.0], v1000, z0, tool0]
    MoveL [[191,25,5],[30,-30,30],[0, 0, 0, 0],[9000000000.0, 9000000000.0, 9000000000.0, 9000000000.0, 9000000000.0, 9000000000.0],  v1000, z0, tool0]
    MoveL [[191,25,10],[30,-30,30],[0, 0, 0, 0],[9000000000.0, 9000000000.0, 9000000000.0, 9000000000.0, 9000000000.0, 9000000000.0], v1000, z0, tool0]
    MoveL [[300,25,10],[30,-30,30],[0, 0, 0, 0],[9000000000.0, 9000000000.0, 9000000000.0, 9000000000.0, 9000000000.0, 9000000000.0], v1000, z0, tool0]
    MoveL [[316,38,5],[30,-30,30],[0, 0, 0, 0],[9000000000.0, 9000000000.0, 9000000000.0, 9000000000.0, 9000000000.0, 9000000000.0],  v1000, z0, tool0]
    MoveL [[316,38,10],[30,-30,30],[0, 0, 0, 0],[9000000000.0, 9000000000.0, 9000000000.0, 9000000000.0, 9000000000.0, 9000000000.0], v1000, z0, tool0]
    MoveL [[177,58,10],[30,-30,30],[0, 0, 0, 0],[9000000000.0, 9000000000.0, 9000000000.0, 9000000000.0, 9000000000.0, 9000000000.0], v1000, z0, tool0]
    MoveL [[182,26,5],[30,-30,30],[0, 0, 0, 0],[9000000000.0, 9000000000.0, 9000000000.0, 9000000000.0, 9000000000.0, 9000000000.0],  v1000, z0, tool0]
    MoveL [[182,26,10],[30,-30,30],[0, 0, 0, 0],[9000000000.0, 9000000000.0, 9000000000.0, 9000000000.0, 9000000000.0, 9000000000.0], v1000, z0, tool0]
    MoveL [[276,26,10],[30,-30,30],[0, 0, 0, 0],[9000000000.0, 9000000000.0, 9000000000.0, 9000000000.0, 9000000000.0, 9000000000.0], v1000, z0, tool0]
    MoveL [[225,37,5],[30,-30,30],[0, 0, 0, 0],[9000000000.0, 9000000000.0, 9000000000.0, 9000000000.0, 9000000000.0, 9000000000.0],  v1000, z0, tool0]
    MoveL [[225,37,10],[30,-30,30],[0, 0, 0, 0],[9000000000.0, 9000000000.0, 9000000000.0, 9000000000.0, 9000000000.0, 9000000000.0], v1000, z0, tool0]
    MoveL [[260,36,10],[30,-30,30],[0, 0, 0, 0],[9000000000.0, 9000000000.0, 9000000000.0, 9000000000.0, 9000000000.0, 9000000000.0], v1000, z0, tool0]
    MoveL [[280,27,5],[30,-30,30],[0, 0, 0, 0],[9000000000.0, 9000000000.0, 9000000000.0, 9000000000.0, 9000000000.0, 9000000000.0],  v1000, z0, tool0]
    MoveL [[280,27,10],[30,-30,30],[0, 0, 0, 0],[9000000000.0, 9000000000.0, 9000000000.0, 9000000000.0, 9000000000.0, 9000000000.0], v1000, z0, tool0]
    MoveL [[305,26,10],[30,-30,30],[0, 0, 0, 0],[9000000000.0, 9000000000.0, 9000000000.0, 9000000000.0, 9000000000.0, 9000000000.0], v1000, z0, tool0]
    MoveL [[306,27,5],[30,-30,30],[0, 0, 0, 0],[9000000000.0, 9000000000.0, 9000000000.0, 9000000000.0, 9000000000.0, 9000000000.0],  v1000, z0, tool0]
    MoveL [[306,27,10],[30,-30,30],[0, 0, 0, 0],[9000000000.0, 9000000000.0, 9000000000.0, 9000000000.0, 9000000000.0, 9000000000.0], v1000, z0, tool0]
    MoveL [[353,37,10],[30,-30,30],[0, 0, 0, 0],[9000000000.0, 9000000000.0, 9000000000.0, 9000000000.0, 9000000000.0, 9000000000.0], v1000, z0, tool0]
    MoveL [[306,26,5],[30,-30,30],[0, 0, 0, 0],[9000000000.0, 9000000000.0, 9000000000.0, 9000000000.0, 9000000000.0, 9000000000.0],  v1000, z0, tool0]
    MoveL [[306,26,10],[30,-30,30],[0, 0, 0, 0],[9000000000.0, 9000000000.0, 9000000000.0, 9000000000.0, 9000000000.0, 9000000000.0], v1000, z0, tool0]
    MoveL [[142,49,10],[30,-30,30],[0, 0, 0, 0],[9000000000.0, 9000000000.0, 9000000000.0, 9000000000.0, 9000000000.0, 9000000000.0], v1000, z0, tool0]
    MoveL [[161,27,5],[30,-30,30],[0, 0, 0, 0],[9000000000.0, 9000000000.0, 9000000000.0, 9000000000.0, 9000000000.0, 9000000000.0],  v1000, z0, tool0]
    MoveL [[161,27,10],[30,-30,30],[0, 0, 0, 0],[9000000000.0, 9000000000.0, 9000000000.0, 9000000000.0, 9000000000.0, 9000000000.0], v1000, z0, tool0]
    MoveL [[218,38,10],[30,-30,30],[0, 0, 0, 0],[9000000000.0, 9000000000.0, 9000000000.0, 9000000000.0, 9000000000.0, 9000000000.0], v1000, z0, tool0]
    MoveL [[204,28,5],[30,-30,30],[0, 0, 0, 0],[9000000000.0, 9000000000.0, 9000000000.0, 9000000000.0, 9000000000.0, 9000000000.0],  v1000, z0, tool0]
    MoveL [[204,28,10],[30,-30,30],[0, 0, 0, 0],[9000000000.0, 9000000000.0, 9000000000.0, 9000000000.0, 9000000000.0, 9000000000.0], v1000, z0, tool0]
    MoveL [[291,27,10],[30,-30,30],[0, 0, 0, 0],[9000000000.0, 9000000000.0, 9000000000.0, 9000000000.0, 9000000000.0, 9000000000.0], v1000, z0, tool0]
    MoveL [[268,34,5],[30,-30,30],[0, 0, 0, 0],[9000000000.0, 9000000000.0, 9000000000.0, 9000000000.0, 9000000000.0, 9000000000.0],  v1000, z0, tool0]
    MoveL [[268,34,10],[30,-30,30],[0, 0, 0, 0],[9000000000.0, 9000000000.0, 9000000000.0, 9000000000.0, 9000000000.0, 9000000000.0], v1000, z0, tool0]
    MoveL [[305,32,10],[30,-30,30],[0, 0, 0, 0],[9000000000.0, 9000000000.0, 9000000000.0, 9000000000.0, 9000000000.0, 9000000000.0], v1000, z0, tool0]
    MoveL [[292,28,5],[30,-30,30],[0, 0, 0, 0],[9000000000.0, 9000000000.0, 9000000000.0, 9000000000.0, 9000000000.0, 9000000000.0],  v1000, z0, tool0]
    MoveL [[292,28,10],[30,-30,30],[0, 0, 0, 0],[9000000000.0, 9000000000.0, 9000000000.0, 9000000000.0, 9000000000.0, 9000000000.0], v1000, z0, tool0]
    MoveL [[314,34,10],[30,-30,30],[0, 0, 0, 0],[9000000000.0, 9000000000.0, 9000000000.0, 9000000000.0, 9000000000.0, 9000000000.0], v1000, z0, tool0]
    MoveL [[354,44,5],[30,-30,30],[0, 0, 0, 0],[9000000000.0, 9000000000.0, 9000000000.0, 9000000000.0, 9000000000.0, 9000000000.0],  v1000, z0, tool0]
    MoveL [[354,44,10],[30,-30,30],[0, 0, 0, 0],[9000000000.0, 9000000000.0, 9000000000.0, 9000000000.0, 9000000000.0, 9000000000.0], v1000, z0, tool0]
    MoveL [[228,43,10],[30,-30,30],[0, 0, 0, 0],[9000000000.0, 9000000000.0, 9000000000.0, 9000000000.0, 9000000000.0, 9000000000.0], v1000, z0, tool0]
    MoveL [[259,35,5],[30,-30,30],[0, 0, 0, 0],[9000000000.0, 9000000000.0, 9000000000.0, 9000000000.0, 9000000000.0, 9000000000.0],  v1000, z0, tool0]
    MoveL [[259,35,10],[30,-30,30],[0, 0, 0, 0],[9000000000.0, 9000000000.0, 9000000000.0, 9000000000.0, 9000000000.0, 9000000000.0], v1000, z0, tool0]
    MoveL [[270,33,10],[30,-30,30],[0, 0, 0, 0],[9000000000.0, 9000000000.0, 9000000000.0, 9000000000.0, 9000000000.0, 9000000000.0], v1000, z0, tool0]
    MoveL [[253,47,5],[30,-30,30],[0, 0, 0, 0],[9000000000.0, 9000000000.0, 9000000000.0, 9000000000.0, 9000000000.0, 9000000000.0],  v1000, z0, tool0]
    MoveL [[253,47,10],[30,-30,30],[0, 0, 0, 0],[9000000000.0, 9000000000.0, 9000000000.0, 9000000000.0, 9000000000.0, 9000000000.0], v1000, z0, tool0]
    MoveL [[273,51,10],[30,-30,30],[0, 0, 0, 0],[9000000000.0, 9000000000.0, 9000000000.0, 9000000000.0, 9000000000.0, 9000000000.0], v1000, z0, tool0]
    MoveL [[304,35,5],[30,-30,30],[0, 0, 0, 0],[9000000000.0, 9000000000.0, 9000000000.0, 9000000000.0, 9000000000.0, 9000000000.0],  v1000, z0, tool0]
    MoveL [[304,35,10],[30,-30,30],[0, 0, 0, 0],[9000000000.0, 9000000000.0, 9000000000.0, 9000000000.0, 9000000000.0, 9000000000.0], v1000, z0, tool0]
    MoveL [[391,55,10],[30,-30,30],[0, 0, 0, 0],[9000000000.0, 9000000000.0, 9000000000.0, 9000000000.0, 9000000000.0, 9000000000.0], v1000, z0, tool0]
    MoveL [[354,37,5],[30,-30,30],[0, 0, 0, 0],[9000000000.0, 9000000000.0, 9000000000.0, 9000000000.0, 9000000000.0, 9000000000.0],  v1000, z0, tool0]
    MoveL [[354,37,10],[30,-30,30],[0, 0, 0, 0],[9000000000.0, 9000000000.0, 9000000000.0, 9000000000.0, 9000000000.0, 9000000000.0], v1000, z0, tool0]
    MoveL [[222,37,10],[30,-30,30],[0, 0, 0, 0],[9000000000.0, 9000000000.0, 9000000000.0, 9000000000.0, 9000000000.0, 9000000000.0], v1000, z0, tool0]
    MoveL [[231,51,5],[30,-30,30],[0, 0, 0, 0],[9000000000.0, 9000000000.0, 9000000000.0, 9000000000.0, 9000000000.0, 9000000000.0],  v1000, z0, tool0]
    MoveL [[231,51,10],[30,-30,30],[0, 0, 0, 0],[9000000000.0, 9000000000.0, 9000000000.0, 9000000000.0, 9000000000.0, 9000000000.0], v1000, z0, tool0]
    MoveL [[231,62,10],[30,-30,30],[0, 0, 0, 0],[9000000000.0, 9000000000.0, 9000000000.0, 9000000000.0, 9000000000.0, 9000000000.0], v1000, z0, tool0]
    MoveL [[219,37,5],[30,-30,30],[0, 0, 0, 0],[9000000000.0, 9000000000.0, 9000000000.0, 9000000000.0, 9000000000.0, 9000000000.0],  v1000, z0, tool0]
    MoveL [[219,37,10],[30,-30,30],[0, 0, 0, 0],[9000000000.0, 9000000000.0, 9000000000.0, 9000000000.0, 9000000000.0, 9000000000.0], v1000, z0, tool0]
    MoveL [[249,53,10],[30,-30,30],[0, 0, 0, 0],[9000000000.0, 9000000000.0, 9000000000.0, 9000000000.0, 9000000000.0, 9000000000.0], v1000, z0, tool0]
    MoveL [[257,38,5],[30,-30,30],[0, 0, 0, 0],[9000000000.0, 9000000000.0, 9000000000.0, 9000000000.0, 9000000000.0, 9000000000.0],  v1000, z0, tool0]
    MoveL [[257,38,10],[30,-30,30],[0, 0, 0, 0],[9000000000.0, 9000000000.0, 9000000000.0, 9000000000.0, 9000000000.0, 9000000000.0], v1000, z0, tool0]
    MoveL [[305,39,10],[30,-30,30],[0, 0, 0, 0],[9000000000.0, 9000000000.0, 9000000000.0, 9000000000.0, 9000000000.0, 9000000000.0], v1000, z0, tool0]
    MoveL [[281,49,5],[30,-30,30],[0, 0, 0, 0],[9000000000.0, 9000000000.0, 9000000000.0, 9000000000.0, 9000000000.0, 9000000000.0],  v1000, z0, tool0]
    MoveL [[281,49,10],[30,-30,30],[0, 0, 0, 0],[9000000000.0, 9000000000.0, 9000000000.0, 9000000000.0, 9000000000.0, 9000000000.0], v1000, z0, tool0]
    MoveL [[313,52,10],[30,-30,30],[0, 0, 0, 0],[9000000000.0, 9000000000.0, 9000000000.0, 9000000000.0, 9000000000.0, 9000000000.0], v1000, z0, tool0]
    MoveL [[309,38,5],[30,-30,30],[0, 0, 0, 0],[9000000000.0, 9000000000.0, 9000000000.0, 9000000000.0, 9000000000.0, 9000000000.0],  v1000, z0, tool0]
    MoveL [[309,38,10],[30,-30,30],[0, 0, 0, 0],[9000000000.0, 9000000000.0, 9000000000.0, 9000000000.0, 9000000000.0, 9000000000.0], v1000, z0, tool0]
    MoveL [[314,38,10],[30,-30,30],[0, 0, 0, 0],[9000000000.0, 9000000000.0, 9000000000.0, 9000000000.0, 9000000000.0, 9000000000.0], v1000, z0, tool0]
    MoveL [[318,53,5],[30,-30,30],[0, 0, 0, 0],[9000000000.0, 9000000000.0, 9000000000.0, 9000000000.0, 9000000000.0, 9000000000.0],  v1000, z0, tool0]
    MoveL [[318,53,10],[30,-30,30],[0, 0, 0, 0],[9000000000.0, 9000000000.0, 9000000000.0, 9000000000.0, 9000000000.0, 9000000000.0], v1000, z0, tool0]
    MoveL [[153,42,10],[30,-30,30],[0, 0, 0, 0],[9000000000.0, 9000000000.0, 9000000000.0, 9000000000.0, 9000000000.0, 9000000000.0], v1000, z0, tool0]
    MoveL [[171,54,5],[30,-30,30],[0, 0, 0, 0],[9000000000.0, 9000000000.0, 9000000000.0, 9000000000.0, 9000000000.0, 9000000000.0],  v1000, z0, tool0]
    MoveL [[171,54,10],[30,-30,30],[0, 0, 0, 0],[9000000000.0, 9000000000.0, 9000000000.0, 9000000000.0, 9000000000.0, 9000000000.0], v1000, z0, tool0]
    MoveL [[300,45,10],[30,-30,30],[0, 0, 0, 0],[9000000000.0, 9000000000.0, 9000000000.0, 9000000000.0, 9000000000.0, 9000000000.0], v1000, z0, tool0]
    MoveL [[308,42,5],[30,-30,30],[0, 0, 0, 0],[9000000000.0, 9000000000.0, 9000000000.0, 9000000000.0, 9000000000.0, 9000000000.0],  v1000, z0, tool0]
    MoveL [[308,42,10],[30,-30,30],[0, 0, 0, 0],[9000000000.0, 9000000000.0, 9000000000.0, 9000000000.0, 9000000000.0, 9000000000.0], v1000, z0, tool0]
    MoveL [[353,43,10],[30,-30,30],[0, 0, 0, 0],[9000000000.0, 9000000000.0, 9000000000.0, 9000000000.0, 9000000000.0, 9000000000.0], v1000, z0, tool0]
    MoveL [[393,65,5],[30,-30,30],[0, 0, 0, 0],[9000000000.0, 9000000000.0, 9000000000.0, 9000000000.0, 9000000000.0, 9000000000.0],  v1000, z0, tool0]
    MoveL [[393,65,10],[30,-30,30],[0, 0, 0, 0],[9000000000.0, 9000000000.0, 9000000000.0, 9000000000.0, 9000000000.0, 9000000000.0], v1000, z0, tool0]
    MoveL [[196,72,10],[30,-30,30],[0, 0, 0, 0],[9000000000.0, 9000000000.0, 9000000000.0, 9000000000.0, 9000000000.0, 9000000000.0], v1000, z0, tool0]
    MoveL [[214,45,5],[30,-30,30],[0, 0, 0, 0],[9000000000.0, 9000000000.0, 9000000000.0, 9000000000.0, 9000000000.0, 9000000000.0],  v1000, z0, tool0]
    MoveL [[214,45,10],[30,-30,30],[0, 0, 0, 0],[9000000000.0, 9000000000.0, 9000000000.0, 9000000000.0, 9000000000.0, 9000000000.0], v1000, z0, tool0]
    MoveL [[320,52,10],[30,-30,30],[0, 0, 0, 0],[9000000000.0, 9000000000.0, 9000000000.0, 9000000000.0, 9000000000.0, 9000000000.0], v1000, z0, tool0]
    MoveL [[331,44,5],[30,-30,30],[0, 0, 0, 0],[9000000000.0, 9000000000.0, 9000000000.0, 9000000000.0, 9000000000.0, 9000000000.0],  v1000, z0, tool0]
    MoveL [[331,44,10],[30,-30,30],[0, 0, 0, 0],[9000000000.0, 9000000000.0, 9000000000.0, 9000000000.0, 9000000000.0, 9000000000.0], v1000, z0, tool0]
    MoveL [[161,51,10],[30,-30,30],[0, 0, 0, 0],[9000000000.0, 9000000000.0, 9000000000.0, 9000000000.0, 9000000000.0, 9000000000.0], v1000, z0, tool0]
    MoveL [[150,46,5],[30,-30,30],[0, 0, 0, 0],[9000000000.0, 9000000000.0, 9000000000.0, 9000000000.0, 9000000000.0, 9000000000.0],  v1000, z0, tool0]
    MoveL [[150,46,10],[30,-30,30],[0, 0, 0, 0],[9000000000.0, 9000000000.0, 9000000000.0, 9000000000.0, 9000000000.0, 9000000000.0], v1000, z0, tool0]
    MoveL [[216,46,10],[30,-30,30],[0, 0, 0, 0],[9000000000.0, 9000000000.0, 9000000000.0, 9000000000.0, 9000000000.0, 9000000000.0], v1000, z0, tool0]
    MoveL [[198,76,5],[30,-30,30],[0, 0, 0, 0],[9000000000.0, 9000000000.0, 9000000000.0, 9000000000.0, 9000000000.0, 9000000000.0],  v1000, z0, tool0]
    MoveL [[198,76,10],[30,-30,30],[0, 0, 0, 0],[9000000000.0, 9000000000.0, 9000000000.0, 9000000000.0, 9000000000.0, 9000000000.0], v1000, z0, tool0]
    MoveL [[147,47,10],[30,-30,30],[0, 0, 0, 0],[9000000000.0, 9000000000.0, 9000000000.0, 9000000000.0, 9000000000.0, 9000000000.0], v1000, z0, tool0]
    MoveL [[142,72,5],[30,-30,30],[0, 0, 0, 0],[9000000000.0, 9000000000.0, 9000000000.0, 9000000000.0, 9000000000.0, 9000000000.0],  v1000, z0, tool0]
    MoveL [[142,72,10],[30,-30,30],[0, 0, 0, 0],[9000000000.0, 9000000000.0, 9000000000.0, 9000000000.0, 9000000000.0, 9000000000.0], v1000, z0, tool0]
    MoveL [[304,53,10],[30,-30,30],[0, 0, 0, 0],[9000000000.0, 9000000000.0, 9000000000.0, 9000000000.0, 9000000000.0, 9000000000.0], v1000, z0, tool0]
    MoveL [[301,46,5],[30,-30,30],[0, 0, 0, 0],[9000000000.0, 9000000000.0, 9000000000.0, 9000000000.0, 9000000000.0, 9000000000.0],  v1000, z0, tool0]
    MoveL [[301,46,10],[30,-30,30],[0, 0, 0, 0],[9000000000.0, 9000000000.0, 9000000000.0, 9000000000.0, 9000000000.0, 9000000000.0], v1000, z0, tool0]
    MoveL [[331,48,10],[30,-30,30],[0, 0, 0, 0],[9000000000.0, 9000000000.0, 9000000000.0, 9000000000.0, 9000000000.0, 9000000000.0], v1000, z0, tool0]
    MoveL [[321,56,5],[30,-30,30],[0, 0, 0, 0],[9000000000.0, 9000000000.0, 9000000000.0, 9000000000.0, 9000000000.0, 9000000000.0],  v1000, z0, tool0]
    MoveL [[321,56,10],[30,-30,30],[0, 0, 0, 0],[9000000000.0, 9000000000.0, 9000000000.0, 9000000000.0, 9000000000.0, 9000000000.0], v1000, z0, tool0]
    MoveL [[253,48,10],[30,-30,30],[0, 0, 0, 0],[9000000000.0, 9000000000.0, 9000000000.0, 9000000000.0, 9000000000.0, 9000000000.0], v1000, z0, tool0]
    MoveL [[253,66,5],[30,-30,30],[0, 0, 0, 0],[9000000000.0, 9000000000.0, 9000000000.0, 9000000000.0, 9000000000.0, 9000000000.0],  v1000, z0, tool0]
    MoveL [[253,66,10],[30,-30,30],[0, 0, 0, 0],[9000000000.0, 9000000000.0, 9000000000.0, 9000000000.0, 9000000000.0, 9000000000.0], v1000, z0, tool0]
    MoveL [[139,63,10],[30,-30,30],[0, 0, 0, 0],[9000000000.0, 9000000000.0, 9000000000.0, 9000000000.0, 9000000000.0, 9000000000.0], v1000, z0, tool0]
    MoveL [[143,49,5],[30,-30,30],[0, 0, 0, 0],[9000000000.0, 9000000000.0, 9000000000.0, 9000000000.0, 9000000000.0, 9000000000.0],  v1000, z0, tool0]
    MoveL [[143,49,10],[30,-30,30],[0, 0, 0, 0],[9000000000.0, 9000000000.0, 9000000000.0, 9000000000.0, 9000000000.0, 9000000000.0], v1000, z0, tool0]
    MoveL [[255,67,10],[30,-30,30],[0, 0, 0, 0],[9000000000.0, 9000000000.0, 9000000000.0, 9000000000.0, 9000000000.0, 9000000000.0], v1000, z0, tool0]
    MoveL [[274,50,5],[30,-30,30],[0, 0, 0, 0],[9000000000.0, 9000000000.0, 9000000000.0, 9000000000.0, 9000000000.0, 9000000000.0],  v1000, z0, tool0]
    MoveL [[274,50,10],[30,-30,30],[0, 0, 0, 0],[9000000000.0, 9000000000.0, 9000000000.0, 9000000000.0, 9000000000.0, 9000000000.0], v1000, z0, tool0]
    MoveL [[175,64,10],[30,-30,30],[0, 0, 0, 0],[9000000000.0, 9000000000.0, 9000000000.0, 9000000000.0, 9000000000.0, 9000000000.0], v1000, z0, tool0]
    MoveL [[161,51,5],[30,-30,30],[0, 0, 0, 0],[9000000000.0, 9000000000.0, 9000000000.0, 9000000000.0, 9000000000.0, 9000000000.0],  v1000, z0, tool0]
    MoveL [[161,51,10],[30,-30,30],[0, 0, 0, 0],[9000000000.0, 9000000000.0, 9000000000.0, 9000000000.0, 9000000000.0, 9000000000.0], v1000, z0, tool0]
    MoveL [[279,51,10],[30,-30,30],[0, 0, 0, 0],[9000000000.0, 9000000000.0, 9000000000.0, 9000000000.0, 9000000000.0, 9000000000.0], v1000, z0, tool0]
    MoveL [[266,60,5],[30,-30,30],[0, 0, 0, 0],[9000000000.0, 9000000000.0, 9000000000.0, 9000000000.0, 9000000000.0, 9000000000.0],  v1000, z0, tool0]
    MoveL [[266,60,10],[30,-30,30],[0, 0, 0, 0],[9000000000.0, 9000000000.0, 9000000000.0, 9000000000.0, 9000000000.0, 9000000000.0], v1000, z0, tool0]
    MoveL [[297,67,10],[30,-30,30],[0, 0, 0, 0],[9000000000.0, 9000000000.0, 9000000000.0, 9000000000.0, 9000000000.0, 9000000000.0], v1000, z0, tool0]
    MoveL [[336,52,5],[30,-30,30],[0, 0, 0, 0],[9000000000.0, 9000000000.0, 9000000000.0, 9000000000.0, 9000000000.0, 9000000000.0],  v1000, z0, tool0]
    MoveL [[336,52,10],[30,-30,30],[0, 0, 0, 0],[9000000000.0, 9000000000.0, 9000000000.0, 9000000000.0, 9000000000.0, 9000000000.0], v1000, z0, tool0]
    MoveL [[339,51,10],[30,-30,30],[0, 0, 0, 0],[9000000000.0, 9000000000.0, 9000000000.0, 9000000000.0, 9000000000.0, 9000000000.0], v1000, z0, tool0]
    MoveL [[324,61,5],[30,-30,30],[0, 0, 0, 0],[9000000000.0, 9000000000.0, 9000000000.0, 9000000000.0, 9000000000.0, 9000000000.0],  v1000, z0, tool0]
    MoveL [[324,61,10],[30,-30,30],[0, 0, 0, 0],[9000000000.0, 9000000000.0, 9000000000.0, 9000000000.0, 9000000000.0, 9000000000.0], v1000, z0, tool0]
    MoveL [[231,52,10],[30,-30,30],[0, 0, 0, 0],[9000000000.0, 9000000000.0, 9000000000.0, 9000000000.0, 9000000000.0, 9000000000.0], v1000, z0, tool0]
    MoveL [[233,59,5],[30,-30,30],[0, 0, 0, 0],[9000000000.0, 9000000000.0, 9000000000.0, 9000000000.0, 9000000000.0, 9000000000.0],  v1000, z0, tool0]
    MoveL [[233,59,10],[30,-30,30],[0, 0, 0, 0],[9000000000.0, 9000000000.0, 9000000000.0, 9000000000.0, 9000000000.0, 9000000000.0], v1000, z0, tool0]
    MoveL [[324,53,10],[30,-30,30],[0, 0, 0, 0],[9000000000.0, 9000000000.0, 9000000000.0, 9000000000.0, 9000000000.0, 9000000000.0], v1000, z0, tool0]
    MoveL [[284,68,5],[30,-30,30],[0, 0, 0, 0],[9000000000.0, 9000000000.0, 9000000000.0, 9000000000.0, 9000000000.0, 9000000000.0],  v1000, z0, tool0]
    MoveL [[284,68,10],[30,-30,30],[0, 0, 0, 0],[9000000000.0, 9000000000.0, 9000000000.0, 9000000000.0, 9000000000.0, 9000000000.0], v1000, z0, tool0]
    MoveL [[171,54,10],[30,-30,30],[0, 0, 0, 0],[9000000000.0, 9000000000.0, 9000000000.0, 9000000000.0, 9000000000.0, 9000000000.0], v1000, z0, tool0]
    MoveL [[175,60,5],[30,-30,30],[0, 0, 0, 0],[9000000000.0, 9000000000.0, 9000000000.0, 9000000000.0, 9000000000.0, 9000000000.0],  v1000, z0, tool0]
    MoveL [[175,60,10],[30,-30,30],[0, 0, 0, 0],[9000000000.0, 9000000000.0, 9000000000.0, 9000000000.0, 9000000000.0, 9000000000.0], v1000, z0, tool0]
    MoveL [[249,58,10],[30,-30,30],[0, 0, 0, 0],[9000000000.0, 9000000000.0, 9000000000.0, 9000000000.0, 9000000000.0, 9000000000.0], v1000, z0, tool0]
    MoveL [[249,53,5],[30,-30,30],[0, 0, 0, 0],[9000000000.0, 9000000000.0, 9000000000.0, 9000000000.0, 9000000000.0, 9000000000.0],  v1000, z0, tool0]
    MoveL [[249,53,10],[30,-30,30],[0, 0, 0, 0],[9000000000.0, 9000000000.0, 9000000000.0, 9000000000.0, 9000000000.0, 9000000000.0], v1000, z0, tool0]
    MoveL [[292,61,10],[30,-30,30],[0, 0, 0, 0],[9000000000.0, 9000000000.0, 9000000000.0, 9000000000.0, 9000000000.0, 9000000000.0], v1000, z0, tool0]
    MoveL [[312,54,5],[30,-30,30],[0, 0, 0, 0],[9000000000.0, 9000000000.0, 9000000000.0, 9000000000.0, 9000000000.0, 9000000000.0],  v1000, z0, tool0]
    MoveL [[312,54,10],[30,-30,30],[0, 0, 0, 0],[9000000000.0, 9000000000.0, 9000000000.0, 9000000000.0, 9000000000.0, 9000000000.0], v1000, z0, tool0]
    MoveL [[415,74,10],[30,-30,30],[0, 0, 0, 0],[9000000000.0, 9000000000.0, 9000000000.0, 9000000000.0, 9000000000.0, 9000000000.0], v1000, z0, tool0]
    MoveL [[389,54,5],[30,-30,30],[0, 0, 0, 0],[9000000000.0, 9000000000.0, 9000000000.0, 9000000000.0, 9000000000.0, 9000000000.0],  v1000, z0, tool0]
    MoveL [[389,54,10],[30,-30,30],[0, 0, 0, 0],[9000000000.0, 9000000000.0, 9000000000.0, 9000000000.0, 9000000000.0, 9000000000.0], v1000, z0, tool0]
    MoveL [[283,64,10],[30,-30,30],[0, 0, 0, 0],[9000000000.0, 9000000000.0, 9000000000.0, 9000000000.0, 9000000000.0, 9000000000.0], v1000, z0, tool0]
    MoveL [[277,58,5],[30,-30,30],[0, 0, 0, 0],[9000000000.0, 9000000000.0, 9000000000.0, 9000000000.0, 9000000000.0, 9000000000.0],  v1000, z0, tool0]
    MoveL [[277,58,10],[30,-30,30],[0, 0, 0, 0],[9000000000.0, 9000000000.0, 9000000000.0, 9000000000.0, 9000000000.0, 9000000000.0], v1000, z0, tool0]
    MoveL [[233,60,10],[30,-30,30],[0, 0, 0, 0],[9000000000.0, 9000000000.0, 9000000000.0, 9000000000.0, 9000000000.0, 9000000000.0], v1000, z0, tool0]
    MoveL [[233,67,5],[30,-30,30],[0, 0, 0, 0],[9000000000.0, 9000000000.0, 9000000000.0, 9000000000.0, 9000000000.0, 9000000000.0],  v1000, z0, tool0]
    MoveL [[233,67,10],[30,-30,30],[0, 0, 0, 0],[9000000000.0, 9000000000.0, 9000000000.0, 9000000000.0, 9000000000.0, 9000000000.0], v1000, z0, tool0]
    MoveL [[256,80,10],[30,-30,30],[0, 0, 0, 0],[9000000000.0, 9000000000.0, 9000000000.0, 9000000000.0, 9000000000.0, 9000000000.0], v1000, z0, tool0]
    MoveL [[248,60,5],[30,-30,30],[0, 0, 0, 0],[9000000000.0, 9000000000.0, 9000000000.0, 9000000000.0, 9000000000.0, 9000000000.0],  v1000, z0, tool0]
    MoveL [[248,60,10],[30,-30,30],[0, 0, 0, 0],[9000000000.0, 9000000000.0, 9000000000.0, 9000000000.0, 9000000000.0, 9000000000.0], v1000, z0, tool0]
    MoveL [[180,61,10],[30,-30,30],[0, 0, 0, 0],[9000000000.0, 9000000000.0, 9000000000.0, 9000000000.0, 9000000000.0, 9000000000.0], v1000, z0, tool0]
    MoveL [[177,68,5],[30,-30,30],[0, 0, 0, 0],[9000000000.0, 9000000000.0, 9000000000.0, 9000000000.0, 9000000000.0, 9000000000.0],  v1000, z0, tool0]
    MoveL [[177,68,10],[30,-30,30],[0, 0, 0, 0],[9000000000.0, 9000000000.0, 9000000000.0, 9000000000.0, 9000000000.0, 9000000000.0], v1000, z0, tool0]
    MoveL [[271,76,10],[30,-30,30],[0, 0, 0, 0],[9000000000.0, 9000000000.0, 9000000000.0, 9000000000.0, 9000000000.0, 9000000000.0], v1000, z0, tool0]
    MoveL [[291,61,5],[30,-30,30],[0, 0, 0, 0],[9000000000.0, 9000000000.0, 9000000000.0, 9000000000.0, 9000000000.0, 9000000000.0],  v1000, z0, tool0]
    MoveL [[291,61,10],[30,-30,30],[0, 0, 0, 0],[9000000000.0, 9000000000.0, 9000000000.0, 9000000000.0, 9000000000.0, 9000000000.0], v1000, z0, tool0]
    MoveL [[264,63,10],[30,-30,30],[0, 0, 0, 0],[9000000000.0, 9000000000.0, 9000000000.0, 9000000000.0, 9000000000.0, 9000000000.0], v1000, z0, tool0]
    MoveL [[257,70,5],[30,-30,30],[0, 0, 0, 0],[9000000000.0, 9000000000.0, 9000000000.0, 9000000000.0, 9000000000.0, 9000000000.0],  v1000, z0, tool0]
    MoveL [[257,70,10],[30,-30,30],[0, 0, 0, 0],[9000000000.0, 9000000000.0, 9000000000.0, 9000000000.0, 9000000000.0, 9000000000.0], v1000, z0, tool0]
    MoveL [[274,62,10],[30,-30,30],[0, 0, 0, 0],[9000000000.0, 9000000000.0, 9000000000.0, 9000000000.0, 9000000000.0, 9000000000.0], v1000, z0, tool0]
    MoveL [[278,67,5],[30,-30,30],[0, 0, 0, 0],[9000000000.0, 9000000000.0, 9000000000.0, 9000000000.0, 9000000000.0, 9000000000.0],  v1000, z0, tool0]
    MoveL [[278,67,10],[30,-30,30],[0, 0, 0, 0],[9000000000.0, 9000000000.0, 9000000000.0, 9000000000.0, 9000000000.0, 9000000000.0], v1000, z0, tool0]
    MoveL [[324,61,10],[30,-30,30],[0, 0, 0, 0],[9000000000.0, 9000000000.0, 9000000000.0, 9000000000.0, 9000000000.0, 9000000000.0], v1000, z0, tool0]
    MoveL [[330,81,5],[30,-30,30],[0, 0, 0, 0],[9000000000.0, 9000000000.0, 9000000000.0, 9000000000.0, 9000000000.0, 9000000000.0],  v1000, z0, tool0]
    MoveL [[330,81,10],[30,-30,30],[0, 0, 0, 0],[9000000000.0, 9000000000.0, 9000000000.0, 9000000000.0, 9000000000.0, 9000000000.0], v1000, z0, tool0]
    MoveL [[145,90,10],[30,-30,30],[0, 0, 0, 0],[9000000000.0, 9000000000.0, 9000000000.0, 9000000000.0, 9000000000.0, 9000000000.0], v1000, z0, tool0]
    MoveL [[138,63,5],[30,-30,30],[0, 0, 0, 0],[9000000000.0, 9000000000.0, 9000000000.0, 9000000000.0, 9000000000.0, 9000000000.0],  v1000, z0, tool0]
    MoveL [[138,63,10],[30,-30,30],[0, 0, 0, 0],[9000000000.0, 9000000000.0, 9000000000.0, 9000000000.0, 9000000000.0, 9000000000.0], v1000, z0, tool0]
    MoveL [[230,75,10],[30,-30,30],[0, 0, 0, 0],[9000000000.0, 9000000000.0, 9000000000.0, 9000000000.0, 9000000000.0, 9000000000.0], v1000, z0, tool0]
    MoveL [[230,63,5],[30,-30,30],[0, 0, 0, 0],[9000000000.0, 9000000000.0, 9000000000.0, 9000000000.0, 9000000000.0, 9000000000.0],  v1000, z0, tool0]
    MoveL [[230,63,10],[30,-30,30],[0, 0, 0, 0],[9000000000.0, 9000000000.0, 9000000000.0, 9000000000.0, 9000000000.0, 9000000000.0], v1000, z0, tool0]
    MoveL [[393,64,10],[30,-30,30],[0, 0, 0, 0],[9000000000.0, 9000000000.0, 9000000000.0, 9000000000.0, 9000000000.0, 9000000000.0], v1000, z0, tool0]
    MoveL [[417,85,5],[30,-30,30],[0, 0, 0, 0],[9000000000.0, 9000000000.0, 9000000000.0, 9000000000.0, 9000000000.0, 9000000000.0],  v1000, z0, tool0]
    MoveL [[417,85,10],[30,-30,30],[0, 0, 0, 0],[9000000000.0, 9000000000.0, 9000000000.0, 9000000000.0, 9000000000.0, 9000000000.0], v1000, z0, tool0]
    MoveL [[161,76,10],[30,-30,30],[0, 0, 0, 0],[9000000000.0, 9000000000.0, 9000000000.0, 9000000000.0, 9000000000.0, 9000000000.0], v1000, z0, tool0]
    MoveL [[175,66,5],[30,-30,30],[0, 0, 0, 0],[9000000000.0, 9000000000.0, 9000000000.0, 9000000000.0, 9000000000.0, 9000000000.0],  v1000, z0, tool0]
    MoveL [[175,66,10],[30,-30,30],[0, 0, 0, 0],[9000000000.0, 9000000000.0, 9000000000.0, 9000000000.0, 9000000000.0, 9000000000.0], v1000, z0, tool0]
    MoveL [[254,96,10],[30,-30,30],[0, 0, 0, 0],[9000000000.0, 9000000000.0, 9000000000.0, 9000000000.0, 9000000000.0, 9000000000.0], v1000, z0, tool0]
    MoveL [[296,66,5],[30,-30,30],[0, 0, 0, 0],[9000000000.0, 9000000000.0, 9000000000.0, 9000000000.0, 9000000000.0, 9000000000.0],  v1000, z0, tool0]
    MoveL [[296,66,10],[30,-30,30],[0, 0, 0, 0],[9000000000.0, 9000000000.0, 9000000000.0, 9000000000.0, 9000000000.0, 9000000000.0], v1000, z0, tool0]
    MoveL [[178,69,10],[30,-30,30],[0, 0, 0, 0],[9000000000.0, 9000000000.0, 9000000000.0, 9000000000.0, 9000000000.0, 9000000000.0], v1000, z0, tool0]
    MoveL [[158,81,5],[30,-30,30],[0, 0, 0, 0],[9000000000.0, 9000000000.0, 9000000000.0, 9000000000.0, 9000000000.0, 9000000000.0],  v1000, z0, tool0]
    MoveL [[158,81,10],[30,-30,30],[0, 0, 0, 0],[9000000000.0, 9000000000.0, 9000000000.0, 9000000000.0, 9000000000.0, 9000000000.0], v1000, z0, tool0]
    MoveL [[234,68,10],[30,-30,30],[0, 0, 0, 0],[9000000000.0, 9000000000.0, 9000000000.0, 9000000000.0, 9000000000.0, 9000000000.0], v1000, z0, tool0]
    MoveL [[227,91,5],[30,-30,30],[0, 0, 0, 0],[9000000000.0, 9000000000.0, 9000000000.0, 9000000000.0, 9000000000.0, 9000000000.0],  v1000, z0, tool0]
    MoveL [[227,91,10],[30,-30,30],[0, 0, 0, 0],[9000000000.0, 9000000000.0, 9000000000.0, 9000000000.0, 9000000000.0, 9000000000.0], v1000, z0, tool0]
    MoveL [[284,70,10],[30,-30,30],[0, 0, 0, 0],[9000000000.0, 9000000000.0, 9000000000.0, 9000000000.0, 9000000000.0, 9000000000.0], v1000, z0, tool0]
    MoveL [[251,94,5],[30,-30,30],[0, 0, 0, 0],[9000000000.0, 9000000000.0, 9000000000.0, 9000000000.0, 9000000000.0, 9000000000.0],  v1000, z0, tool0]
    MoveL [[251,94,10],[30,-30,30],[0, 0, 0, 0],[9000000000.0, 9000000000.0, 9000000000.0, 9000000000.0, 9000000000.0, 9000000000.0], v1000, z0, tool0]
    MoveL [[298,68,10],[30,-30,30],[0, 0, 0, 0],[9000000000.0, 9000000000.0, 9000000000.0, 9000000000.0, 9000000000.0, 9000000000.0], v1000, z0, tool0]
    MoveL [[276,82,5],[30,-30,30],[0, 0, 0, 0],[9000000000.0, 9000000000.0, 9000000000.0, 9000000000.0, 9000000000.0, 9000000000.0],  v1000, z0, tool0]
    MoveL [[276,82,10],[30,-30,30],[0, 0, 0, 0],[9000000000.0, 9000000000.0, 9000000000.0, 9000000000.0, 9000000000.0, 9000000000.0], v1000, z0, tool0]
    MoveL [[305,73,10],[30,-30,30],[0, 0, 0, 0],[9000000000.0, 9000000000.0, 9000000000.0, 9000000000.0, 9000000000.0, 9000000000.0], v1000, z0, tool0]
    MoveL [[299,69,5],[30,-30,30],[0, 0, 0, 0],[9000000000.0, 9000000000.0, 9000000000.0, 9000000000.0, 9000000000.0, 9000000000.0],  v1000, z0, tool0]
    MoveL [[299,69,10],[30,-30,30],[0, 0, 0, 0],[9000000000.0, 9000000000.0, 9000000000.0, 9000000000.0, 9000000000.0, 9000000000.0], v1000, z0, tool0]
    MoveL [[186,79,10],[30,-30,30],[0, 0, 0, 0],[9000000000.0, 9000000000.0, 9000000000.0, 9000000000.0, 9000000000.0, 9000000000.0], v1000, z0, tool0]
    MoveL [[194,72,5],[30,-30,30],[0, 0, 0, 0],[9000000000.0, 9000000000.0, 9000000000.0, 9000000000.0, 9000000000.0, 9000000000.0],  v1000, z0, tool0]
    MoveL [[194,72,10],[30,-30,30],[0, 0, 0, 0],[9000000000.0, 9000000000.0, 9000000000.0, 9000000000.0, 9000000000.0, 9000000000.0], v1000, z0, tool0]
    MoveL [[257,73,10],[30,-30,30],[0, 0, 0, 0],[9000000000.0, 9000000000.0, 9000000000.0, 9000000000.0, 9000000000.0, 9000000000.0], v1000, z0, tool0]
    MoveL [[263,83,5],[30,-30,30],[0, 0, 0, 0],[9000000000.0, 9000000000.0, 9000000000.0, 9000000000.0, 9000000000.0, 9000000000.0],  v1000, z0, tool0]
    MoveL [[263,83,10],[30,-30,30],[0, 0, 0, 0],[9000000000.0, 9000000000.0, 9000000000.0, 9000000000.0, 9000000000.0, 9000000000.0], v1000, z0, tool0]
    MoveL [[204,79,10],[30,-30,30],[0, 0, 0, 0],[9000000000.0, 9000000000.0, 9000000000.0, 9000000000.0, 9000000000.0, 9000000000.0], v1000, z0, tool0]
    MoveL [[223,74,5],[30,-30,30],[0, 0, 0, 0],[9000000000.0, 9000000000.0, 9000000000.0, 9000000000.0, 9000000000.0, 9000000000.0],  v1000, z0, tool0]
    MoveL [[223,74,10],[30,-30,30],[0, 0, 0, 0],[9000000000.0, 9000000000.0, 9000000000.0, 9000000000.0, 9000000000.0, 9000000000.0], v1000, z0, tool0]
    MoveL [[310,80,10],[30,-30,30],[0, 0, 0, 0],[9000000000.0, 9000000000.0, 9000000000.0, 9000000000.0, 9000000000.0, 9000000000.0], v1000, z0, tool0]
    MoveL [[310,73,5],[30,-30,30],[0, 0, 0, 0],[9000000000.0, 9000000000.0, 9000000000.0, 9000000000.0, 9000000000.0, 9000000000.0],  v1000, z0, tool0]
    MoveL [[310,73,10],[30,-30,30],[0, 0, 0, 0],[9000000000.0, 9000000000.0, 9000000000.0, 9000000000.0, 9000000000.0, 9000000000.0], v1000, z0, tool0]
    MoveL [[391,74,10],[30,-30,30],[0, 0, 0, 0],[9000000000.0, 9000000000.0, 9000000000.0, 9000000000.0, 9000000000.0, 9000000000.0], v1000, z0, tool0]
    MoveL [[379,80,5],[30,-30,30],[0, 0, 0, 0],[9000000000.0, 9000000000.0, 9000000000.0, 9000000000.0, 9000000000.0, 9000000000.0],  v1000, z0, tool0]
    MoveL [[379,80,10],[30,-30,30],[0, 0, 0, 0],[9000000000.0, 9000000000.0, 9000000000.0, 9000000000.0, 9000000000.0, 9000000000.0], v1000, z0, tool0]
    MoveL [[410,86,10],[30,-30,30],[0, 0, 0, 0],[9000000000.0, 9000000000.0, 9000000000.0, 9000000000.0, 9000000000.0, 9000000000.0], v1000, z0, tool0]
    MoveL [[392,74,5],[30,-30,30],[0, 0, 0, 0],[9000000000.0, 9000000000.0, 9000000000.0, 9000000000.0, 9000000000.0, 9000000000.0],  v1000, z0, tool0]
    MoveL [[392,74,10],[30,-30,30],[0, 0, 0, 0],[9000000000.0, 9000000000.0, 9000000000.0, 9000000000.0, 9000000000.0, 9000000000.0], v1000, z0, tool0]
    MoveL [[432,92,10],[30,-30,30],[0, 0, 0, 0],[9000000000.0, 9000000000.0, 9000000000.0, 9000000000.0, 9000000000.0, 9000000000.0], v1000, z0, tool0]
    MoveL [[414,74,5],[30,-30,30],[0, 0, 0, 0],[9000000000.0, 9000000000.0, 9000000000.0, 9000000000.0, 9000000000.0, 9000000000.0],  v1000, z0, tool0]
    MoveL [[414,74,10],[30,-30,30],[0, 0, 0, 0],[9000000000.0, 9000000000.0, 9000000000.0, 9000000000.0, 9000000000.0, 9000000000.0], v1000, z0, tool0]
    MoveL [[146,77,10],[30,-30,30],[0, 0, 0, 0],[9000000000.0, 9000000000.0, 9000000000.0, 9000000000.0, 9000000000.0, 9000000000.0], v1000, z0, tool0]
    MoveL [[160,76,5],[30,-30,30],[0, 0, 0, 0],[9000000000.0, 9000000000.0, 9000000000.0, 9000000000.0, 9000000000.0, 9000000000.0],  v1000, z0, tool0]
    MoveL [[160,76,10],[30,-30,30],[0, 0, 0, 0],[9000000000.0, 9000000000.0, 9000000000.0, 9000000000.0, 9000000000.0, 9000000000.0], v1000, z0, tool0]
    MoveL [[197,75,10],[30,-30,30],[0, 0, 0, 0],[9000000000.0, 9000000000.0, 9000000000.0, 9000000000.0, 9000000000.0, 9000000000.0], v1000, z0, tool0]
    MoveL [[188,83,5],[30,-30,30],[0, 0, 0, 0],[9000000000.0, 9000000000.0, 9000000000.0, 9000000000.0, 9000000000.0, 9000000000.0],  v1000, z0, tool0]
    MoveL [[188,83,10],[30,-30,30],[0, 0, 0, 0],[9000000000.0, 9000000000.0, 9000000000.0, 9000000000.0, 9000000000.0, 9000000000.0], v1000, z0, tool0]
    MoveL [[293,76,10],[30,-30,30],[0, 0, 0, 0],[9000000000.0, 9000000000.0, 9000000000.0, 9000000000.0, 9000000000.0, 9000000000.0], v1000, z0, tool0]
    MoveL [[298,77,5],[30,-30,30],[0, 0, 0, 0],[9000000000.0, 9000000000.0, 9000000000.0, 9000000000.0, 9000000000.0, 9000000000.0],  v1000, z0, tool0]
    MoveL [[298,77,10],[30,-30,30],[0, 0, 0, 0],[9000000000.0, 9000000000.0, 9000000000.0, 9000000000.0, 9000000000.0, 9000000000.0], v1000, z0, tool0]
    MoveL [[299,76,10],[30,-30,30],[0, 0, 0, 0],[9000000000.0, 9000000000.0, 9000000000.0, 9000000000.0, 9000000000.0, 9000000000.0], v1000, z0, tool0]
    MoveL [[308,84,5],[30,-30,30],[0, 0, 0, 0],[9000000000.0, 9000000000.0, 9000000000.0, 9000000000.0, 9000000000.0, 9000000000.0],  v1000, z0, tool0]
    MoveL [[308,84,10],[30,-30,30],[0, 0, 0, 0],[9000000000.0, 9000000000.0, 9000000000.0, 9000000000.0, 9000000000.0, 9000000000.0], v1000, z0, tool0]
    MoveL [[158,97,10],[30,-30,30],[0, 0, 0, 0],[9000000000.0, 9000000000.0, 9000000000.0, 9000000000.0, 9000000000.0, 9000000000.0], v1000, z0, tool0]
    MoveL [[187,80,5],[30,-30,30],[0, 0, 0, 0],[9000000000.0, 9000000000.0, 9000000000.0, 9000000000.0, 9000000000.0, 9000000000.0],  v1000, z0, tool0]
    MoveL [[187,80,10],[30,-30,30],[0, 0, 0, 0],[9000000000.0, 9000000000.0, 9000000000.0, 9000000000.0, 9000000000.0, 9000000000.0], v1000, z0, tool0]
    MoveL [[222,77,10],[30,-30,30],[0, 0, 0, 0],[9000000000.0, 9000000000.0, 9000000000.0, 9000000000.0, 9000000000.0, 9000000000.0], v1000, z0, tool0]
    MoveL [[206,83,5],[30,-30,30],[0, 0, 0, 0],[9000000000.0, 9000000000.0, 9000000000.0, 9000000000.0, 9000000000.0, 9000000000.0],  v1000, z0, tool0]
    MoveL [[206,83,10],[30,-30,30],[0, 0, 0, 0],[9000000000.0, 9000000000.0, 9000000000.0, 9000000000.0, 9000000000.0, 9000000000.0], v1000, z0, tool0]
    MoveL [[283,81,10],[30,-30,30],[0, 0, 0, 0],[9000000000.0, 9000000000.0, 9000000000.0, 9000000000.0, 9000000000.0, 9000000000.0], v1000, z0, tool0]
    MoveL [[290,78,5],[30,-30,30],[0, 0, 0, 0],[9000000000.0, 9000000000.0, 9000000000.0, 9000000000.0, 9000000000.0, 9000000000.0],  v1000, z0, tool0]
    MoveL [[290,78,10],[30,-30,30],[0, 0, 0, 0],[9000000000.0, 9000000000.0, 9000000000.0, 9000000000.0, 9000000000.0, 9000000000.0], v1000, z0, tool0]
    MoveL [[157,80,10],[30,-30,30],[0, 0, 0, 0],[9000000000.0, 9000000000.0, 9000000000.0, 9000000000.0, 9000000000.0, 9000000000.0], v1000, z0, tool0]
    MoveL [[147,81,5],[30,-30,30],[0, 0, 0, 0],[9000000000.0, 9000000000.0, 9000000000.0, 9000000000.0, 9000000000.0, 9000000000.0],  v1000, z0, tool0]
    MoveL [[147,81,10],[30,-30,30],[0, 0, 0, 0],[9000000000.0, 9000000000.0, 9000000000.0, 9000000000.0, 9000000000.0, 9000000000.0], v1000, z0, tool0]
    MoveL [[199,84,10],[30,-30,30],[0, 0, 0, 0],[9000000000.0, 9000000000.0, 9000000000.0, 9000000000.0, 9000000000.0, 9000000000.0], v1000, z0, tool0]
    MoveL [[204,79,5],[30,-30,30],[0, 0, 0, 0],[9000000000.0, 9000000000.0, 9000000000.0, 9000000000.0, 9000000000.0, 9000000000.0],  v1000, z0, tool0]
    MoveL [[204,79,10],[30,-30,30],[0, 0, 0, 0],[9000000000.0, 9000000000.0, 9000000000.0, 9000000000.0, 9000000000.0, 9000000000.0], v1000, z0, tool0]
    MoveL [[379,80,10],[30,-30,30],[0, 0, 0, 0],[9000000000.0, 9000000000.0, 9000000000.0, 9000000000.0, 9000000000.0, 9000000000.0], v1000, z0, tool0]
    MoveL [[374,90,5],[30,-30,30],[0, 0, 0, 0],[9000000000.0, 9000000000.0, 9000000000.0, 9000000000.0, 9000000000.0, 9000000000.0],  v1000, z0, tool0]
    MoveL [[374,90,10],[30,-30,30],[0, 0, 0, 0],[9000000000.0, 9000000000.0, 9000000000.0, 9000000000.0, 9000000000.0, 9000000000.0], v1000, z0, tool0]
    MoveL [[190,83,10],[30,-30,30],[0, 0, 0, 0],[9000000000.0, 9000000000.0, 9000000000.0, 9000000000.0, 9000000000.0, 9000000000.0], v1000, z0, tool0]
    MoveL [[160,99,5],[30,-30,30],[0, 0, 0, 0],[9000000000.0, 9000000000.0, 9000000000.0, 9000000000.0, 9000000000.0, 9000000000.0],  v1000, z0, tool0]
    MoveL [[160,99,10],[30,-30,30],[0, 0, 0, 0],[9000000000.0, 9000000000.0, 9000000000.0, 9000000000.0, 9000000000.0, 9000000000.0], v1000, z0, tool0]
    MoveL [[383,88,10],[30,-30,30],[0, 0, 0, 0],[9000000000.0, 9000000000.0, 9000000000.0, 9000000000.0, 9000000000.0, 9000000000.0], v1000, z0, tool0]
    MoveL [[392,81,5],[30,-30,30],[0, 0, 0, 0],[9000000000.0, 9000000000.0, 9000000000.0, 9000000000.0, 9000000000.0, 9000000000.0],  v1000, z0, tool0]
    MoveL [[392,81,10],[30,-30,30],[0, 0, 0, 0],[9000000000.0, 9000000000.0, 9000000000.0, 9000000000.0, 9000000000.0, 9000000000.0], v1000, z0, tool0]
    MoveL [[393,82,10],[30,-30,30],[0, 0, 0, 0],[9000000000.0, 9000000000.0, 9000000000.0, 9000000000.0, 9000000000.0, 9000000000.0], v1000, z0, tool0]
    MoveL [[399,84,5],[30,-30,30],[0, 0, 0, 0],[9000000000.0, 9000000000.0, 9000000000.0, 9000000000.0, 9000000000.0, 9000000000.0],  v1000, z0, tool0]
    MoveL [[399,84,10],[30,-30,30],[0, 0, 0, 0],[9000000000.0, 9000000000.0, 9000000000.0, 9000000000.0, 9000000000.0, 9000000000.0], v1000, z0, tool0]
    MoveL [[145,82,10],[30,-30,30],[0, 0, 0, 0],[9000000000.0, 9000000000.0, 9000000000.0, 9000000000.0, 9000000000.0, 9000000000.0], v1000, z0, tool0]
    MoveL [[154,96,5],[30,-30,30],[0, 0, 0, 0],[9000000000.0, 9000000000.0, 9000000000.0, 9000000000.0, 9000000000.0, 9000000000.0],  v1000, z0, tool0]
    MoveL [[154,96,10],[30,-30,30],[0, 0, 0, 0],[9000000000.0, 9000000000.0, 9000000000.0, 9000000000.0, 9000000000.0, 9000000000.0], v1000, z0, tool0]
    MoveL [[217,98,10],[30,-30,30],[0, 0, 0, 0],[9000000000.0, 9000000000.0, 9000000000.0, 9000000000.0, 9000000000.0, 9000000000.0], v1000, z0, tool0]
    MoveL [[228,82,5],[30,-30,30],[0, 0, 0, 0],[9000000000.0, 9000000000.0, 9000000000.0, 9000000000.0, 9000000000.0, 9000000000.0],  v1000, z0, tool0]
    MoveL [[228,82,10],[30,-30,30],[0, 0, 0, 0],[9000000000.0, 9000000000.0, 9000000000.0, 9000000000.0, 9000000000.0, 9000000000.0], v1000, z0, tool0]
    MoveL [[249,83,10],[30,-30,30],[0, 0, 0, 0],[9000000000.0, 9000000000.0, 9000000000.0, 9000000000.0, 9000000000.0, 9000000000.0], v1000, z0, tool0]
    MoveL [[224,94,5],[30,-30,30],[0, 0, 0, 0],[9000000000.0, 9000000000.0, 9000000000.0, 9000000000.0, 9000000000.0, 9000000000.0],  v1000, z0, tool0]
    MoveL [[224,94,10],[30,-30,30],[0, 0, 0, 0],[9000000000.0, 9000000000.0, 9000000000.0, 9000000000.0, 9000000000.0, 9000000000.0], v1000, z0, tool0]
    MoveL [[255,83,10],[30,-30,30],[0, 0, 0, 0],[9000000000.0, 9000000000.0, 9000000000.0, 9000000000.0, 9000000000.0, 9000000000.0], v1000, z0, tool0]
    MoveL [[249,88,5],[30,-30,30],[0, 0, 0, 0],[9000000000.0, 9000000000.0, 9000000000.0, 9000000000.0, 9000000000.0, 9000000000.0],  v1000, z0, tool0]
    MoveL [[249,88,10],[30,-30,30],[0, 0, 0, 0],[9000000000.0, 9000000000.0, 9000000000.0, 9000000000.0, 9000000000.0, 9000000000.0], v1000, z0, tool0]
    MoveL [[297,84,10],[30,-30,30],[0, 0, 0, 0],[9000000000.0, 9000000000.0, 9000000000.0, 9000000000.0, 9000000000.0, 9000000000.0], v1000, z0, tool0]
    MoveL [[290,87,5],[30,-30,30],[0, 0, 0, 0],[9000000000.0, 9000000000.0, 9000000000.0, 9000000000.0, 9000000000.0, 9000000000.0],  v1000, z0, tool0]
    MoveL [[290,87,10],[30,-30,30],[0, 0, 0, 0],[9000000000.0, 9000000000.0, 9000000000.0, 9000000000.0, 9000000000.0, 9000000000.0], v1000, z0, tool0]
    MoveL [[305,87,10],[30,-30,30],[0, 0, 0, 0],[9000000000.0, 9000000000.0, 9000000000.0, 9000000000.0, 9000000000.0, 9000000000.0], v1000, z0, tool0]
    MoveL [[297,84,5],[30,-30,30],[0, 0, 0, 0],[9000000000.0, 9000000000.0, 9000000000.0, 9000000000.0, 9000000000.0, 9000000000.0],  v1000, z0, tool0]
    MoveL [[297,84,10],[30,-30,30],[0, 0, 0, 0],[9000000000.0, 9000000000.0, 9000000000.0, 9000000000.0, 9000000000.0, 9000000000.0], v1000, z0, tool0]
    MoveL [[309,105,10],[30,-30,30],[0, 0, 0, 0],[9000000000.0, 9000000000.0, 9000000000.0, 9000000000.0, 9000000000.0, 9000000000.0], v1000, z0, tool0]
    MoveL [[315,82,5],[30,-30,30],[0, 0, 0, 0],[9000000000.0, 9000000000.0, 9000000000.0, 9000000000.0, 9000000000.0, 9000000000.0],  v1000, z0, tool0]
    MoveL [[315,82,10],[30,-30,30],[0, 0, 0, 0],[9000000000.0, 9000000000.0, 9000000000.0, 9000000000.0, 9000000000.0, 9000000000.0], v1000, z0, tool0]
    MoveL [[328,82,10],[30,-30,30],[0, 0, 0, 0],[9000000000.0, 9000000000.0, 9000000000.0, 9000000000.0, 9000000000.0, 9000000000.0], v1000, z0, tool0]
    MoveL [[329,87,5],[30,-30,30],[0, 0, 0, 0],[9000000000.0, 9000000000.0, 9000000000.0, 9000000000.0, 9000000000.0, 9000000000.0],  v1000, z0, tool0]
    MoveL [[329,87,10],[30,-30,30],[0, 0, 0, 0],[9000000000.0, 9000000000.0, 9000000000.0, 9000000000.0, 9000000000.0, 9000000000.0], v1000, z0, tool0]
    MoveL [[364,99,10],[30,-30,30],[0, 0, 0, 0],[9000000000.0, 9000000000.0, 9000000000.0, 9000000000.0, 9000000000.0, 9000000000.0], v1000, z0, tool0]
    MoveL [[332,83,5],[30,-30,30],[0, 0, 0, 0],[9000000000.0, 9000000000.0, 9000000000.0, 9000000000.0, 9000000000.0, 9000000000.0],  v1000, z0, tool0]
    MoveL [[332,83,10],[30,-30,30],[0, 0, 0, 0],[9000000000.0, 9000000000.0, 9000000000.0, 9000000000.0, 9000000000.0, 9000000000.0], v1000, z0, tool0]
    MoveL [[399,82,10],[30,-30,30],[0, 0, 0, 0],[9000000000.0, 9000000000.0, 9000000000.0, 9000000000.0, 9000000000.0, 9000000000.0], v1000, z0, tool0]
    MoveL [[402,90,5],[30,-30,30],[0, 0, 0, 0],[9000000000.0, 9000000000.0, 9000000000.0, 9000000000.0, 9000000000.0, 9000000000.0],  v1000, z0, tool0]
    MoveL [[402,90,10],[30,-30,30],[0, 0, 0, 0],[9000000000.0, 9000000000.0, 9000000000.0, 9000000000.0, 9000000000.0, 9000000000.0], v1000, z0, tool0]
    MoveL [[195,89,10],[30,-30,30],[0, 0, 0, 0],[9000000000.0, 9000000000.0, 9000000000.0, 9000000000.0, 9000000000.0, 9000000000.0], v1000, z0, tool0]
    MoveL [[199,84,5],[30,-30,30],[0, 0, 0, 0],[9000000000.0, 9000000000.0, 9000000000.0, 9000000000.0, 9000000000.0, 9000000000.0],  v1000, z0, tool0]
    MoveL [[199,84,10],[30,-30,30],[0, 0, 0, 0],[9000000000.0, 9000000000.0, 9000000000.0, 9000000000.0, 9000000000.0, 9000000000.0], v1000, z0, tool0]
    MoveL [[285,90,10],[30,-30,30],[0, 0, 0, 0],[9000000000.0, 9000000000.0, 9000000000.0, 9000000000.0, 9000000000.0, 9000000000.0], v1000, z0, tool0]
    MoveL [[278,84,5],[30,-30,30],[0, 0, 0, 0],[9000000000.0, 9000000000.0, 9000000000.0, 9000000000.0, 9000000000.0, 9000000000.0],  v1000, z0, tool0]
    MoveL [[278,84,10],[30,-30,30],[0, 0, 0, 0],[9000000000.0, 9000000000.0, 9000000000.0, 9000000000.0, 9000000000.0, 9000000000.0], v1000, z0, tool0]
    MoveL [[251,90,10],[30,-30,30],[0, 0, 0, 0],[9000000000.0, 9000000000.0, 9000000000.0, 9000000000.0, 9000000000.0, 9000000000.0], v1000, z0, tool0]
    MoveL [[259,85,5],[30,-30,30],[0, 0, 0, 0],[9000000000.0, 9000000000.0, 9000000000.0, 9000000000.0, 9000000000.0, 9000000000.0],  v1000, z0, tool0]
    MoveL [[259,85,10],[30,-30,30],[0, 0, 0, 0],[9000000000.0, 9000000000.0, 9000000000.0, 9000000000.0, 9000000000.0, 9000000000.0], v1000, z0, tool0]
    MoveL [[417,86,10],[30,-30,30],[0, 0, 0, 0],[9000000000.0, 9000000000.0, 9000000000.0, 9000000000.0, 9000000000.0, 9000000000.0], v1000, z0, tool0]
    MoveL [[434,104,5],[30,-30,30],[0, 0, 0, 0],[9000000000.0, 9000000000.0, 9000000000.0, 9000000000.0, 9000000000.0, 9000000000.0],  v1000, z0, tool0]
    MoveL [[434,104,10],[30,-30,30],[0, 0, 0, 0],[9000000000.0, 9000000000.0, 9000000000.0, 9000000000.0, 9000000000.0, 9000000000.0], v1000, z0, tool0]
    MoveL [[203,85,10],[30,-30,30],[0, 0, 0, 0],[9000000000.0, 9000000000.0, 9000000000.0, 9000000000.0, 9000000000.0, 9000000000.0], v1000, z0, tool0]
    MoveL [[192,100,5],[30,-30,30],[0, 0, 0, 0],[9000000000.0, 9000000000.0, 9000000000.0, 9000000000.0, 9000000000.0, 9000000000.0],  v1000, z0, tool0]
    MoveL [[192,100,10],[30,-30,30],[0, 0, 0, 0],[9000000000.0, 9000000000.0, 9000000000.0, 9000000000.0, 9000000000.0, 9000000000.0], v1000, z0, tool0]
    MoveL [[206,85,10],[30,-30,30],[0, 0, 0, 0],[9000000000.0, 9000000000.0, 9000000000.0, 9000000000.0, 9000000000.0, 9000000000.0], v1000, z0, tool0]
    MoveL [[215,98,5],[30,-30,30],[0, 0, 0, 0],[9000000000.0, 9000000000.0, 9000000000.0, 9000000000.0, 9000000000.0, 9000000000.0],  v1000, z0, tool0]
    MoveL [[215,98,10],[30,-30,30],[0, 0, 0, 0],[9000000000.0, 9000000000.0, 9000000000.0, 9000000000.0, 9000000000.0, 9000000000.0], v1000, z0, tool0]
    MoveL [[243,93,10],[30,-30,30],[0, 0, 0, 0],[9000000000.0, 9000000000.0, 9000000000.0, 9000000000.0, 9000000000.0, 9000000000.0], v1000, z0, tool0]
    MoveL [[249,85,5],[30,-30,30],[0, 0, 0, 0],[9000000000.0, 9000000000.0, 9000000000.0, 9000000000.0, 9000000000.0, 9000000000.0],  v1000, z0, tool0]
    MoveL [[249,85,10],[30,-30,30],[0, 0, 0, 0],[9000000000.0, 9000000000.0, 9000000000.0, 9000000000.0, 9000000000.0, 9000000000.0], v1000, z0, tool0]
    MoveL [[211,100,10],[30,-30,30],[0, 0, 0, 0],[9000000000.0, 9000000000.0, 9000000000.0, 9000000000.0, 9000000000.0, 9000000000.0], v1000, z0, tool0]
    MoveL [[203,87,5],[30,-30,30],[0, 0, 0, 0],[9000000000.0, 9000000000.0, 9000000000.0, 9000000000.0, 9000000000.0, 9000000000.0],  v1000, z0, tool0]
    MoveL [[203,87,10],[30,-30,30],[0, 0, 0, 0],[9000000000.0, 9000000000.0, 9000000000.0, 9000000000.0, 9000000000.0, 9000000000.0], v1000, z0, tool0]
    MoveL [[292,96,10],[30,-30,30],[0, 0, 0, 0],[9000000000.0, 9000000000.0, 9000000000.0, 9000000000.0, 9000000000.0, 9000000000.0], v1000, z0, tool0]
    MoveL [[312,89,5],[30,-30,30],[0, 0, 0, 0],[9000000000.0, 9000000000.0, 9000000000.0, 9000000000.0, 9000000000.0, 9000000000.0],  v1000, z0, tool0]
    MoveL [[312,89,10],[30,-30,30],[0, 0, 0, 0],[9000000000.0, 9000000000.0, 9000000000.0, 9000000000.0, 9000000000.0, 9000000000.0], v1000, z0, tool0]
    MoveL [[187,108,10],[30,-30,30],[0, 0, 0, 0],[9000000000.0, 9000000000.0, 9000000000.0, 9000000000.0, 9000000000.0, 9000000000.0], v1000, z0, tool0]
    MoveL [[194,88,5],[30,-30,30],[0, 0, 0, 0],[9000000000.0, 9000000000.0, 9000000000.0, 9000000000.0, 9000000000.0, 9000000000.0],  v1000, z0, tool0]
    MoveL [[194,88,10],[30,-30,30],[0, 0, 0, 0],[9000000000.0, 9000000000.0, 9000000000.0, 9000000000.0, 9000000000.0, 9000000000.0], v1000, z0, tool0]
    MoveL [[329,87,10],[30,-30,30],[0, 0, 0, 0],[9000000000.0, 9000000000.0, 9000000000.0, 9000000000.0, 9000000000.0, 9000000000.0], v1000, z0, tool0]
    MoveL [[337,97,5],[30,-30,30],[0, 0, 0, 0],[9000000000.0, 9000000000.0, 9000000000.0, 9000000000.0, 9000000000.0, 9000000000.0],  v1000, z0, tool0]
    MoveL [[337,97,10],[30,-30,30],[0, 0, 0, 0],[9000000000.0, 9000000000.0, 9000000000.0, 9000000000.0, 9000000000.0, 9000000000.0], v1000, z0, tool0]
    MoveL [[383,94,10],[30,-30,30],[0, 0, 0, 0],[9000000000.0, 9000000000.0, 9000000000.0, 9000000000.0, 9000000000.0, 9000000000.0], v1000, z0, tool0]
    MoveL [[384,88,5],[30,-30,30],[0, 0, 0, 0],[9000000000.0, 9000000000.0, 9000000000.0, 9000000000.0, 9000000000.0, 9000000000.0],  v1000, z0, tool0]
    MoveL [[384,88,10],[30,-30,30],[0, 0, 0, 0],[9000000000.0, 9000000000.0, 9000000000.0, 9000000000.0, 9000000000.0, 9000000000.0], v1000, z0, tool0]
    MoveL [[445,108,10],[30,-30,30],[0, 0, 0, 0],[9000000000.0, 9000000000.0, 9000000000.0, 9000000000.0, 9000000000.0, 9000000000.0], v1000, z0, tool0]
    MoveL [[429,89,5],[30,-30,30],[0, 0, 0, 0],[9000000000.0, 9000000000.0, 9000000000.0, 9000000000.0, 9000000000.0, 9000000000.0],  v1000, z0, tool0]
    MoveL [[429,89,10],[30,-30,30],[0, 0, 0, 0],[9000000000.0, 9000000000.0, 9000000000.0, 9000000000.0, 9000000000.0, 9000000000.0], v1000, z0, tool0]
    MoveL [[144,90,10],[30,-30,30],[0, 0, 0, 0],[9000000000.0, 9000000000.0, 9000000000.0, 9000000000.0, 9000000000.0, 9000000000.0], v1000, z0, tool0]
    MoveL [[147,91,5],[30,-30,30],[0, 0, 0, 0],[9000000000.0, 9000000000.0, 9000000000.0, 9000000000.0, 9000000000.0, 9000000000.0],  v1000, z0, tool0]
    MoveL [[147,91,10],[30,-30,30],[0, 0, 0, 0],[9000000000.0, 9000000000.0, 9000000000.0, 9000000000.0, 9000000000.0, 9000000000.0], v1000, z0, tool0]
    MoveL [[271,89,10],[30,-30,30],[0, 0, 0, 0],[9000000000.0, 9000000000.0, 9000000000.0, 9000000000.0, 9000000000.0, 9000000000.0], v1000, z0, tool0]
    MoveL [[272,101,5],[30,-30,30],[0, 0, 0, 0],[9000000000.0, 9000000000.0, 9000000000.0, 9000000000.0, 9000000000.0, 9000000000.0],  v1000, z0, tool0]
    MoveL [[272,101,10],[30,-30,30],[0, 0, 0, 0],[9000000000.0, 9000000000.0, 9000000000.0, 9000000000.0, 9000000000.0, 9000000000.0], v1000, z0, tool0]
    MoveL [[265,91,10],[30,-30,30],[0, 0, 0, 0],[9000000000.0, 9000000000.0, 9000000000.0, 9000000000.0, 9000000000.0, 9000000000.0], v1000, z0, tool0]
    MoveL [[263,96,5],[30,-30,30],[0, 0, 0, 0],[9000000000.0, 9000000000.0, 9000000000.0, 9000000000.0, 9000000000.0, 9000000000.0],  v1000, z0, tool0]
    MoveL [[263,96,10],[30,-30,30],[0, 0, 0, 0],[9000000000.0, 9000000000.0, 9000000000.0, 9000000000.0, 9000000000.0, 9000000000.0], v1000, z0, tool0]
    MoveL [[288,97,10],[30,-30,30],[0, 0, 0, 0],[9000000000.0, 9000000000.0, 9000000000.0, 9000000000.0, 9000000000.0, 9000000000.0], v1000, z0, tool0]
    MoveL [[288,91,5],[30,-30,30],[0, 0, 0, 0],[9000000000.0, 9000000000.0, 9000000000.0, 9000000000.0, 9000000000.0, 9000000000.0],  v1000, z0, tool0]
    MoveL [[288,91,10],[30,-30,30],[0, 0, 0, 0],[9000000000.0, 9000000000.0, 9000000000.0, 9000000000.0, 9000000000.0, 9000000000.0], v1000, z0, tool0]
    MoveL [[374,91,10],[30,-30,30],[0, 0, 0, 0],[9000000000.0, 9000000000.0, 9000000000.0, 9000000000.0, 9000000000.0, 9000000000.0], v1000, z0, tool0]
    MoveL [[382,105,5],[30,-30,30],[0, 0, 0, 0],[9000000000.0, 9000000000.0, 9000000000.0, 9000000000.0, 9000000000.0, 9000000000.0],  v1000, z0, tool0]
    MoveL [[382,105,10],[30,-30,30],[0, 0, 0, 0],[9000000000.0, 9000000000.0, 9000000000.0, 9000000000.0, 9000000000.0, 9000000000.0], v1000, z0, tool0]
    MoveL [[162,107,10],[30,-30,30],[0, 0, 0, 0],[9000000000.0, 9000000000.0, 9000000000.0, 9000000000.0, 9000000000.0, 9000000000.0], v1000, z0, tool0]
    MoveL [[147,92,5],[30,-30,30],[0, 0, 0, 0],[9000000000.0, 9000000000.0, 9000000000.0, 9000000000.0, 9000000000.0, 9000000000.0],  v1000, z0, tool0]
    MoveL [[147,92,10],[30,-30,30],[0, 0, 0, 0],[9000000000.0, 9000000000.0, 9000000000.0, 9000000000.0, 9000000000.0, 9000000000.0], v1000, z0, tool0]
    MoveL [[226,93,10],[30,-30,30],[0, 0, 0, 0],[9000000000.0, 9000000000.0, 9000000000.0, 9000000000.0, 9000000000.0, 9000000000.0], v1000, z0, tool0]
    MoveL [[209,108,5],[30,-30,30],[0, 0, 0, 0],[9000000000.0, 9000000000.0, 9000000000.0, 9000000000.0, 9000000000.0, 9000000000.0],  v1000, z0, tool0]
    MoveL [[209,108,10],[30,-30,30],[0, 0, 0, 0],[9000000000.0, 9000000000.0, 9000000000.0, 9000000000.0, 9000000000.0, 9000000000.0], v1000, z0, tool0]
    MoveL [[280,92,10],[30,-30,30],[0, 0, 0, 0],[9000000000.0, 9000000000.0, 9000000000.0, 9000000000.0, 9000000000.0, 9000000000.0], v1000, z0, tool0]
    MoveL [[277,99,5],[30,-30,30],[0, 0, 0, 0],[9000000000.0, 9000000000.0, 9000000000.0, 9000000000.0, 9000000000.0, 9000000000.0],  v1000, z0, tool0]
    MoveL [[277,99,10],[30,-30,30],[0, 0, 0, 0],[9000000000.0, 9000000000.0, 9000000000.0, 9000000000.0, 9000000000.0, 9000000000.0], v1000, z0, tool0]
    MoveL [[311,93,10],[30,-30,30],[0, 0, 0, 0],[9000000000.0, 9000000000.0, 9000000000.0, 9000000000.0, 9000000000.0, 9000000000.0], v1000, z0, tool0]
    MoveL [[294,98,5],[30,-30,30],[0, 0, 0, 0],[9000000000.0, 9000000000.0, 9000000000.0, 9000000000.0, 9000000000.0, 9000000000.0],  v1000, z0, tool0]
    MoveL [[294,98,10],[30,-30,30],[0, 0, 0, 0],[9000000000.0, 9000000000.0, 9000000000.0, 9000000000.0, 9000000000.0, 9000000000.0], v1000, z0, tool0]
    MoveL [[146,93,10],[30,-30,30],[0, 0, 0, 0],[9000000000.0, 9000000000.0, 9000000000.0, 9000000000.0, 9000000000.0, 9000000000.0], v1000, z0, tool0]
    MoveL [[123,128,5],[30,-30,30],[0, 0, 0, 0],[9000000000.0, 9000000000.0, 9000000000.0, 9000000000.0, 9000000000.0, 9000000000.0],  v1000, z0, tool0]
    MoveL [[123,128,10],[30,-30,30],[0, 0, 0, 0],[9000000000.0, 9000000000.0, 9000000000.0, 9000000000.0, 9000000000.0, 9000000000.0], v1000, z0, tool0]
    MoveL [[248,99,10],[30,-30,30],[0, 0, 0, 0],[9000000000.0, 9000000000.0, 9000000000.0, 9000000000.0, 9000000000.0, 9000000000.0], v1000, z0, tool0]
    MoveL [[243,93,5],[30,-30,30],[0, 0, 0, 0],[9000000000.0, 9000000000.0, 9000000000.0, 9000000000.0, 9000000000.0, 9000000000.0],  v1000, z0, tool0]
    MoveL [[243,93,10],[30,-30,30],[0, 0, 0, 0],[9000000000.0, 9000000000.0, 9000000000.0, 9000000000.0, 9000000000.0, 9000000000.0], v1000, z0, tool0]
    MoveL [[260,96,10],[30,-30,30],[0, 0, 0, 0],[9000000000.0, 9000000000.0, 9000000000.0, 9000000000.0, 9000000000.0, 9000000000.0], v1000, z0, tool0]
    MoveL [[250,100,5],[30,-30,30],[0, 0, 0, 0],[9000000000.0, 9000000000.0, 9000000000.0, 9000000000.0, 9000000000.0, 9000000000.0],  v1000, z0, tool0]
    MoveL [[250,100,10],[30,-30,30],[0, 0, 0, 0],[9000000000.0, 9000000000.0, 9000000000.0, 9000000000.0, 9000000000.0, 9000000000.0], v1000, z0, tool0]
    MoveL [[266,103,10],[30,-30,30],[0, 0, 0, 0],[9000000000.0, 9000000000.0, 9000000000.0, 9000000000.0, 9000000000.0, 9000000000.0], v1000, z0, tool0]
    MoveL [[269,94,5],[30,-30,30],[0, 0, 0, 0],[9000000000.0, 9000000000.0, 9000000000.0, 9000000000.0, 9000000000.0, 9000000000.0],  v1000, z0, tool0]
    MoveL [[269,94,10],[30,-30,30],[0, 0, 0, 0],[9000000000.0, 9000000000.0, 9000000000.0, 9000000000.0, 9000000000.0, 9000000000.0], v1000, z0, tool0]
    MoveL [[323,94,10],[30,-30,30],[0, 0, 0, 0],[9000000000.0, 9000000000.0, 9000000000.0, 9000000000.0, 9000000000.0, 9000000000.0], v1000, z0, tool0]
    MoveL [[317,106,5],[30,-30,30],[0, 0, 0, 0],[9000000000.0, 9000000000.0, 9000000000.0, 9000000000.0, 9000000000.0, 9000000000.0],  v1000, z0, tool0]
    MoveL [[317,106,10],[30,-30,30],[0, 0, 0, 0],[9000000000.0, 9000000000.0, 9000000000.0, 9000000000.0, 9000000000.0, 9000000000.0], v1000, z0, tool0]
    MoveL [[320,104,10],[30,-30,30],[0, 0, 0, 0],[9000000000.0, 9000000000.0, 9000000000.0, 9000000000.0, 9000000000.0, 9000000000.0], v1000, z0, tool0]
    MoveL [[328,95,5],[30,-30,30],[0, 0, 0, 0],[9000000000.0, 9000000000.0, 9000000000.0, 9000000000.0, 9000000000.0, 9000000000.0],  v1000, z0, tool0]
    MoveL [[328,95,10],[30,-30,30],[0, 0, 0, 0],[9000000000.0, 9000000000.0, 9000000000.0, 9000000000.0, 9000000000.0, 9000000000.0], v1000, z0, tool0]
    MoveL [[389,102,10],[30,-30,30],[0, 0, 0, 0],[9000000000.0, 9000000000.0, 9000000000.0, 9000000000.0, 9000000000.0, 9000000000.0], v1000, z0, tool0]
    MoveL [[382,94,5],[30,-30,30],[0, 0, 0, 0],[9000000000.0, 9000000000.0, 9000000000.0, 9000000000.0, 9000000000.0, 9000000000.0],  v1000, z0, tool0]
    MoveL [[382,94,10],[30,-30,30],[0, 0, 0, 0],[9000000000.0, 9000000000.0, 9000000000.0, 9000000000.0, 9000000000.0, 9000000000.0], v1000, z0, tool0]
    MoveL [[298,101,10],[30,-30,30],[0, 0, 0, 0],[9000000000.0, 9000000000.0, 9000000000.0, 9000000000.0, 9000000000.0, 9000000000.0], v1000, z0, tool0]
    MoveL [[306,97,5],[30,-30,30],[0, 0, 0, 0],[9000000000.0, 9000000000.0, 9000000000.0, 9000000000.0, 9000000000.0, 9000000000.0],  v1000, z0, tool0]
    MoveL [[306,97,10],[30,-30,30],[0, 0, 0, 0],[9000000000.0, 9000000000.0, 9000000000.0, 9000000000.0, 9000000000.0, 9000000000.0], v1000, z0, tool0]
    MoveL [[418,98,10],[30,-30,30],[0, 0, 0, 0],[9000000000.0, 9000000000.0, 9000000000.0, 9000000000.0, 9000000000.0, 9000000000.0], v1000, z0, tool0]
    MoveL [[395,114,5],[30,-30,30],[0, 0, 0, 0],[9000000000.0, 9000000000.0, 9000000000.0, 9000000000.0, 9000000000.0, 9000000000.0],  v1000, z0, tool0]
    MoveL [[395,114,10],[30,-30,30],[0, 0, 0, 0],[9000000000.0, 9000000000.0, 9000000000.0, 9000000000.0, 9000000000.0, 9000000000.0], v1000, z0, tool0]
    MoveL [[432,114,10],[30,-30,30],[0, 0, 0, 0],[9000000000.0, 9000000000.0, 9000000000.0, 9000000000.0, 9000000000.0, 9000000000.0], v1000, z0, tool0]
    MoveL [[419,97,5],[30,-30,30],[0, 0, 0, 0],[9000000000.0, 9000000000.0, 9000000000.0, 9000000000.0, 9000000000.0, 9000000000.0],  v1000, z0, tool0]
    MoveL [[419,97,10],[30,-30,30],[0, 0, 0, 0],[9000000000.0, 9000000000.0, 9000000000.0, 9000000000.0, 9000000000.0, 9000000000.0], v1000, z0, tool0]
    MoveL [[155,97,10],[30,-30,30],[0, 0, 0, 0],[9000000000.0, 9000000000.0, 9000000000.0, 9000000000.0, 9000000000.0, 9000000000.0], v1000, z0, tool0]
    MoveL [[156,98,5],[30,-30,30],[0, 0, 0, 0],[9000000000.0, 9000000000.0, 9000000000.0, 9000000000.0, 9000000000.0, 9000000000.0],  v1000, z0, tool0]
    MoveL [[156,98,10],[30,-30,30],[0, 0, 0, 0],[9000000000.0, 9000000000.0, 9000000000.0, 9000000000.0, 9000000000.0, 9000000000.0], v1000, z0, tool0]
    MoveL [[252,111,10],[30,-30,30],[0, 0, 0, 0],[9000000000.0, 9000000000.0, 9000000000.0, 9000000000.0, 9000000000.0, 9000000000.0], v1000, z0, tool0]
    MoveL [[261,97,5],[30,-30,30],[0, 0, 0, 0],[9000000000.0, 9000000000.0, 9000000000.0, 9000000000.0, 9000000000.0, 9000000000.0],  v1000, z0, tool0]
    MoveL [[261,97,10],[30,-30,30],[0, 0, 0, 0],[9000000000.0, 9000000000.0, 9000000000.0, 9000000000.0, 9000000000.0, 9000000000.0], v1000, z0, tool0]
    MoveL [[296,104,10],[30,-30,30],[0, 0, 0, 0],[9000000000.0, 9000000000.0, 9000000000.0, 9000000000.0, 9000000000.0, 9000000000.0], v1000, z0, tool0]
    MoveL [[286,97,5],[30,-30,30],[0, 0, 0, 0],[9000000000.0, 9000000000.0, 9000000000.0, 9000000000.0, 9000000000.0, 9000000000.0],  v1000, z0, tool0]
    MoveL [[286,97,10],[30,-30,30],[0, 0, 0, 0],[9000000000.0, 9000000000.0, 9000000000.0, 9000000000.0, 9000000000.0, 9000000000.0], v1000, z0, tool0]
    MoveL [[330,108,10],[30,-30,30],[0, 0, 0, 0],[9000000000.0, 9000000000.0, 9000000000.0, 9000000000.0, 9000000000.0, 9000000000.0], v1000, z0, tool0]
    MoveL [[333,97,5],[30,-30,30],[0, 0, 0, 0],[9000000000.0, 9000000000.0, 9000000000.0, 9000000000.0, 9000000000.0, 9000000000.0],  v1000, z0, tool0]
    MoveL [[333,97,10],[30,-30,30],[0, 0, 0, 0],[9000000000.0, 9000000000.0, 9000000000.0, 9000000000.0, 9000000000.0, 9000000000.0], v1000, z0, tool0]
    MoveL [[378,110,10],[30,-30,30],[0, 0, 0, 0],[9000000000.0, 9000000000.0, 9000000000.0, 9000000000.0, 9000000000.0, 9000000000.0], v1000, z0, tool0]
    MoveL [[362,98,5],[30,-30,30],[0, 0, 0, 0],[9000000000.0, 9000000000.0, 9000000000.0, 9000000000.0, 9000000000.0, 9000000000.0],  v1000, z0, tool0]
    MoveL [[362,98,10],[30,-30,30],[0, 0, 0, 0],[9000000000.0, 9000000000.0, 9000000000.0, 9000000000.0, 9000000000.0, 9000000000.0], v1000, z0, tool0]
    MoveL [[126,139,10],[30,-30,30],[0, 0, 0, 0],[9000000000.0, 9000000000.0, 9000000000.0, 9000000000.0, 9000000000.0, 9000000000.0], v1000, z0, tool0]
    MoveL [[150,98,5],[30,-30,30],[0, 0, 0, 0],[9000000000.0, 9000000000.0, 9000000000.0, 9000000000.0, 9000000000.0, 9000000000.0],  v1000, z0, tool0]
    MoveL [[150,98,10],[30,-30,30],[0, 0, 0, 0],[9000000000.0, 9000000000.0, 9000000000.0, 9000000000.0, 9000000000.0, 9000000000.0], v1000, z0, tool0]
    MoveL [[193,99,10],[30,-30,30],[0, 0, 0, 0],[9000000000.0, 9000000000.0, 9000000000.0, 9000000000.0, 9000000000.0, 9000000000.0], v1000, z0, tool0]
    MoveL [[190,107,5],[30,-30,30],[0, 0, 0, 0],[9000000000.0, 9000000000.0, 9000000000.0, 9000000000.0, 9000000000.0, 9000000000.0],  v1000, z0, tool0]
    MoveL [[190,107,10],[30,-30,30],[0, 0, 0, 0],[9000000000.0, 9000000000.0, 9000000000.0, 9000000000.0, 9000000000.0, 9000000000.0], v1000, z0, tool0]
    MoveL [[279,99,10],[30,-30,30],[0, 0, 0, 0],[9000000000.0, 9000000000.0, 9000000000.0, 9000000000.0, 9000000000.0, 9000000000.0], v1000, z0, tool0]
    MoveL [[261,110,5],[30,-30,30],[0, 0, 0, 0],[9000000000.0, 9000000000.0, 9000000000.0, 9000000000.0, 9000000000.0, 9000000000.0],  v1000, z0, tool0]
    MoveL [[261,110,10],[30,-30,30],[0, 0, 0, 0],[9000000000.0, 9000000000.0, 9000000000.0, 9000000000.0, 9000000000.0, 9000000000.0], v1000, z0, tool0]
    MoveL [[308,98,10],[30,-30,30],[0, 0, 0, 0],[9000000000.0, 9000000000.0, 9000000000.0, 9000000000.0, 9000000000.0, 9000000000.0], v1000, z0, tool0]
    MoveL [[301,104,5],[30,-30,30],[0, 0, 0, 0],[9000000000.0, 9000000000.0, 9000000000.0, 9000000000.0, 9000000000.0, 9000000000.0],  v1000, z0, tool0]
    MoveL [[301,104,10],[30,-30,30],[0, 0, 0, 0],[9000000000.0, 9000000000.0, 9000000000.0, 9000000000.0, 9000000000.0, 9000000000.0], v1000, z0, tool0]
    MoveL [[338,99,10],[30,-30,30],[0, 0, 0, 0],[9000000000.0, 9000000000.0, 9000000000.0, 9000000000.0, 9000000000.0, 9000000000.0], v1000, z0, tool0]
    MoveL [[325,122,5],[30,-30,30],[0, 0, 0, 0],[9000000000.0, 9000000000.0, 9000000000.0, 9000000000.0, 9000000000.0, 9000000000.0],  v1000, z0, tool0]
    MoveL [[325,122,10],[30,-30,30],[0, 0, 0, 0],[9000000000.0, 9000000000.0, 9000000000.0, 9000000000.0, 9000000000.0, 9000000000.0], v1000, z0, tool0]
    MoveL [[157,100,10],[30,-30,30],[0, 0, 0, 0],[9000000000.0, 9000000000.0, 9000000000.0, 9000000000.0, 9000000000.0, 9000000000.0], v1000, z0, tool0]
    MoveL [[184,110,5],[30,-30,30],[0, 0, 0, 0],[9000000000.0, 9000000000.0, 9000000000.0, 9000000000.0, 9000000000.0, 9000000000.0],  v1000, z0, tool0]
    MoveL [[184,110,10],[30,-30,30],[0, 0, 0, 0],[9000000000.0, 9000000000.0, 9000000000.0, 9000000000.0, 9000000000.0, 9000000000.0], v1000, z0, tool0]
    MoveL [[216,105,10],[30,-30,30],[0, 0, 0, 0],[9000000000.0, 9000000000.0, 9000000000.0, 9000000000.0, 9000000000.0, 9000000000.0], v1000, z0, tool0]
    MoveL [[227,102,5],[30,-30,30],[0, 0, 0, 0],[9000000000.0, 9000000000.0, 9000000000.0, 9000000000.0, 9000000000.0, 9000000000.0],  v1000, z0, tool0]
    MoveL [[227,102,10],[30,-30,30],[0, 0, 0, 0],[9000000000.0, 9000000000.0, 9000000000.0, 9000000000.0, 9000000000.0, 9000000000.0], v1000, z0, tool0]
    MoveL [[192,109,10],[30,-30,30],[0, 0, 0, 0],[9000000000.0, 9000000000.0, 9000000000.0, 9000000000.0, 9000000000.0, 9000000000.0], v1000, z0, tool0]
    MoveL [[211,103,5],[30,-30,30],[0, 0, 0, 0],[9000000000.0, 9000000000.0, 9000000000.0, 9000000000.0, 9000000000.0, 9000000000.0],  v1000, z0, tool0]
    MoveL [[211,103,10],[30,-30,30],[0, 0, 0, 0],[9000000000.0, 9000000000.0, 9000000000.0, 9000000000.0, 9000000000.0, 9000000000.0], v1000, z0, tool0]
    MoveL [[279,102,10],[30,-30,30],[0, 0, 0, 0],[9000000000.0, 9000000000.0, 9000000000.0, 9000000000.0, 9000000000.0, 9000000000.0], v1000, z0, tool0]
    MoveL [[285,108,5],[30,-30,30],[0, 0, 0, 0],[9000000000.0, 9000000000.0, 9000000000.0, 9000000000.0, 9000000000.0, 9000000000.0],  v1000, z0, tool0]
    MoveL [[285,108,10],[30,-30,30],[0, 0, 0, 0],[9000000000.0, 9000000000.0, 9000000000.0, 9000000000.0, 9000000000.0, 9000000000.0], v1000, z0, tool0]
    MoveL [[383,103,10],[30,-30,30],[0, 0, 0, 0],[9000000000.0, 9000000000.0, 9000000000.0, 9000000000.0, 9000000000.0, 9000000000.0], v1000, z0, tool0]
    MoveL [[390,107,5],[30,-30,30],[0, 0, 0, 0],[9000000000.0, 9000000000.0, 9000000000.0, 9000000000.0, 9000000000.0, 9000000000.0],  v1000, z0, tool0]
    MoveL [[390,107,10],[30,-30,30],[0, 0, 0, 0],[9000000000.0, 9000000000.0, 9000000000.0, 9000000000.0, 9000000000.0, 9000000000.0], v1000, z0, tool0]
    MoveL [[303,110,10],[30,-30,30],[0, 0, 0, 0],[9000000000.0, 9000000000.0, 9000000000.0, 9000000000.0, 9000000000.0, 9000000000.0], v1000, z0, tool0]
    MoveL [[308,103,5],[30,-30,30],[0, 0, 0, 0],[9000000000.0, 9000000000.0, 9000000000.0, 9000000000.0, 9000000000.0, 9000000000.0],  v1000, z0, tool0]
    MoveL [[308,103,10],[30,-30,30],[0, 0, 0, 0],[9000000000.0, 9000000000.0, 9000000000.0, 9000000000.0, 9000000000.0, 9000000000.0], v1000, z0, tool0]
    MoveL [[432,103,10],[30,-30,30],[0, 0, 0, 0],[9000000000.0, 9000000000.0, 9000000000.0, 9000000000.0, 9000000000.0, 9000000000.0], v1000, z0, tool0]
    MoveL [[449,128,5],[30,-30,30],[0, 0, 0, 0],[9000000000.0, 9000000000.0, 9000000000.0, 9000000000.0, 9000000000.0, 9000000000.0],  v1000, z0, tool0]
    MoveL [[449,128,10],[30,-30,30],[0, 0, 0, 0],[9000000000.0, 9000000000.0, 9000000000.0, 9000000000.0, 9000000000.0, 9000000000.0], v1000, z0, tool0]
    MoveL [[282,110,10],[30,-30,30],[0, 0, 0, 0],[9000000000.0, 9000000000.0, 9000000000.0, 9000000000.0, 9000000000.0, 9000000000.0], v1000, z0, tool0]
    MoveL [[276,104,5],[30,-30,30],[0, 0, 0, 0],[9000000000.0, 9000000000.0, 9000000000.0, 9000000000.0, 9000000000.0, 9000000000.0],  v1000, z0, tool0]
    MoveL [[276,104,10],[30,-30,30],[0, 0, 0, 0],[9000000000.0, 9000000000.0, 9000000000.0, 9000000000.0, 9000000000.0, 9000000000.0], v1000, z0, tool0]
    MoveL [[323,115,10],[30,-30,30],[0, 0, 0, 0],[9000000000.0, 9000000000.0, 9000000000.0, 9000000000.0, 9000000000.0, 9000000000.0], v1000, z0, tool0]
    MoveL [[330,106,5],[30,-30,30],[0, 0, 0, 0],[9000000000.0, 9000000000.0, 9000000000.0, 9000000000.0, 9000000000.0, 9000000000.0],  v1000, z0, tool0]
    MoveL [[330,106,10],[30,-30,30],[0, 0, 0, 0],[9000000000.0, 9000000000.0, 9000000000.0, 9000000000.0, 9000000000.0, 9000000000.0], v1000, z0, tool0]
    MoveL [[456,128,10],[30,-30,30],[0, 0, 0, 0],[9000000000.0, 9000000000.0, 9000000000.0, 9000000000.0, 9000000000.0, 9000000000.0], v1000, z0, tool0]
    MoveL [[442,104,5],[30,-30,30],[0, 0, 0, 0],[9000000000.0, 9000000000.0, 9000000000.0, 9000000000.0, 9000000000.0, 9000000000.0],  v1000, z0, tool0]
    MoveL [[442,104,10],[30,-30,30],[0, 0, 0, 0],[9000000000.0, 9000000000.0, 9000000000.0, 9000000000.0, 9000000000.0, 9000000000.0], v1000, z0, tool0]
    MoveL [[174,111,10],[30,-30,30],[0, 0, 0, 0],[9000000000.0, 9000000000.0, 9000000000.0, 9000000000.0, 9000000000.0, 9000000000.0], v1000, z0, tool0]
    MoveL [[163,107,5],[30,-30,30],[0, 0, 0, 0],[9000000000.0, 9000000000.0, 9000000000.0, 9000000000.0, 9000000000.0, 9000000000.0],  v1000, z0, tool0]
    MoveL [[163,107,10],[30,-30,30],[0, 0, 0, 0],[9000000000.0, 9000000000.0, 9000000000.0, 9000000000.0, 9000000000.0, 9000000000.0], v1000, z0, tool0]
    MoveL [[216,118,10],[30,-30,30],[0, 0, 0, 0],[9000000000.0, 9000000000.0, 9000000000.0, 9000000000.0, 9000000000.0, 9000000000.0], v1000, z0, tool0]
    MoveL [[213,106,5],[30,-30,30],[0, 0, 0, 0],[9000000000.0, 9000000000.0, 9000000000.0, 9000000000.0, 9000000000.0, 9000000000.0],  v1000, z0, tool0]
    MoveL [[213,106,10],[30,-30,30],[0, 0, 0, 0],[9000000000.0, 9000000000.0, 9000000000.0, 9000000000.0, 9000000000.0, 9000000000.0], v1000, z0, tool0]
    MoveL [[419,106,10],[30,-30,30],[0, 0, 0, 0],[9000000000.0, 9000000000.0, 9000000000.0, 9000000000.0, 9000000000.0, 9000000000.0], v1000, z0, tool0]
    MoveL [[427,117,5],[30,-30,30],[0, 0, 0, 0],[9000000000.0, 9000000000.0, 9000000000.0, 9000000000.0, 9000000000.0, 9000000000.0],  v1000, z0, tool0]
    MoveL [[427,117,10],[30,-30,30],[0, 0, 0, 0],[9000000000.0, 9000000000.0, 9000000000.0, 9000000000.0, 9000000000.0, 9000000000.0], v1000, z0, tool0]
    MoveL [[206,108,10],[30,-30,30],[0, 0, 0, 0],[9000000000.0, 9000000000.0, 9000000000.0, 9000000000.0, 9000000000.0, 9000000000.0], v1000, z0, tool0]
    MoveL [[202,112,5],[30,-30,30],[0, 0, 0, 0],[9000000000.0, 9000000000.0, 9000000000.0, 9000000000.0, 9000000000.0, 9000000000.0],  v1000, z0, tool0]
    MoveL [[202,112,10],[30,-30,30],[0, 0, 0, 0],[9000000000.0, 9000000000.0, 9000000000.0, 9000000000.0, 9000000000.0, 9000000000.0], v1000, z0, tool0]
    MoveL [[210,107,10],[30,-30,30],[0, 0, 0, 0],[9000000000.0, 9000000000.0, 9000000000.0, 9000000000.0, 9000000000.0, 9000000000.0], v1000, z0, tool0]
    MoveL [[213,123,5],[30,-30,30],[0, 0, 0, 0],[9000000000.0, 9000000000.0, 9000000000.0, 9000000000.0, 9000000000.0, 9000000000.0],  v1000, z0, tool0]
    MoveL [[213,123,10],[30,-30,30],[0, 0, 0, 0],[9000000000.0, 9000000000.0, 9000000000.0, 9000000000.0, 9000000000.0, 9000000000.0], v1000, z0, tool0]
    MoveL [[217,107,10],[30,-30,30],[0, 0, 0, 0],[9000000000.0, 9000000000.0, 9000000000.0, 9000000000.0, 9000000000.0, 9000000000.0], v1000, z0, tool0]
    MoveL [[218,116,5],[30,-30,30],[0, 0, 0, 0],[9000000000.0, 9000000000.0, 9000000000.0, 9000000000.0, 9000000000.0, 9000000000.0],  v1000, z0, tool0]
    MoveL [[218,116,10],[30,-30,30],[0, 0, 0, 0],[9000000000.0, 9000000000.0, 9000000000.0, 9000000000.0, 9000000000.0, 9000000000.0], v1000, z0, tool0]
    MoveL [[230,108,10],[30,-30,30],[0, 0, 0, 0],[9000000000.0, 9000000000.0, 9000000000.0, 9000000000.0, 9000000000.0, 9000000000.0], v1000, z0, tool0]
    MoveL [[228,114,5],[30,-30,30],[0, 0, 0, 0],[9000000000.0, 9000000000.0, 9000000000.0, 9000000000.0, 9000000000.0, 9000000000.0],  v1000, z0, tool0]
    MoveL [[228,114,10],[30,-30,30],[0, 0, 0, 0],[9000000000.0, 9000000000.0, 9000000000.0, 9000000000.0, 9000000000.0, 9000000000.0], v1000, z0, tool0]
    MoveL [[285,108,10],[30,-30,30],[0, 0, 0, 0],[9000000000.0, 9000000000.0, 9000000000.0, 9000000000.0, 9000000000.0, 9000000000.0], v1000, z0, tool0]
    MoveL [[301,112,5],[30,-30,30],[0, 0, 0, 0],[9000000000.0, 9000000000.0, 9000000000.0, 9000000000.0, 9000000000.0, 9000000000.0],  v1000, z0, tool0]
    MoveL [[301,112,10],[30,-30,30],[0, 0, 0, 0],[9000000000.0, 9000000000.0, 9000000000.0, 9000000000.0, 9000000000.0, 9000000000.0], v1000, z0, tool0]
    MoveL [[225,118,10],[30,-30,30],[0, 0, 0, 0],[9000000000.0, 9000000000.0, 9000000000.0, 9000000000.0, 9000000000.0, 9000000000.0], v1000, z0, tool0]
    MoveL [[226,108,5],[30,-30,30],[0, 0, 0, 0],[9000000000.0, 9000000000.0, 9000000000.0, 9000000000.0, 9000000000.0, 9000000000.0],  v1000, z0, tool0]
    MoveL [[226,108,10],[30,-30,30],[0, 0, 0, 0],[9000000000.0, 9000000000.0, 9000000000.0, 9000000000.0, 9000000000.0, 9000000000.0], v1000, z0, tool0]
    MoveL [[392,125,10],[30,-30,30],[0, 0, 0, 0],[9000000000.0, 9000000000.0, 9000000000.0, 9000000000.0, 9000000000.0, 9000000000.0], v1000, z0, tool0]
    MoveL [[377,109,5],[30,-30,30],[0, 0, 0, 0],[9000000000.0, 9000000000.0, 9000000000.0, 9000000000.0, 9000000000.0, 9000000000.0],  v1000, z0, tool0]
    MoveL [[377,109,10],[30,-30,30],[0, 0, 0, 0],[9000000000.0, 9000000000.0, 9000000000.0, 9000000000.0, 9000000000.0, 9000000000.0], v1000, z0, tool0]
    MoveL [[214,128,10],[30,-30,30],[0, 0, 0, 0],[9000000000.0, 9000000000.0, 9000000000.0, 9000000000.0, 9000000000.0, 9000000000.0], v1000, z0, tool0]
    MoveL [[207,110,5],[30,-30,30],[0, 0, 0, 0],[9000000000.0, 9000000000.0, 9000000000.0, 9000000000.0, 9000000000.0, 9000000000.0],  v1000, z0, tool0]
    MoveL [[207,110,10],[30,-30,30],[0, 0, 0, 0],[9000000000.0, 9000000000.0, 9000000000.0, 9000000000.0, 9000000000.0, 9000000000.0], v1000, z0, tool0]
    MoveL [[229,115,10],[30,-30,30],[0, 0, 0, 0],[9000000000.0, 9000000000.0, 9000000000.0, 9000000000.0, 9000000000.0, 9000000000.0], v1000, z0, tool0]
    MoveL [[251,111,5],[30,-30,30],[0, 0, 0, 0],[9000000000.0, 9000000000.0, 9000000000.0, 9000000000.0, 9000000000.0, 9000000000.0],  v1000, z0, tool0]
    MoveL [[251,111,10],[30,-30,30],[0, 0, 0, 0],[9000000000.0, 9000000000.0, 9000000000.0, 9000000000.0, 9000000000.0, 9000000000.0], v1000, z0, tool0]
    MoveL [[266,114,10],[30,-30,30],[0, 0, 0, 0],[9000000000.0, 9000000000.0, 9000000000.0, 9000000000.0, 9000000000.0, 9000000000.0], v1000, z0, tool0]
    MoveL [[275,110,5],[30,-30,30],[0, 0, 0, 0],[9000000000.0, 9000000000.0, 9000000000.0, 9000000000.0, 9000000000.0, 9000000000.0],  v1000, z0, tool0]
    MoveL [[275,110,10],[30,-30,30],[0, 0, 0, 0],[9000000000.0, 9000000000.0, 9000000000.0, 9000000000.0, 9000000000.0, 9000000000.0], v1000, z0, tool0]
    MoveL [[317,111,10],[30,-30,30],[0, 0, 0, 0],[9000000000.0, 9000000000.0, 9000000000.0, 9000000000.0, 9000000000.0, 9000000000.0], v1000, z0, tool0]
    MoveL [[303,113,5],[30,-30,30],[0, 0, 0, 0],[9000000000.0, 9000000000.0, 9000000000.0, 9000000000.0, 9000000000.0, 9000000000.0],  v1000, z0, tool0]
    MoveL [[303,113,10],[30,-30,30],[0, 0, 0, 0],[9000000000.0, 9000000000.0, 9000000000.0, 9000000000.0, 9000000000.0, 9000000000.0], v1000, z0, tool0]
    MoveL [[152,111,10],[30,-30,30],[0, 0, 0, 0],[9000000000.0, 9000000000.0, 9000000000.0, 9000000000.0, 9000000000.0, 9000000000.0], v1000, z0, tool0]
    MoveL [[149,118,5],[30,-30,30],[0, 0, 0, 0],[9000000000.0, 9000000000.0, 9000000000.0, 9000000000.0, 9000000000.0, 9000000000.0],  v1000, z0, tool0]
    MoveL [[149,118,10],[30,-30,30],[0, 0, 0, 0],[9000000000.0, 9000000000.0, 9000000000.0, 9000000000.0, 9000000000.0, 9000000000.0], v1000, z0, tool0]
    MoveL [[178,126,10],[30,-30,30],[0, 0, 0, 0],[9000000000.0, 9000000000.0, 9000000000.0, 9000000000.0, 9000000000.0, 9000000000.0], v1000, z0, tool0]
    MoveL [[153,112,5],[30,-30,30],[0, 0, 0, 0],[9000000000.0, 9000000000.0, 9000000000.0, 9000000000.0, 9000000000.0, 9000000000.0],  v1000, z0, tool0]
    MoveL [[153,112,10],[30,-30,30],[0, 0, 0, 0],[9000000000.0, 9000000000.0, 9000000000.0, 9000000000.0, 9000000000.0, 9000000000.0], v1000, z0, tool0]
    MoveL [[197,113,10],[30,-30,30],[0, 0, 0, 0],[9000000000.0, 9000000000.0, 9000000000.0, 9000000000.0, 9000000000.0, 9000000000.0], v1000, z0, tool0]
    MoveL [[175,112,5],[30,-30,30],[0, 0, 0, 0],[9000000000.0, 9000000000.0, 9000000000.0, 9000000000.0, 9000000000.0, 9000000000.0],  v1000, z0, tool0]
    MoveL [[175,112,10],[30,-30,30],[0, 0, 0, 0],[9000000000.0, 9000000000.0, 9000000000.0, 9000000000.0, 9000000000.0, 9000000000.0], v1000, z0, tool0]
    MoveL [[284,112,10],[30,-30,30],[0, 0, 0, 0],[9000000000.0, 9000000000.0, 9000000000.0, 9000000000.0, 9000000000.0, 9000000000.0], v1000, z0, tool0]
    MoveL [[272,115,5],[30,-30,30],[0, 0, 0, 0],[9000000000.0, 9000000000.0, 9000000000.0, 9000000000.0, 9000000000.0, 9000000000.0],  v1000, z0, tool0]
    MoveL [[272,115,10],[30,-30,30],[0, 0, 0, 0],[9000000000.0, 9000000000.0, 9000000000.0, 9000000000.0, 9000000000.0, 9000000000.0], v1000, z0, tool0]
    MoveL [[295,113,10],[30,-30,30],[0, 0, 0, 0],[9000000000.0, 9000000000.0, 9000000000.0, 9000000000.0, 9000000000.0, 9000000000.0], v1000, z0, tool0]
    MoveL [[285,112,5],[30,-30,30],[0, 0, 0, 0],[9000000000.0, 9000000000.0, 9000000000.0, 9000000000.0, 9000000000.0, 9000000000.0],  v1000, z0, tool0]
    MoveL [[285,112,10],[30,-30,30],[0, 0, 0, 0],[9000000000.0, 9000000000.0, 9000000000.0, 9000000000.0, 9000000000.0, 9000000000.0], v1000, z0, tool0]
    MoveL [[423,119,10],[30,-30,30],[0, 0, 0, 0],[9000000000.0, 9000000000.0, 9000000000.0, 9000000000.0, 9000000000.0, 9000000000.0], v1000, z0, tool0]
    MoveL [[415,110,5],[30,-30,30],[0, 0, 0, 0],[9000000000.0, 9000000000.0, 9000000000.0, 9000000000.0, 9000000000.0, 9000000000.0],  v1000, z0, tool0]
    MoveL [[415,110,10],[30,-30,30],[0, 0, 0, 0],[9000000000.0, 9000000000.0, 9000000000.0, 9000000000.0, 9000000000.0, 9000000000.0], v1000, z0, tool0]
    MoveL [[404,117,10],[30,-30,30],[0, 0, 0, 0],[9000000000.0, 9000000000.0, 9000000000.0, 9000000000.0, 9000000000.0, 9000000000.0], v1000, z0, tool0]
    MoveL [[410,113,5],[30,-30,30],[0, 0, 0, 0],[9000000000.0, 9000000000.0, 9000000000.0, 9000000000.0, 9000000000.0, 9000000000.0],  v1000, z0, tool0]
    MoveL [[410,113,10],[30,-30,30],[0, 0, 0, 0],[9000000000.0, 9000000000.0, 9000000000.0, 9000000000.0, 9000000000.0, 9000000000.0], v1000, z0, tool0]
    MoveL [[410,112,10],[30,-30,30],[0, 0, 0, 0],[9000000000.0, 9000000000.0, 9000000000.0, 9000000000.0, 9000000000.0, 9000000000.0], v1000, z0, tool0]
    MoveL [[418,123,5],[30,-30,30],[0, 0, 0, 0],[9000000000.0, 9000000000.0, 9000000000.0, 9000000000.0, 9000000000.0, 9000000000.0],  v1000, z0, tool0]
    MoveL [[418,123,10],[30,-30,30],[0, 0, 0, 0],[9000000000.0, 9000000000.0, 9000000000.0, 9000000000.0, 9000000000.0, 9000000000.0], v1000, z0, tool0]
    MoveL [[196,115,10],[30,-30,30],[0, 0, 0, 0],[9000000000.0, 9000000000.0, 9000000000.0, 9000000000.0, 9000000000.0, 9000000000.0], v1000, z0, tool0]
    MoveL [[189,124,5],[30,-30,30],[0, 0, 0, 0],[9000000000.0, 9000000000.0, 9000000000.0, 9000000000.0, 9000000000.0, 9000000000.0],  v1000, z0, tool0]
    MoveL [[189,124,10],[30,-30,30],[0, 0, 0, 0],[9000000000.0, 9000000000.0, 9000000000.0, 9000000000.0, 9000000000.0, 9000000000.0], v1000, z0, tool0]
    MoveL [[131,116,10],[30,-30,30],[0, 0, 0, 0],[9000000000.0, 9000000000.0, 9000000000.0, 9000000000.0, 9000000000.0, 9000000000.0], v1000, z0, tool0]
    MoveL [[129,120,5],[30,-30,30],[0, 0, 0, 0],[9000000000.0, 9000000000.0, 9000000000.0, 9000000000.0, 9000000000.0, 9000000000.0],  v1000, z0, tool0]
    MoveL [[129,120,10],[30,-30,30],[0, 0, 0, 0],[9000000000.0, 9000000000.0, 9000000000.0, 9000000000.0, 9000000000.0, 9000000000.0], v1000, z0, tool0]
    MoveL [[204,130,10],[30,-30,30],[0, 0, 0, 0],[9000000000.0, 9000000000.0, 9000000000.0, 9000000000.0, 9000000000.0, 9000000000.0], v1000, z0, tool0]
    MoveL [[198,116,5],[30,-30,30],[0, 0, 0, 0],[9000000000.0, 9000000000.0, 9000000000.0, 9000000000.0, 9000000000.0, 9000000000.0],  v1000, z0, tool0]
    MoveL [[198,116,10],[30,-30,30],[0, 0, 0, 0],[9000000000.0, 9000000000.0, 9000000000.0, 9000000000.0, 9000000000.0, 9000000000.0], v1000, z0, tool0]
    MoveL [[251,117,10],[30,-30,30],[0, 0, 0, 0],[9000000000.0, 9000000000.0, 9000000000.0, 9000000000.0, 9000000000.0, 9000000000.0], v1000, z0, tool0]
    MoveL [[220,121,5],[30,-30,30],[0, 0, 0, 0],[9000000000.0, 9000000000.0, 9000000000.0, 9000000000.0, 9000000000.0, 9000000000.0],  v1000, z0, tool0]
    MoveL [[220,121,10],[30,-30,30],[0, 0, 0, 0],[9000000000.0, 9000000000.0, 9000000000.0, 9000000000.0, 9000000000.0, 9000000000.0], v1000, z0, tool0]
    MoveL [[258,126,10],[30,-30,30],[0, 0, 0, 0],[9000000000.0, 9000000000.0, 9000000000.0, 9000000000.0, 9000000000.0, 9000000000.0], v1000, z0, tool0]
    MoveL [[252,116,5],[30,-30,30],[0, 0, 0, 0],[9000000000.0, 9000000000.0, 9000000000.0, 9000000000.0, 9000000000.0, 9000000000.0],  v1000, z0, tool0]
    MoveL [[252,116,10],[30,-30,30],[0, 0, 0, 0],[9000000000.0, 9000000000.0, 9000000000.0, 9000000000.0, 9000000000.0, 9000000000.0], v1000, z0, tool0]
    MoveL [[280,128,10],[30,-30,30],[0, 0, 0, 0],[9000000000.0, 9000000000.0, 9000000000.0, 9000000000.0, 9000000000.0, 9000000000.0], v1000, z0, tool0]
    MoveL [[258,116,5],[30,-30,30],[0, 0, 0, 0],[9000000000.0, 9000000000.0, 9000000000.0, 9000000000.0, 9000000000.0, 9000000000.0],  v1000, z0, tool0]
    MoveL [[258,116,10],[30,-30,30],[0, 0, 0, 0],[9000000000.0, 9000000000.0, 9000000000.0, 9000000000.0, 9000000000.0, 9000000000.0], v1000, z0, tool0]
    MoveL [[284,124,10],[30,-30,30],[0, 0, 0, 0],[9000000000.0, 9000000000.0, 9000000000.0, 9000000000.0, 9000000000.0, 9000000000.0], v1000, z0, tool0]
    MoveL [[295,116,5],[30,-30,30],[0, 0, 0, 0],[9000000000.0, 9000000000.0, 9000000000.0, 9000000000.0, 9000000000.0, 9000000000.0],  v1000, z0, tool0]
    MoveL [[295,116,10],[30,-30,30],[0, 0, 0, 0],[9000000000.0, 9000000000.0, 9000000000.0, 9000000000.0, 9000000000.0, 9000000000.0], v1000, z0, tool0]
    MoveL [[317,129,10],[30,-30,30],[0, 0, 0, 0],[9000000000.0, 9000000000.0, 9000000000.0, 9000000000.0, 9000000000.0, 9000000000.0], v1000, z0, tool0]
    MoveL [[324,116,5],[30,-30,30],[0, 0, 0, 0],[9000000000.0, 9000000000.0, 9000000000.0, 9000000000.0, 9000000000.0, 9000000000.0],  v1000, z0, tool0]
    MoveL [[324,116,10],[30,-30,30],[0, 0, 0, 0],[9000000000.0, 9000000000.0, 9000000000.0, 9000000000.0, 9000000000.0, 9000000000.0], v1000, z0, tool0]
    MoveL [[396,115,10],[30,-30,30],[0, 0, 0, 0],[9000000000.0, 9000000000.0, 9000000000.0, 9000000000.0, 9000000000.0, 9000000000.0], v1000, z0, tool0]
    MoveL [[408,131,5],[30,-30,30],[0, 0, 0, 0],[9000000000.0, 9000000000.0, 9000000000.0, 9000000000.0, 9000000000.0, 9000000000.0],  v1000, z0, tool0]
    MoveL [[408,131,10],[30,-30,30],[0, 0, 0, 0],[9000000000.0, 9000000000.0, 9000000000.0, 9000000000.0, 9000000000.0, 9000000000.0], v1000, z0, tool0]
    MoveL [[255,118,10],[30,-30,30],[0, 0, 0, 0],[9000000000.0, 9000000000.0, 9000000000.0, 9000000000.0, 9000000000.0, 9000000000.0], v1000, z0, tool0]
    MoveL [[265,128,5],[30,-30,30],[0, 0, 0, 0],[9000000000.0, 9000000000.0, 9000000000.0, 9000000000.0, 9000000000.0, 9000000000.0],  v1000, z0, tool0]
    MoveL [[265,128,10],[30,-30,30],[0, 0, 0, 0],[9000000000.0, 9000000000.0, 9000000000.0, 9000000000.0, 9000000000.0, 9000000000.0], v1000, z0, tool0]
    MoveL [[297,117,10],[30,-30,30],[0, 0, 0, 0],[9000000000.0, 9000000000.0, 9000000000.0, 9000000000.0, 9000000000.0, 9000000000.0], v1000, z0, tool0]
    MoveL [[283,128,5],[30,-30,30],[0, 0, 0, 0],[9000000000.0, 9000000000.0, 9000000000.0, 9000000000.0, 9000000000.0, 9000000000.0],  v1000, z0, tool0]
    MoveL [[283,128,10],[30,-30,30],[0, 0, 0, 0],[9000000000.0, 9000000000.0, 9000000000.0, 9000000000.0, 9000000000.0, 9000000000.0], v1000, z0, tool0]
    MoveL [[149,119,10],[30,-30,30],[0, 0, 0, 0],[9000000000.0, 9000000000.0, 9000000000.0, 9000000000.0, 9000000000.0, 9000000000.0], v1000, z0, tool0]
    MoveL [[163,126,5],[30,-30,30],[0, 0, 0, 0],[9000000000.0, 9000000000.0, 9000000000.0, 9000000000.0, 9000000000.0, 9000000000.0],  v1000, z0, tool0]
    MoveL [[163,126,10],[30,-30,30],[0, 0, 0, 0],[9000000000.0, 9000000000.0, 9000000000.0, 9000000000.0, 9000000000.0, 9000000000.0], v1000, z0, tool0]
    MoveL [[266,118,10],[30,-30,30],[0, 0, 0, 0],[9000000000.0, 9000000000.0, 9000000000.0, 9000000000.0, 9000000000.0, 9000000000.0], v1000, z0, tool0]
    MoveL [[280,124,5],[30,-30,30],[0, 0, 0, 0],[9000000000.0, 9000000000.0, 9000000000.0, 9000000000.0, 9000000000.0, 9000000000.0],  v1000, z0, tool0]
    MoveL [[280,124,10],[30,-30,30],[0, 0, 0, 0],[9000000000.0, 9000000000.0, 9000000000.0, 9000000000.0, 9000000000.0, 9000000000.0], v1000, z0, tool0]
    MoveL [[413,128,10],[30,-30,30],[0, 0, 0, 0],[9000000000.0, 9000000000.0, 9000000000.0, 9000000000.0, 9000000000.0, 9000000000.0], v1000, z0, tool0]
    MoveL [[404,118,5],[30,-30,30],[0, 0, 0, 0],[9000000000.0, 9000000000.0, 9000000000.0, 9000000000.0, 9000000000.0, 9000000000.0],  v1000, z0, tool0]
    MoveL [[404,118,10],[30,-30,30],[0, 0, 0, 0],[9000000000.0, 9000000000.0, 9000000000.0, 9000000000.0, 9000000000.0, 9000000000.0], v1000, z0, tool0]
    MoveL [[202,120,10],[30,-30,30],[0, 0, 0, 0],[9000000000.0, 9000000000.0, 9000000000.0, 9000000000.0, 9000000000.0, 9000000000.0], v1000, z0, tool0]
    MoveL [[210,133,5],[30,-30,30],[0, 0, 0, 0],[9000000000.0, 9000000000.0, 9000000000.0, 9000000000.0, 9000000000.0, 9000000000.0],  v1000, z0, tool0]
    MoveL [[210,133,10],[30,-30,30],[0, 0, 0, 0],[9000000000.0, 9000000000.0, 9000000000.0, 9000000000.0, 9000000000.0, 9000000000.0], v1000, z0, tool0]
    MoveL [[128,121,10],[30,-30,30],[0, 0, 0, 0],[9000000000.0, 9000000000.0, 9000000000.0, 9000000000.0, 9000000000.0, 9000000000.0], v1000, z0, tool0]
    MoveL [[119,139,5],[30,-30,30],[0, 0, 0, 0],[9000000000.0, 9000000000.0, 9000000000.0, 9000000000.0, 9000000000.0, 9000000000.0],  v1000, z0, tool0]
    MoveL [[119,139,10],[30,-30,30],[0, 0, 0, 0],[9000000000.0, 9000000000.0, 9000000000.0, 9000000000.0, 9000000000.0, 9000000000.0], v1000, z0, tool0]
    MoveL [[214,123,10],[30,-30,30],[0, 0, 0, 0],[9000000000.0, 9000000000.0, 9000000000.0, 9000000000.0, 9000000000.0, 9000000000.0], v1000, z0, tool0]
    MoveL [[230,135,5],[30,-30,30],[0, 0, 0, 0],[9000000000.0, 9000000000.0, 9000000000.0, 9000000000.0, 9000000000.0, 9000000000.0],  v1000, z0, tool0]
    MoveL [[230,135,10],[30,-30,30],[0, 0, 0, 0],[9000000000.0, 9000000000.0, 9000000000.0, 9000000000.0, 9000000000.0, 9000000000.0], v1000, z0, tool0]
    MoveL [[323,123,10],[30,-30,30],[0, 0, 0, 0],[9000000000.0, 9000000000.0, 9000000000.0, 9000000000.0, 9000000000.0, 9000000000.0], v1000, z0, tool0]
    MoveL [[337,130,5],[30,-30,30],[0, 0, 0, 0],[9000000000.0, 9000000000.0, 9000000000.0, 9000000000.0, 9000000000.0, 9000000000.0],  v1000, z0, tool0]
    MoveL [[337,130,10],[30,-30,30],[0, 0, 0, 0],[9000000000.0, 9000000000.0, 9000000000.0, 9000000000.0, 9000000000.0, 9000000000.0], v1000, z0, tool0]
    MoveL [[189,123,10],[30,-30,30],[0, 0, 0, 0],[9000000000.0, 9000000000.0, 9000000000.0, 9000000000.0, 9000000000.0, 9000000000.0], v1000, z0, tool0]
    MoveL [[176,142,5],[30,-30,30],[0, 0, 0, 0],[9000000000.0, 9000000000.0, 9000000000.0, 9000000000.0, 9000000000.0, 9000000000.0],  v1000, z0, tool0]
    MoveL [[176,142,10],[30,-30,30],[0, 0, 0, 0],[9000000000.0, 9000000000.0, 9000000000.0, 9000000000.0, 9000000000.0, 9000000000.0], v1000, z0, tool0]
    MoveL [[402,138,10],[30,-30,30],[0, 0, 0, 0],[9000000000.0, 9000000000.0, 9000000000.0, 9000000000.0, 9000000000.0, 9000000000.0], v1000, z0, tool0]
    MoveL [[391,123,5],[30,-30,30],[0, 0, 0, 0],[9000000000.0, 9000000000.0, 9000000000.0, 9000000000.0, 9000000000.0, 9000000000.0],  v1000, z0, tool0]
    MoveL [[391,123,10],[30,-30,30],[0, 0, 0, 0],[9000000000.0, 9000000000.0, 9000000000.0, 9000000000.0, 9000000000.0, 9000000000.0], v1000, z0, tool0]
    MoveL [[446,123,10],[30,-30,30],[0, 0, 0, 0],[9000000000.0, 9000000000.0, 9000000000.0, 9000000000.0, 9000000000.0, 9000000000.0], v1000, z0, tool0]
    MoveL [[454,141,5],[30,-30,30],[0, 0, 0, 0],[9000000000.0, 9000000000.0, 9000000000.0, 9000000000.0, 9000000000.0, 9000000000.0],  v1000, z0, tool0]
    MoveL [[454,141,10],[30,-30,30],[0, 0, 0, 0],[9000000000.0, 9000000000.0, 9000000000.0, 9000000000.0, 9000000000.0, 9000000000.0], v1000, z0, tool0]
    MoveL [[144,126,10],[30,-30,30],[0, 0, 0, 0],[9000000000.0, 9000000000.0, 9000000000.0, 9000000000.0, 9000000000.0, 9000000000.0], v1000, z0, tool0]
    MoveL [[138,135,5],[30,-30,30],[0, 0, 0, 0],[9000000000.0, 9000000000.0, 9000000000.0, 9000000000.0, 9000000000.0, 9000000000.0],  v1000, z0, tool0]
    MoveL [[138,135,10],[30,-30,30],[0, 0, 0, 0],[9000000000.0, 9000000000.0, 9000000000.0, 9000000000.0, 9000000000.0, 9000000000.0], v1000, z0, tool0]
    MoveL [[162,127,10],[30,-30,30],[0, 0, 0, 0],[9000000000.0, 9000000000.0, 9000000000.0, 9000000000.0, 9000000000.0, 9000000000.0], v1000, z0, tool0]
    MoveL [[145,127,5],[30,-30,30],[0, 0, 0, 0],[9000000000.0, 9000000000.0, 9000000000.0, 9000000000.0, 9000000000.0, 9000000000.0],  v1000, z0, tool0]
    MoveL [[145,127,10],[30,-30,30],[0, 0, 0, 0],[9000000000.0, 9000000000.0, 9000000000.0, 9000000000.0, 9000000000.0, 9000000000.0], v1000, z0, tool0]
    MoveL [[272,132,10],[30,-30,30],[0, 0, 0, 0],[9000000000.0, 9000000000.0, 9000000000.0, 9000000000.0, 9000000000.0, 9000000000.0], v1000, z0, tool0]
    MoveL [[257,127,5],[30,-30,30],[0, 0, 0, 0],[9000000000.0, 9000000000.0, 9000000000.0, 9000000000.0, 9000000000.0, 9000000000.0],  v1000, z0, tool0]
    MoveL [[257,127,10],[30,-30,30],[0, 0, 0, 0],[9000000000.0, 9000000000.0, 9000000000.0, 9000000000.0, 9000000000.0, 9000000000.0], v1000, z0, tool0]
    MoveL [[439,127,10],[30,-30,30],[0, 0, 0, 0],[9000000000.0, 9000000000.0, 9000000000.0, 9000000000.0, 9000000000.0, 9000000000.0], v1000, z0, tool0]
    MoveL [[413,139,5],[30,-30,30],[0, 0, 0, 0],[9000000000.0, 9000000000.0, 9000000000.0, 9000000000.0, 9000000000.0, 9000000000.0],  v1000, z0, tool0]
    MoveL [[413,139,10],[30,-30,30],[0, 0, 0, 0],[9000000000.0, 9000000000.0, 9000000000.0, 9000000000.0, 9000000000.0, 9000000000.0], v1000, z0, tool0]
    MoveL [[443,133,10],[30,-30,30],[0, 0, 0, 0],[9000000000.0, 9000000000.0, 9000000000.0, 9000000000.0, 9000000000.0, 9000000000.0], v1000, z0, tool0]
    MoveL [[439,126,5],[30,-30,30],[0, 0, 0, 0],[9000000000.0, 9000000000.0, 9000000000.0, 9000000000.0, 9000000000.0, 9000000000.0],  v1000, z0, tool0]
    MoveL [[439,126,10],[30,-30,30],[0, 0, 0, 0],[9000000000.0, 9000000000.0, 9000000000.0, 9000000000.0, 9000000000.0, 9000000000.0], v1000, z0, tool0]
    MoveL [[174,132,10],[30,-30,30],[0, 0, 0, 0],[9000000000.0, 9000000000.0, 9000000000.0, 9000000000.0, 9000000000.0, 9000000000.0], v1000, z0, tool0]
    MoveL [[178,126,5],[30,-30,30],[0, 0, 0, 0],[9000000000.0, 9000000000.0, 9000000000.0, 9000000000.0, 9000000000.0, 9000000000.0],  v1000, z0, tool0]
    MoveL [[178,126,10],[30,-30,30],[0, 0, 0, 0],[9000000000.0, 9000000000.0, 9000000000.0, 9000000000.0, 9000000000.0, 9000000000.0], v1000, z0, tool0]
    MoveL [[224,134,10],[30,-30,30],[0, 0, 0, 0],[9000000000.0, 9000000000.0, 9000000000.0, 9000000000.0, 9000000000.0, 9000000000.0], v1000, z0, tool0]
    MoveL [[215,128,5],[30,-30,30],[0, 0, 0, 0],[9000000000.0, 9000000000.0, 9000000000.0, 9000000000.0, 9000000000.0, 9000000000.0],  v1000, z0, tool0]
    MoveL [[215,128,10],[30,-30,30],[0, 0, 0, 0],[9000000000.0, 9000000000.0, 9000000000.0, 9000000000.0, 9000000000.0, 9000000000.0], v1000, z0, tool0]
    MoveL [[266,127,10],[30,-30,30],[0, 0, 0, 0],[9000000000.0, 9000000000.0, 9000000000.0, 9000000000.0, 9000000000.0, 9000000000.0], v1000, z0, tool0]
    MoveL [[280,132,5],[30,-30,30],[0, 0, 0, 0],[9000000000.0, 9000000000.0, 9000000000.0, 9000000000.0, 9000000000.0, 9000000000.0],  v1000, z0, tool0]
    MoveL [[280,132,10],[30,-30,30],[0, 0, 0, 0],[9000000000.0, 9000000000.0, 9000000000.0, 9000000000.0, 9000000000.0, 9000000000.0], v1000, z0, tool0]
    MoveL [[303,135,10],[30,-30,30],[0, 0, 0, 0],[9000000000.0, 9000000000.0, 9000000000.0, 9000000000.0, 9000000000.0, 9000000000.0], v1000, z0, tool0]
    MoveL [[317,130,5],[30,-30,30],[0, 0, 0, 0],[9000000000.0, 9000000000.0, 9000000000.0, 9000000000.0, 9000000000.0, 9000000000.0],  v1000, z0, tool0]
    MoveL [[317,130,10],[30,-30,30],[0, 0, 0, 0],[9000000000.0, 9000000000.0, 9000000000.0, 9000000000.0, 9000000000.0, 9000000000.0], v1000, z0, tool0]
    MoveL [[331,131,10],[30,-30,30],[0, 0, 0, 0],[9000000000.0, 9000000000.0, 9000000000.0, 9000000000.0, 9000000000.0, 9000000000.0], v1000, z0, tool0]
    MoveL [[324,127,5],[30,-30,30],[0, 0, 0, 0],[9000000000.0, 9000000000.0, 9000000000.0, 9000000000.0, 9000000000.0, 9000000000.0],  v1000, z0, tool0]
    MoveL [[324,127,10],[30,-30,30],[0, 0, 0, 0],[9000000000.0, 9000000000.0, 9000000000.0, 9000000000.0, 9000000000.0, 9000000000.0], v1000, z0, tool0]
    MoveL [[467,157,10],[30,-30,30],[0, 0, 0, 0],[9000000000.0, 9000000000.0, 9000000000.0, 9000000000.0, 9000000000.0, 9000000000.0], v1000, z0, tool0]
    MoveL [[456,128,5],[30,-30,30],[0, 0, 0, 0],[9000000000.0, 9000000000.0, 9000000000.0, 9000000000.0, 9000000000.0, 9000000000.0],  v1000, z0, tool0]
    MoveL [[456,128,10],[30,-30,30],[0, 0, 0, 0],[9000000000.0, 9000000000.0, 9000000000.0, 9000000000.0, 9000000000.0, 9000000000.0], v1000, z0, tool0]
    MoveL [[194,141,10],[30,-30,30],[0, 0, 0, 0],[9000000000.0, 9000000000.0, 9000000000.0, 9000000000.0, 9000000000.0, 9000000000.0], v1000, z0, tool0]
    MoveL [[206,130,5],[30,-30,30],[0, 0, 0, 0],[9000000000.0, 9000000000.0, 9000000000.0, 9000000000.0, 9000000000.0, 9000000000.0],  v1000, z0, tool0]
    MoveL [[206,130,10],[30,-30,30],[0, 0, 0, 0],[9000000000.0, 9000000000.0, 9000000000.0, 9000000000.0, 9000000000.0, 9000000000.0], v1000, z0, tool0]
    MoveL [[151,133,10],[30,-30,30],[0, 0, 0, 0],[9000000000.0, 9000000000.0, 9000000000.0, 9000000000.0, 9000000000.0, 9000000000.0], v1000, z0, tool0]
    MoveL [[173,133,5],[30,-30,30],[0, 0, 0, 0],[9000000000.0, 9000000000.0, 9000000000.0, 9000000000.0, 9000000000.0, 9000000000.0],  v1000, z0, tool0]
    MoveL [[173,133,10],[30,-30,30],[0, 0, 0, 0],[9000000000.0, 9000000000.0, 9000000000.0, 9000000000.0, 9000000000.0, 9000000000.0], v1000, z0, tool0]
    MoveL [[253,141,10],[30,-30,30],[0, 0, 0, 0],[9000000000.0, 9000000000.0, 9000000000.0, 9000000000.0, 9000000000.0, 9000000000.0], v1000, z0, tool0]
    MoveL [[258,131,5],[30,-30,30],[0, 0, 0, 0],[9000000000.0, 9000000000.0, 9000000000.0, 9000000000.0, 9000000000.0, 9000000000.0],  v1000, z0, tool0]
    MoveL [[258,131,10],[30,-30,30],[0, 0, 0, 0],[9000000000.0, 9000000000.0, 9000000000.0, 9000000000.0, 9000000000.0, 9000000000.0], v1000, z0, tool0]
    MoveL [[260,131,10],[30,-30,30],[0, 0, 0, 0],[9000000000.0, 9000000000.0, 9000000000.0, 9000000000.0, 9000000000.0, 9000000000.0], v1000, z0, tool0]
    MoveL [[271,134,5],[30,-30,30],[0, 0, 0, 0],[9000000000.0, 9000000000.0, 9000000000.0, 9000000000.0, 9000000000.0, 9000000000.0],  v1000, z0, tool0]
    MoveL [[271,134,10],[30,-30,30],[0, 0, 0, 0],[9000000000.0, 9000000000.0, 9000000000.0, 9000000000.0, 9000000000.0, 9000000000.0], v1000, z0, tool0]
    MoveL [[294,141,10],[30,-30,30],[0, 0, 0, 0],[9000000000.0, 9000000000.0, 9000000000.0, 9000000000.0, 9000000000.0, 9000000000.0], v1000, z0, tool0]
    MoveL [[301,132,5],[30,-30,30],[0, 0, 0, 0],[9000000000.0, 9000000000.0, 9000000000.0, 9000000000.0, 9000000000.0, 9000000000.0],  v1000, z0, tool0]
    MoveL [[301,132,10],[30,-30,30],[0, 0, 0, 0],[9000000000.0, 9000000000.0, 9000000000.0, 9000000000.0, 9000000000.0, 9000000000.0], v1000, z0, tool0]
    MoveL [[210,134,10],[30,-30,30],[0, 0, 0, 0],[9000000000.0, 9000000000.0, 9000000000.0, 9000000000.0, 9000000000.0, 9000000000.0], v1000, z0, tool0]
    MoveL [[220,135,5],[30,-30,30],[0, 0, 0, 0],[9000000000.0, 9000000000.0, 9000000000.0, 9000000000.0, 9000000000.0, 9000000000.0],  v1000, z0, tool0]
    MoveL [[220,135,10],[30,-30,30],[0, 0, 0, 0],[9000000000.0, 9000000000.0, 9000000000.0, 9000000000.0, 9000000000.0, 9000000000.0], v1000, z0, tool0]
    MoveL [[318,160,10],[30,-30,30],[0, 0, 0, 0],[9000000000.0, 9000000000.0, 9000000000.0, 9000000000.0, 9000000000.0, 9000000000.0], v1000, z0, tool0]
    MoveL [[332,131,5],[30,-30,30],[0, 0, 0, 0],[9000000000.0, 9000000000.0, 9000000000.0, 9000000000.0, 9000000000.0, 9000000000.0],  v1000, z0, tool0]
    MoveL [[332,131,10],[30,-30,30],[0, 0, 0, 0],[9000000000.0, 9000000000.0, 9000000000.0, 9000000000.0, 9000000000.0, 9000000000.0], v1000, z0, tool0]
    MoveL [[334,132,10],[30,-30,30],[0, 0, 0, 0],[9000000000.0, 9000000000.0, 9000000000.0, 9000000000.0, 9000000000.0, 9000000000.0], v1000, z0, tool0]
    MoveL [[318,170,5],[30,-30,30],[0, 0, 0, 0],[9000000000.0, 9000000000.0, 9000000000.0, 9000000000.0, 9000000000.0, 9000000000.0],  v1000, z0, tool0]
    MoveL [[318,170,10],[30,-30,30],[0, 0, 0, 0],[9000000000.0, 9000000000.0, 9000000000.0, 9000000000.0, 9000000000.0, 9000000000.0], v1000, z0, tool0]
    MoveL [[341,136,10],[30,-30,30],[0, 0, 0, 0],[9000000000.0, 9000000000.0, 9000000000.0, 9000000000.0, 9000000000.0, 9000000000.0], v1000, z0, tool0]
    MoveL [[352,133,5],[30,-30,30],[0, 0, 0, 0],[9000000000.0, 9000000000.0, 9000000000.0, 9000000000.0, 9000000000.0, 9000000000.0],  v1000, z0, tool0]
    MoveL [[352,133,10],[30,-30,30],[0, 0, 0, 0],[9000000000.0, 9000000000.0, 9000000000.0, 9000000000.0, 9000000000.0, 9000000000.0], v1000, z0, tool0]
    MoveL [[354,131,10],[30,-30,30],[0, 0, 0, 0],[9000000000.0, 9000000000.0, 9000000000.0, 9000000000.0, 9000000000.0, 9000000000.0], v1000, z0, tool0]
    MoveL [[369,160,5],[30,-30,30],[0, 0, 0, 0],[9000000000.0, 9000000000.0, 9000000000.0, 9000000000.0, 9000000000.0, 9000000000.0],  v1000, z0, tool0]
    MoveL [[369,160,10],[30,-30,30],[0, 0, 0, 0],[9000000000.0, 9000000000.0, 9000000000.0, 9000000000.0, 9000000000.0, 9000000000.0], v1000, z0, tool0]
    MoveL [[275,138,10],[30,-30,30],[0, 0, 0, 0],[9000000000.0, 9000000000.0, 9000000000.0, 9000000000.0, 9000000000.0, 9000000000.0], v1000, z0, tool0]
    MoveL [[259,134,5],[30,-30,30],[0, 0, 0, 0],[9000000000.0, 9000000000.0, 9000000000.0, 9000000000.0, 9000000000.0, 9000000000.0],  v1000, z0, tool0]
    MoveL [[259,134,10],[30,-30,30],[0, 0, 0, 0],[9000000000.0, 9000000000.0, 9000000000.0, 9000000000.0, 9000000000.0, 9000000000.0], v1000, z0, tool0]
    MoveL [[319,135,10],[30,-30,30],[0, 0, 0, 0],[9000000000.0, 9000000000.0, 9000000000.0, 9000000000.0, 9000000000.0, 9000000000.0], v1000, z0, tool0]
    MoveL [[306,136,5],[30,-30,30],[0, 0, 0, 0],[9000000000.0, 9000000000.0, 9000000000.0, 9000000000.0, 9000000000.0, 9000000000.0],  v1000, z0, tool0]
    MoveL [[306,136,10],[30,-30,30],[0, 0, 0, 0],[9000000000.0, 9000000000.0, 9000000000.0, 9000000000.0, 9000000000.0, 9000000000.0], v1000, z0, tool0]
    MoveL [[407,148,10],[30,-30,30],[0, 0, 0, 0],[9000000000.0, 9000000000.0, 9000000000.0, 9000000000.0, 9000000000.0, 9000000000.0], v1000, z0, tool0]
