MODULE MainModule
    CONST jointtarget home:=[[-90,40,10,0,40,90],[9E+09,9E+09,9E+09,9E+09,9E+09,9E+09]];
    CONST robtarget calib_1:=[[25,25,137],[0,0,1,0],[0,0,0,0],[9E+09,9E+09,9E+09,9E+09,9E+09,9E+09]];
    CONST robtarget calib_1d:=[[25,25,122],[0,0,1,0],[0,0,0,0],[9E+09,9E+09,9E+09,9E+09,9E+09,9E+09]];
    CONST robtarget calib_2:=[[558,25,137],[0,0,1,0],[0,0,0,0],[9E+09,9E+09,9E+09,9E+09,9E+09,9E+09]];
    CONST robtarget calib_2d:=[[558,25,122],[0,0,1,0],[0,0,0,0],[9E+09,9E+09,9E+09,9E+09,9E+09,9E+09]];
    CONST robtarget calib_3:=[[558,406,137],[0,0,1,0],[0,0,0,0],[9E+09,9E+09,9E+09,9E+09,9E+09,9E+09]];
    CONST robtarget calib_3d:=[[558,406,122],[0,0,1,0],[0,0,0,0],[9E+09,9E+09,9E+09,9E+09,9E+09,9E+09]];
    CONST robtarget calib_4:=[[25,406,137],[0,0,1,0],[0,0,0,0],[9E+09,9E+09,9E+09,9E+09,9E+09,9E+09]];
    CONST robtarget calib_4d:=[[25,406,122],[0,0,1,0],[0,0,0,0],[9E+09,9E+09,9E+09,9E+09,9E+09,9E+09]];
    CONST robtarget point_0_clearance:=[[258,65,137],[0,0,1,0],[0, 0, 0, 0],[9E+09,9E+09,9E+09,9E+09,9E+09,9E+09]];
    CONST robtarget point_0_contact:=[[258,65,122],[0,0,1,0],[0, 0, 0, 0],[9E+09,9E+09,9E+09,9E+09,9E+09,9E+09]];
    CONST robtarget point_1_contact:=[[283,70,122],[0,0,1,0],[0, 0, 0, 0],[9E+09,9E+09,9E+09,9E+09,9E+09,9E+09]];
    CONST robtarget point_1_clearance:=[[283,70,137],[0,0,1,0],[0, 0, 0, 0],[9E+09,9E+09,9E+09,9E+09,9E+09,9E+09]];
    CONST robtarget point_2_clearance:=[[282,73,137],[0,0,1,0],[0, 0, 0, 0],[9E+09,9E+09,9E+09,9E+09,9E+09,9E+09]];
    CONST robtarget point_2_contact:=[[282,73,122],[0,0,1,0],[0, 0, 0, 0],[9E+09,9E+09,9E+09,9E+09,9E+09,9E+09]];
    CONST robtarget point_3_contact:=[[261,69,122],[0,0,1,0],[0, 0, 0, 0],[9E+09,9E+09,9E+09,9E+09,9E+09,9E+09]];
    CONST robtarget point_3_clearance:=[[261,69,137],[0,0,1,0],[0, 0, 0, 0],[9E+09,9E+09,9E+09,9E+09,9E+09,9E+09]];
    CONST robtarget point_4_clearance:=[[260,69,137],[0,0,1,0],[0, 0, 0, 0],[9E+09,9E+09,9E+09,9E+09,9E+09,9E+09]];
    CONST robtarget point_4_contact:=[[260,69,122],[0,0,1,0],[0, 0, 0, 0],[9E+09,9E+09,9E+09,9E+09,9E+09,9E+09]];
    CONST robtarget point_5_contact:=[[295,110,122],[0,0,1,0],[0, 0, 0, 0],[9E+09,9E+09,9E+09,9E+09,9E+09,9E+09]];
    CONST robtarget point_5_clearance:=[[295,110,137],[0,0,1,0],[0, 0, 0, 0],[9E+09,9E+09,9E+09,9E+09,9E+09,9E+09]];
    CONST robtarget point_6_clearance:=[[260,95,137],[0,0,1,0],[0, 0, 0, 0],[9E+09,9E+09,9E+09,9E+09,9E+09,9E+09]];
    CONST robtarget point_6_contact:=[[260,95,122],[0,0,1,0],[0, 0, 0, 0],[9E+09,9E+09,9E+09,9E+09,9E+09,9E+09]];
    CONST robtarget point_7_contact:=[[256,72,122],[0,0,1,0],[0, 0, 0, 0],[9E+09,9E+09,9E+09,9E+09,9E+09,9E+09]];
    CONST robtarget point_7_clearance:=[[256,72,137],[0,0,1,0],[0, 0, 0, 0],[9E+09,9E+09,9E+09,9E+09,9E+09,9E+09]];
    CONST robtarget point_8_clearance:=[[293,113,137],[0,0,1,0],[0, 0, 0, 0],[9E+09,9E+09,9E+09,9E+09,9E+09,9E+09]];
    CONST robtarget point_8_contact:=[[293,113,122],[0,0,1,0],[0, 0, 0, 0],[9E+09,9E+09,9E+09,9E+09,9E+09,9E+09]];
    CONST robtarget point_9_contact:=[[260,74,122],[0,0,1,0],[0, 0, 0, 0],[9E+09,9E+09,9E+09,9E+09,9E+09,9E+09]];
    CONST robtarget point_9_clearance:=[[260,74,137],[0,0,1,0],[0, 0, 0, 0],[9E+09,9E+09,9E+09,9E+09,9E+09,9E+09]];
    CONST robtarget point_10_clearance:=[[259,74,137],[0,0,1,0],[0, 0, 0, 0],[9E+09,9E+09,9E+09,9E+09,9E+09,9E+09]];
    CONST robtarget point_10_contact:=[[259,74,122],[0,0,1,0],[0, 0, 0, 0],[9E+09,9E+09,9E+09,9E+09,9E+09,9E+09]];
    CONST robtarget point_11_contact:=[[263,95,122],[0,0,1,0],[0, 0, 0, 0],[9E+09,9E+09,9E+09,9E+09,9E+09,9E+09]];
    CONST robtarget point_11_clearance:=[[263,95,137],[0,0,1,0],[0, 0, 0, 0],[9E+09,9E+09,9E+09,9E+09,9E+09,9E+09]];
    CONST robtarget point_12_clearance:=[[305,88,137],[0,0,1,0],[0, 0, 0, 0],[9E+09,9E+09,9E+09,9E+09,9E+09,9E+09]];
    CONST robtarget point_12_contact:=[[305,88,122],[0,0,1,0],[0, 0, 0, 0],[9E+09,9E+09,9E+09,9E+09,9E+09,9E+09]];
    CONST robtarget point_13_contact:=[[322,82,122],[0,0,1,0],[0, 0, 0, 0],[9E+09,9E+09,9E+09,9E+09,9E+09,9E+09]];
    CONST robtarget point_13_clearance:=[[322,82,137],[0,0,1,0],[0, 0, 0, 0],[9E+09,9E+09,9E+09,9E+09,9E+09,9E+09]];
    CONST robtarget point_14_clearance:=[[323,83,137],[0,0,1,0],[0, 0, 0, 0],[9E+09,9E+09,9E+09,9E+09,9E+09,9E+09]];
    CONST robtarget point_14_contact:=[[323,83,122],[0,0,1,0],[0, 0, 0, 0],[9E+09,9E+09,9E+09,9E+09,9E+09,9E+09]];
    CONST robtarget point_15_contact:=[[334,89,122],[0,0,1,0],[0, 0, 0, 0],[9E+09,9E+09,9E+09,9E+09,9E+09,9E+09]];
    CONST robtarget point_15_clearance:=[[334,89,137],[0,0,1,0],[0, 0, 0, 0],[9E+09,9E+09,9E+09,9E+09,9E+09,9E+09]];
    CONST robtarget point_16_clearance:=[[374,89,137],[0,0,1,0],[0, 0, 0, 0],[9E+09,9E+09,9E+09,9E+09,9E+09,9E+09]];
    CONST robtarget point_16_contact:=[[374,89,122],[0,0,1,0],[0, 0, 0, 0],[9E+09,9E+09,9E+09,9E+09,9E+09,9E+09]];
    CONST robtarget point_17_contact:=[[392,82,122],[0,0,1,0],[0, 0, 0, 0],[9E+09,9E+09,9E+09,9E+09,9E+09,9E+09]];
    CONST robtarget point_17_clearance:=[[392,82,137],[0,0,1,0],[0, 0, 0, 0],[9E+09,9E+09,9E+09,9E+09,9E+09,9E+09]];
    CONST robtarget point_18_clearance:=[[392,82,137],[0,0,1,0],[0, 0, 0, 0],[9E+09,9E+09,9E+09,9E+09,9E+09,9E+09]];
    CONST robtarget point_18_contact:=[[392,82,122],[0,0,1,0],[0, 0, 0, 0],[9E+09,9E+09,9E+09,9E+09,9E+09,9E+09]];
    CONST robtarget point_19_contact:=[[410,94,122],[0,0,1,0],[0, 0, 0, 0],[9E+09,9E+09,9E+09,9E+09,9E+09,9E+09]];
    CONST robtarget point_19_clearance:=[[410,94,137],[0,0,1,0],[0, 0, 0, 0],[9E+09,9E+09,9E+09,9E+09,9E+09,9E+09]];
    CONST robtarget point_20_clearance:=[[320,86,137],[0,0,1,0],[0, 0, 0, 0],[9E+09,9E+09,9E+09,9E+09,9E+09,9E+09]];
    CONST robtarget point_20_contact:=[[320,86,122],[0,0,1,0],[0, 0, 0, 0],[9E+09,9E+09,9E+09,9E+09,9E+09,9E+09]];
    CONST robtarget point_21_contact:=[[303,93,122],[0,0,1,0],[0, 0, 0, 0],[9E+09,9E+09,9E+09,9E+09,9E+09,9E+09]];
    CONST robtarget point_21_clearance:=[[303,93,137],[0,0,1,0],[0, 0, 0, 0],[9E+09,9E+09,9E+09,9E+09,9E+09,9E+09]];
    CONST robtarget point_22_clearance:=[[330,90,137],[0,0,1,0],[0, 0, 0, 0],[9E+09,9E+09,9E+09,9E+09,9E+09,9E+09]];
    CONST robtarget point_22_contact:=[[330,90,122],[0,0,1,0],[0, 0, 0, 0],[9E+09,9E+09,9E+09,9E+09,9E+09,9E+09]];
    CONST robtarget point_23_contact:=[[321,86,122],[0,0,1,0],[0, 0, 0, 0],[9E+09,9E+09,9E+09,9E+09,9E+09,9E+09]];
    CONST robtarget point_23_clearance:=[[321,86,137],[0,0,1,0],[0, 0, 0, 0],[9E+09,9E+09,9E+09,9E+09,9E+09,9E+09]];
    CONST robtarget point_24_clearance:=[[391,86,137],[0,0,1,0],[0, 0, 0, 0],[9E+09,9E+09,9E+09,9E+09,9E+09,9E+09]];
    CONST robtarget point_24_contact:=[[391,86,122],[0,0,1,0],[0, 0, 0, 0],[9E+09,9E+09,9E+09,9E+09,9E+09,9E+09]];
    CONST robtarget point_25_contact:=[[380,89,122],[0,0,1,0],[0, 0, 0, 0],[9E+09,9E+09,9E+09,9E+09,9E+09,9E+09]];
    CONST robtarget point_25_clearance:=[[380,89,137],[0,0,1,0],[0, 0, 0, 0],[9E+09,9E+09,9E+09,9E+09,9E+09,9E+09]];
    CONST robtarget point_26_clearance:=[[407,96,137],[0,0,1,0],[0, 0, 0, 0],[9E+09,9E+09,9E+09,9E+09,9E+09,9E+09]];
    CONST robtarget point_26_contact:=[[407,96,122],[0,0,1,0],[0, 0, 0, 0],[9E+09,9E+09,9E+09,9E+09,9E+09,9E+09]];
    CONST robtarget point_27_contact:=[[392,86,122],[0,0,1,0],[0, 0, 0, 0],[9E+09,9E+09,9E+09,9E+09,9E+09,9E+09]];
    CONST robtarget point_27_clearance:=[[392,86,137],[0,0,1,0],[0, 0, 0, 0],[9E+09,9E+09,9E+09,9E+09,9E+09,9E+09]];
    CONST robtarget point_28_clearance:=[[293,106,137],[0,0,1,0],[0, 0, 0, 0],[9E+09,9E+09,9E+09,9E+09,9E+09,9E+09]];
    CONST robtarget point_28_contact:=[[293,106,122],[0,0,1,0],[0, 0, 0, 0],[9E+09,9E+09,9E+09,9E+09,9E+09,9E+09]];
    CONST robtarget point_29_contact:=[[304,88,122],[0,0,1,0],[0, 0, 0, 0],[9E+09,9E+09,9E+09,9E+09,9E+09,9E+09]];
    CONST robtarget point_29_clearance:=[[304,88,137],[0,0,1,0],[0, 0, 0, 0],[9E+09,9E+09,9E+09,9E+09,9E+09,9E+09]];
    CONST robtarget point_30_clearance:=[[334,90,137],[0,0,1,0],[0, 0, 0, 0],[9E+09,9E+09,9E+09,9E+09,9E+09,9E+09]];
    CONST robtarget point_30_contact:=[[334,90,122],[0,0,1,0],[0, 0, 0, 0],[9E+09,9E+09,9E+09,9E+09,9E+09,9E+09]];
    CONST robtarget point_31_contact:=[[340,94,122],[0,0,1,0],[0, 0, 0, 0],[9E+09,9E+09,9E+09,9E+09,9E+09,9E+09]];
    CONST robtarget point_31_clearance:=[[340,94,137],[0,0,1,0],[0, 0, 0, 0],[9E+09,9E+09,9E+09,9E+09,9E+09,9E+09]];
    CONST robtarget point_32_clearance:=[[338,98,137],[0,0,1,0],[0, 0, 0, 0],[9E+09,9E+09,9E+09,9E+09,9E+09,9E+09]];
    CONST robtarget point_32_contact:=[[338,98,122],[0,0,1,0],[0, 0, 0, 0],[9E+09,9E+09,9E+09,9E+09,9E+09,9E+09]];
    CONST robtarget point_33_contact:=[[330,91,122],[0,0,1,0],[0, 0, 0, 0],[9E+09,9E+09,9E+09,9E+09,9E+09,9E+09]];
    CONST robtarget point_33_clearance:=[[330,91,137],[0,0,1,0],[0, 0, 0, 0],[9E+09,9E+09,9E+09,9E+09,9E+09,9E+09]];
    CONST robtarget point_34_clearance:=[[368,97,137],[0,0,1,0],[0, 0, 0, 0],[9E+09,9E+09,9E+09,9E+09,9E+09,9E+09]];
    CONST robtarget point_34_contact:=[[368,97,122],[0,0,1,0],[0, 0, 0, 0],[9E+09,9E+09,9E+09,9E+09,9E+09,9E+09]];
    CONST robtarget point_35_contact:=[[374,90,122],[0,0,1,0],[0, 0, 0, 0],[9E+09,9E+09,9E+09,9E+09,9E+09,9E+09]];
    CONST robtarget point_35_clearance:=[[374,90,137],[0,0,1,0],[0, 0, 0, 0],[9E+09,9E+09,9E+09,9E+09,9E+09,9E+09]];
    CONST robtarget point_36_clearance:=[[379,90,137],[0,0,1,0],[0, 0, 0, 0],[9E+09,9E+09,9E+09,9E+09,9E+09,9E+09]];
    CONST robtarget point_36_contact:=[[379,90,122],[0,0,1,0],[0, 0, 0, 0],[9E+09,9E+09,9E+09,9E+09,9E+09,9E+09]];
    CONST robtarget point_37_contact:=[[373,96,122],[0,0,1,0],[0, 0, 0, 0],[9E+09,9E+09,9E+09,9E+09,9E+09,9E+09]];
    CONST robtarget point_37_clearance:=[[373,96,137],[0,0,1,0],[0, 0, 0, 0],[9E+09,9E+09,9E+09,9E+09,9E+09,9E+09]];
    CONST robtarget point_38_clearance:=[[306,92,137],[0,0,1,0],[0, 0, 0, 0],[9E+09,9E+09,9E+09,9E+09,9E+09,9E+09]];
    CONST robtarget point_38_contact:=[[306,92,122],[0,0,1,0],[0, 0, 0, 0],[9E+09,9E+09,9E+09,9E+09,9E+09,9E+09]];
    CONST robtarget point_39_contact:=[[296,109,122],[0,0,1,0],[0, 0, 0, 0],[9E+09,9E+09,9E+09,9E+09,9E+09,9E+09]];
    CONST robtarget point_39_clearance:=[[296,109,137],[0,0,1,0],[0, 0, 0, 0],[9E+09,9E+09,9E+09,9E+09,9E+09,9E+09]];
    CONST robtarget point_40_clearance:=[[338,93,137],[0,0,1,0],[0, 0, 0, 0],[9E+09,9E+09,9E+09,9E+09,9E+09,9E+09]];
    CONST robtarget point_40_contact:=[[338,93,122],[0,0,1,0],[0, 0, 0, 0],[9E+09,9E+09,9E+09,9E+09,9E+09,9E+09]];
    CONST robtarget point_41_contact:=[[346,103,122],[0,0,1,0],[0, 0, 0, 0],[9E+09,9E+09,9E+09,9E+09,9E+09,9E+09]];
    CONST robtarget point_41_clearance:=[[346,103,137],[0,0,1,0],[0, 0, 0, 0],[9E+09,9E+09,9E+09,9E+09,9E+09,9E+09]];
    CONST robtarget point_42_clearance:=[[373,95,137],[0,0,1,0],[0, 0, 0, 0],[9E+09,9E+09,9E+09,9E+09,9E+09,9E+09]];
    CONST robtarget point_42_contact:=[[373,95,122],[0,0,1,0],[0, 0, 0, 0],[9E+09,9E+09,9E+09,9E+09,9E+09,9E+09]];
    CONST robtarget point_43_contact:=[[366,106,122],[0,0,1,0],[0, 0, 0, 0],[9E+09,9E+09,9E+09,9E+09,9E+09,9E+09]];
    CONST robtarget point_43_clearance:=[[366,106,137],[0,0,1,0],[0, 0, 0, 0],[9E+09,9E+09,9E+09,9E+09,9E+09,9E+09]];
    CONST robtarget point_44_clearance:=[[409,94,137],[0,0,1,0],[0, 0, 0, 0],[9E+09,9E+09,9E+09,9E+09,9E+09,9E+09]];
    CONST robtarget point_44_contact:=[[409,94,122],[0,0,1,0],[0, 0, 0, 0],[9E+09,9E+09,9E+09,9E+09,9E+09,9E+09]];
    CONST robtarget point_45_contact:=[[416,109,122],[0,0,1,0],[0, 0, 0, 0],[9E+09,9E+09,9E+09,9E+09,9E+09,9E+09]];
    CONST robtarget point_45_clearance:=[[416,109,137],[0,0,1,0],[0, 0, 0, 0],[9E+09,9E+09,9E+09,9E+09,9E+09,9E+09]];
    CONST robtarget point_46_clearance:=[[354,134,137],[0,0,1,0],[0, 0, 0, 0],[9E+09,9E+09,9E+09,9E+09,9E+09,9E+09]];
    CONST robtarget point_46_contact:=[[354,134,122],[0,0,1,0],[0, 0, 0, 0],[9E+09,9E+09,9E+09,9E+09,9E+09,9E+09]];
    CONST robtarget point_47_contact:=[[338,97,122],[0,0,1,0],[0, 0, 0, 0],[9E+09,9E+09,9E+09,9E+09,9E+09,9E+09]];
    CONST robtarget point_47_clearance:=[[338,97,137],[0,0,1,0],[0, 0, 0, 0],[9E+09,9E+09,9E+09,9E+09,9E+09,9E+09]];
    CONST robtarget point_48_clearance:=[[358,116,137],[0,0,1,0],[0, 0, 0, 0],[9E+09,9E+09,9E+09,9E+09,9E+09,9E+09]];
    CONST robtarget point_48_contact:=[[358,116,122],[0,0,1,0],[0, 0, 0, 0],[9E+09,9E+09,9E+09,9E+09,9E+09,9E+09]];
    CONST robtarget point_49_contact:=[[368,96,122],[0,0,1,0],[0, 0, 0, 0],[9E+09,9E+09,9E+09,9E+09,9E+09,9E+09]];
    CONST robtarget point_49_clearance:=[[368,96,137],[0,0,1,0],[0, 0, 0, 0],[9E+09,9E+09,9E+09,9E+09,9E+09,9E+09]];
    CONST robtarget point_50_clearance:=[[413,108,137],[0,0,1,0],[0, 0, 0, 0],[9E+09,9E+09,9E+09,9E+09,9E+09,9E+09]];
    CONST robtarget point_50_contact:=[[413,108,122],[0,0,1,0],[0, 0, 0, 0],[9E+09,9E+09,9E+09,9E+09,9E+09,9E+09]];
    CONST robtarget point_51_contact:=[[406,97,122],[0,0,1,0],[0, 0, 0, 0],[9E+09,9E+09,9E+09,9E+09,9E+09,9E+09]];
    CONST robtarget point_51_clearance:=[[406,97,137],[0,0,1,0],[0, 0, 0, 0],[9E+09,9E+09,9E+09,9E+09,9E+09,9E+09]];
    CONST robtarget point_52_clearance:=[[343,100,137],[0,0,1,0],[0, 0, 0, 0],[9E+09,9E+09,9E+09,9E+09,9E+09,9E+09]];
    CONST robtarget point_52_contact:=[[343,100,122],[0,0,1,0],[0, 0, 0, 0],[9E+09,9E+09,9E+09,9E+09,9E+09,9E+09]];
    CONST robtarget point_53_contact:=[[355,127,122],[0,0,1,0],[0, 0, 0, 0],[9E+09,9E+09,9E+09,9E+09,9E+09,9E+09]];
    CONST robtarget point_53_clearance:=[[355,127,137],[0,0,1,0],[0, 0, 0, 0],[9E+09,9E+09,9E+09,9E+09,9E+09,9E+09]];
    CONST robtarget point_54_clearance:=[[365,106,137],[0,0,1,0],[0, 0, 0, 0],[9E+09,9E+09,9E+09,9E+09,9E+09,9E+09]];
    CONST robtarget point_54_contact:=[[365,106,122],[0,0,1,0],[0, 0, 0, 0],[9E+09,9E+09,9E+09,9E+09,9E+09,9E+09]];
    CONST robtarget point_55_contact:=[[355,134,122],[0,0,1,0],[0, 0, 0, 0],[9E+09,9E+09,9E+09,9E+09,9E+09,9E+09]];
    CONST robtarget point_55_clearance:=[[355,134,137],[0,0,1,0],[0, 0, 0, 0],[9E+09,9E+09,9E+09,9E+09,9E+09,9E+09]];
    CONST robtarget point_56_clearance:=[[419,148,137],[0,0,1,0],[0, 0, 0, 0],[9E+09,9E+09,9E+09,9E+09,9E+09,9E+09]];
    CONST robtarget point_56_contact:=[[419,148,122],[0,0,1,0],[0, 0, 0, 0],[9E+09,9E+09,9E+09,9E+09,9E+09,9E+09]];
    CONST robtarget point_57_contact:=[[414,108,122],[0,0,1,0],[0, 0, 0, 0],[9E+09,9E+09,9E+09,9E+09,9E+09,9E+09]];
    CONST robtarget point_57_clearance:=[[414,108,137],[0,0,1,0],[0, 0, 0, 0],[9E+09,9E+09,9E+09,9E+09,9E+09,9E+09]];
    CONST robtarget point_58_clearance:=[[417,109,137],[0,0,1,0],[0, 0, 0, 0],[9E+09,9E+09,9E+09,9E+09,9E+09,9E+09]];
    CONST robtarget point_58_contact:=[[417,109,122],[0,0,1,0],[0, 0, 0, 0],[9E+09,9E+09,9E+09,9E+09,9E+09,9E+09]];
    CONST robtarget point_59_contact:=[[421,142,122],[0,0,1,0],[0, 0, 0, 0],[9E+09,9E+09,9E+09,9E+09,9E+09,9E+09]];
    CONST robtarget point_59_clearance:=[[421,142,137],[0,0,1,0],[0, 0, 0, 0],[9E+09,9E+09,9E+09,9E+09,9E+09,9E+09]];
    CONST robtarget point_60_clearance:=[[292,115,137],[0,0,1,0],[0, 0, 0, 0],[9E+09,9E+09,9E+09,9E+09,9E+09,9E+09]];
    CONST robtarget point_60_contact:=[[292,115,122],[0,0,1,0],[0, 0, 0, 0],[9E+09,9E+09,9E+09,9E+09,9E+09,9E+09]];
    CONST robtarget point_61_contact:=[[292,112,122],[0,0,1,0],[0, 0, 0, 0],[9E+09,9E+09,9E+09,9E+09,9E+09,9E+09]];
    CONST robtarget point_61_clearance:=[[292,112,137],[0,0,1,0],[0, 0, 0, 0],[9E+09,9E+09,9E+09,9E+09,9E+09,9E+09]];
    CONST robtarget point_62_clearance:=[[294,112,137],[0,0,1,0],[0, 0, 0, 0],[9E+09,9E+09,9E+09,9E+09,9E+09,9E+09]];
    CONST robtarget point_62_contact:=[[294,112,122],[0,0,1,0],[0, 0, 0, 0],[9E+09,9E+09,9E+09,9E+09,9E+09,9E+09]];
    CONST robtarget point_63_contact:=[[291,150,122],[0,0,1,0],[0, 0, 0, 0],[9E+09,9E+09,9E+09,9E+09,9E+09,9E+09]];
    CONST robtarget point_63_clearance:=[[291,150,137],[0,0,1,0],[0, 0, 0, 0],[9E+09,9E+09,9E+09,9E+09,9E+09,9E+09]];
    CONST robtarget point_64_clearance:=[[289,161,137],[0,0,1,0],[0, 0, 0, 0],[9E+09,9E+09,9E+09,9E+09,9E+09,9E+09]];
    CONST robtarget point_64_contact:=[[289,161,122],[0,0,1,0],[0, 0, 0, 0],[9E+09,9E+09,9E+09,9E+09,9E+09,9E+09]];
    CONST robtarget point_65_contact:=[[290,115,122],[0,0,1,0],[0, 0, 0, 0],[9E+09,9E+09,9E+09,9E+09,9E+09,9E+09]];
    CONST robtarget point_65_clearance:=[[290,115,137],[0,0,1,0],[0, 0, 0, 0],[9E+09,9E+09,9E+09,9E+09,9E+09,9E+09]];
    CONST robtarget point_66_clearance:=[[355,127,137],[0,0,1,0],[0, 0, 0, 0],[9E+09,9E+09,9E+09,9E+09,9E+09,9E+09]];
    CONST robtarget point_66_contact:=[[355,127,122],[0,0,1,0],[0, 0, 0, 0],[9E+09,9E+09,9E+09,9E+09,9E+09,9E+09]];
    CONST robtarget point_67_contact:=[[358,117,122],[0,0,1,0],[0, 0, 0, 0],[9E+09,9E+09,9E+09,9E+09,9E+09,9E+09]];
    CONST robtarget point_67_clearance:=[[358,117,137],[0,0,1,0],[0, 0, 0, 0],[9E+09,9E+09,9E+09,9E+09,9E+09,9E+09]];
    CONST robtarget point_68_clearance:=[[420,143,137],[0,0,1,0],[0, 0, 0, 0],[9E+09,9E+09,9E+09,9E+09,9E+09,9E+09]];
    CONST robtarget point_68_contact:=[[420,143,122],[0,0,1,0],[0, 0, 0, 0],[9E+09,9E+09,9E+09,9E+09,9E+09,9E+09]];
    CONST robtarget point_69_contact:=[[420,150,122],[0,0,1,0],[0, 0, 0, 0],[9E+09,9E+09,9E+09,9E+09,9E+09,9E+09]];
    CONST robtarget point_69_clearance:=[[420,150,137],[0,0,1,0],[0, 0, 0, 0],[9E+09,9E+09,9E+09,9E+09,9E+09,9E+09]];
    CONST robtarget point_70_clearance:=[[386,147,137],[0,0,1,0],[0, 0, 0, 0],[9E+09,9E+09,9E+09,9E+09,9E+09,9E+09]];
    CONST robtarget point_70_contact:=[[386,147,122],[0,0,1,0],[0, 0, 0, 0],[9E+09,9E+09,9E+09,9E+09,9E+09,9E+09]];
    CONST robtarget point_71_contact:=[[393,147,122],[0,0,1,0],[0, 0, 0, 0],[9E+09,9E+09,9E+09,9E+09,9E+09,9E+09]];
    CONST robtarget point_71_clearance:=[[393,147,137],[0,0,1,0],[0, 0, 0, 0],[9E+09,9E+09,9E+09,9E+09,9E+09,9E+09]];
    CONST robtarget point_72_clearance:=[[351,181,137],[0,0,1,0],[0, 0, 0, 0],[9E+09,9E+09,9E+09,9E+09,9E+09,9E+09]];
    CONST robtarget point_72_contact:=[[351,181,122],[0,0,1,0],[0, 0, 0, 0],[9E+09,9E+09,9E+09,9E+09,9E+09,9E+09]];
    CONST robtarget point_73_contact:=[[351,146,122],[0,0,1,0],[0, 0, 0, 0],[9E+09,9E+09,9E+09,9E+09,9E+09,9E+09]];
    CONST robtarget point_73_clearance:=[[351,146,137],[0,0,1,0],[0, 0, 0, 0],[9E+09,9E+09,9E+09,9E+09,9E+09,9E+09]];
    CONST robtarget point_74_clearance:=[[355,146,137],[0,0,1,0],[0, 0, 0, 0],[9E+09,9E+09,9E+09,9E+09,9E+09,9E+09]];
    CONST robtarget point_74_contact:=[[355,146,122],[0,0,1,0],[0, 0, 0, 0],[9E+09,9E+09,9E+09,9E+09,9E+09,9E+09]];
    CONST robtarget point_75_contact:=[[355,181,122],[0,0,1,0],[0, 0, 0, 0],[9E+09,9E+09,9E+09,9E+09,9E+09,9E+09]];
    CONST robtarget point_75_clearance:=[[355,181,137],[0,0,1,0],[0, 0, 0, 0],[9E+09,9E+09,9E+09,9E+09,9E+09,9E+09]];
    CONST robtarget point_76_clearance:=[[375,158,137],[0,0,1,0],[0, 0, 0, 0],[9E+09,9E+09,9E+09,9E+09,9E+09,9E+09]];
    CONST robtarget point_76_contact:=[[375,158,122],[0,0,1,0],[0, 0, 0, 0],[9E+09,9E+09,9E+09,9E+09,9E+09,9E+09]];
    CONST robtarget point_77_contact:=[[374,146,122],[0,0,1,0],[0, 0, 0, 0],[9E+09,9E+09,9E+09,9E+09,9E+09,9E+09]];
    CONST robtarget point_77_clearance:=[[374,146,137],[0,0,1,0],[0, 0, 0, 0],[9E+09,9E+09,9E+09,9E+09,9E+09,9E+09]];
    CONST robtarget point_78_clearance:=[[378,146,137],[0,0,1,0],[0, 0, 0, 0],[9E+09,9E+09,9E+09,9E+09,9E+09,9E+09]];
    CONST robtarget point_78_contact:=[[378,146,122],[0,0,1,0],[0, 0, 0, 0],[9E+09,9E+09,9E+09,9E+09,9E+09,9E+09]];
    CONST robtarget point_79_contact:=[[378,181,122],[0,0,1,0],[0, 0, 0, 0],[9E+09,9E+09,9E+09,9E+09,9E+09,9E+09]];
    CONST robtarget point_79_clearance:=[[378,181,137],[0,0,1,0],[0, 0, 0, 0],[9E+09,9E+09,9E+09,9E+09,9E+09,9E+09]];
    CONST robtarget point_80_clearance:=[[395,146,137],[0,0,1,0],[0, 0, 0, 0],[9E+09,9E+09,9E+09,9E+09,9E+09,9E+09]];
    CONST robtarget point_80_contact:=[[395,146,122],[0,0,1,0],[0, 0, 0, 0],[9E+09,9E+09,9E+09,9E+09,9E+09,9E+09]];
    CONST robtarget point_81_contact:=[[402,155,122],[0,0,1,0],[0, 0, 0, 0],[9E+09,9E+09,9E+09,9E+09,9E+09,9E+09]];
    CONST robtarget point_81_clearance:=[[402,155,137],[0,0,1,0],[0, 0, 0, 0],[9E+09,9E+09,9E+09,9E+09,9E+09,9E+09]];
    CONST robtarget point_82_clearance:=[[391,150,137],[0,0,1,0],[0, 0, 0, 0],[9E+09,9E+09,9E+09,9E+09,9E+09,9E+09]];
    CONST robtarget point_82_contact:=[[391,150,122],[0,0,1,0],[0, 0, 0, 0],[9E+09,9E+09,9E+09,9E+09,9E+09,9E+09]];
    CONST robtarget point_83_contact:=[[384,153,122],[0,0,1,0],[0, 0, 0, 0],[9E+09,9E+09,9E+09,9E+09,9E+09,9E+09]];
    CONST robtarget point_83_clearance:=[[384,153,137],[0,0,1,0],[0, 0, 0, 0],[9E+09,9E+09,9E+09,9E+09,9E+09,9E+09]];
    CONST robtarget point_84_clearance:=[[397,154,137],[0,0,1,0],[0, 0, 0, 0],[9E+09,9E+09,9E+09,9E+09,9E+09,9E+09]];
    CONST robtarget point_84_contact:=[[397,154,122],[0,0,1,0],[0, 0, 0, 0],[9E+09,9E+09,9E+09,9E+09,9E+09,9E+09]];
    CONST robtarget point_85_contact:=[[392,150,122],[0,0,1,0],[0, 0, 0, 0],[9E+09,9E+09,9E+09,9E+09,9E+09,9E+09]];
    CONST robtarget point_85_clearance:=[[392,150,137],[0,0,1,0],[0, 0, 0, 0],[9E+09,9E+09,9E+09,9E+09,9E+09,9E+09]];
    CONST robtarget point_86_clearance:=[[408,195,137],[0,0,1,0],[0, 0, 0, 0],[9E+09,9E+09,9E+09,9E+09,9E+09,9E+09]];
    CONST robtarget point_86_contact:=[[408,195,122],[0,0,1,0],[0, 0, 0, 0],[9E+09,9E+09,9E+09,9E+09,9E+09,9E+09]];
    CONST robtarget point_87_contact:=[[418,150,122],[0,0,1,0],[0, 0, 0, 0],[9E+09,9E+09,9E+09,9E+09,9E+09,9E+09]];
    CONST robtarget point_87_clearance:=[[418,150,137],[0,0,1,0],[0, 0, 0, 0],[9E+09,9E+09,9E+09,9E+09,9E+09,9E+09]];
    CONST robtarget point_88_clearance:=[[420,150,137],[0,0,1,0],[0, 0, 0, 0],[9E+09,9E+09,9E+09,9E+09,9E+09,9E+09]];
    CONST robtarget point_88_contact:=[[420,150,122],[0,0,1,0],[0, 0, 0, 0],[9E+09,9E+09,9E+09,9E+09,9E+09,9E+09]];
    CONST robtarget point_89_contact:=[[417,171,122],[0,0,1,0],[0, 0, 0, 0],[9E+09,9E+09,9E+09,9E+09,9E+09,9E+09]];
    CONST robtarget point_89_clearance:=[[417,171,137],[0,0,1,0],[0, 0, 0, 0],[9E+09,9E+09,9E+09,9E+09,9E+09,9E+09]];
    CONST robtarget point_90_clearance:=[[291,151,137],[0,0,1,0],[0, 0, 0, 0],[9E+09,9E+09,9E+09,9E+09,9E+09,9E+09]];
    CONST robtarget point_90_contact:=[[291,151,122],[0,0,1,0],[0, 0, 0, 0],[9E+09,9E+09,9E+09,9E+09,9E+09,9E+09]];
    CONST robtarget point_91_contact:=[[301,196,122],[0,0,1,0],[0, 0, 0, 0],[9E+09,9E+09,9E+09,9E+09,9E+09,9E+09]];
    CONST robtarget point_91_clearance:=[[301,196,137],[0,0,1,0],[0, 0, 0, 0],[9E+09,9E+09,9E+09,9E+09,9E+09,9E+09]];
    CONST robtarget point_92_clearance:=[[305,159,137],[0,0,1,0],[0, 0, 0, 0],[9E+09,9E+09,9E+09,9E+09,9E+09,9E+09]];
    CONST robtarget point_92_contact:=[[305,159,122],[0,0,1,0],[0, 0, 0, 0],[9E+09,9E+09,9E+09,9E+09,9E+09,9E+09]];
    CONST robtarget point_93_contact:=[[311,155,122],[0,0,1,0],[0, 0, 0, 0],[9E+09,9E+09,9E+09,9E+09,9E+09,9E+09]];
    CONST robtarget point_93_clearance:=[[311,155,137],[0,0,1,0],[0, 0, 0, 0],[9E+09,9E+09,9E+09,9E+09,9E+09,9E+09]];
    CONST robtarget point_94_clearance:=[[317,155,137],[0,0,1,0],[0, 0, 0, 0],[9E+09,9E+09,9E+09,9E+09,9E+09,9E+09]];
    CONST robtarget point_94_contact:=[[317,155,122],[0,0,1,0],[0, 0, 0, 0],[9E+09,9E+09,9E+09,9E+09,9E+09,9E+09]];
    CONST robtarget point_95_contact:=[[323,163,122],[0,0,1,0],[0, 0, 0, 0],[9E+09,9E+09,9E+09,9E+09,9E+09,9E+09]];
    CONST robtarget point_95_clearance:=[[323,163,137],[0,0,1,0],[0, 0, 0, 0],[9E+09,9E+09,9E+09,9E+09,9E+09,9E+09]];
    CONST robtarget point_96_clearance:=[[328,160,137],[0,0,1,0],[0, 0, 0, 0],[9E+09,9E+09,9E+09,9E+09,9E+09,9E+09]];
    CONST robtarget point_96_contact:=[[328,160,122],[0,0,1,0],[0, 0, 0, 0],[9E+09,9E+09,9E+09,9E+09,9E+09,9E+09]];
    CONST robtarget point_97_contact:=[[334,155,122],[0,0,1,0],[0, 0, 0, 0],[9E+09,9E+09,9E+09,9E+09,9E+09,9E+09]];
    CONST robtarget point_97_clearance:=[[334,155,137],[0,0,1,0],[0, 0, 0, 0],[9E+09,9E+09,9E+09,9E+09,9E+09,9E+09]];
    CONST robtarget point_98_clearance:=[[335,156,137],[0,0,1,0],[0, 0, 0, 0],[9E+09,9E+09,9E+09,9E+09,9E+09,9E+09]];
    CONST robtarget point_98_contact:=[[335,156,122],[0,0,1,0],[0, 0, 0, 0],[9E+09,9E+09,9E+09,9E+09,9E+09,9E+09]];
    CONST robtarget point_99_contact:=[[340,156,122],[0,0,1,0],[0, 0, 0, 0],[9E+09,9E+09,9E+09,9E+09,9E+09,9E+09]];
    CONST robtarget point_99_clearance:=[[340,156,137],[0,0,1,0],[0, 0, 0, 0],[9E+09,9E+09,9E+09,9E+09,9E+09,9E+09]];
    CONST robtarget point_100_clearance:=[[340,155,137],[0,0,1,0],[0, 0, 0, 0],[9E+09,9E+09,9E+09,9E+09,9E+09,9E+09]];
    CONST robtarget point_100_contact:=[[340,155,122],[0,0,1,0],[0, 0, 0, 0],[9E+09,9E+09,9E+09,9E+09,9E+09,9E+09]];
    CONST robtarget point_101_contact:=[[347,163,122],[0,0,1,0],[0, 0, 0, 0],[9E+09,9E+09,9E+09,9E+09,9E+09,9E+09]];
    CONST robtarget point_101_clearance:=[[347,163,137],[0,0,1,0],[0, 0, 0, 0],[9E+09,9E+09,9E+09,9E+09,9E+09,9E+09]];
    CONST robtarget point_102_clearance:=[[362,158,137],[0,0,1,0],[0, 0, 0, 0],[9E+09,9E+09,9E+09,9E+09,9E+09,9E+09]];
    CONST robtarget point_102_contact:=[[362,158,122],[0,0,1,0],[0, 0, 0, 0],[9E+09,9E+09,9E+09,9E+09,9E+09,9E+09]];
    CONST robtarget point_103_contact:=[[367,156,122],[0,0,1,0],[0, 0, 0, 0],[9E+09,9E+09,9E+09,9E+09,9E+09,9E+09]];
    CONST robtarget point_103_clearance:=[[367,156,137],[0,0,1,0],[0, 0, 0, 0],[9E+09,9E+09,9E+09,9E+09,9E+09,9E+09]];
    CONST robtarget point_104_clearance:=[[368,155,137],[0,0,1,0],[0, 0, 0, 0],[9E+09,9E+09,9E+09,9E+09,9E+09,9E+09]];
    CONST robtarget point_104_contact:=[[368,155,122],[0,0,1,0],[0, 0, 0, 0],[9E+09,9E+09,9E+09,9E+09,9E+09,9E+09]];
    CONST robtarget point_105_contact:=[[374,158,122],[0,0,1,0],[0, 0, 0, 0],[9E+09,9E+09,9E+09,9E+09,9E+09,9E+09]];
    CONST robtarget point_105_clearance:=[[374,158,137],[0,0,1,0],[0, 0, 0, 0],[9E+09,9E+09,9E+09,9E+09,9E+09,9E+09]];
    CONST robtarget point_106_clearance:=[[399,170,137],[0,0,1,0],[0, 0, 0, 0],[9E+09,9E+09,9E+09,9E+09,9E+09,9E+09]];
    CONST robtarget point_106_contact:=[[399,170,122],[0,0,1,0],[0, 0, 0, 0],[9E+09,9E+09,9E+09,9E+09,9E+09,9E+09]];
    CONST robtarget point_107_contact:=[[397,154,122],[0,0,1,0],[0, 0, 0, 0],[9E+09,9E+09,9E+09,9E+09,9E+09,9E+09]];
    CONST robtarget point_107_clearance:=[[397,154,137],[0,0,1,0],[0, 0, 0, 0],[9E+09,9E+09,9E+09,9E+09,9E+09,9E+09]];
    CONST robtarget point_108_clearance:=[[403,156,137],[0,0,1,0],[0, 0, 0, 0],[9E+09,9E+09,9E+09,9E+09,9E+09,9E+09]];
    CONST robtarget point_108_contact:=[[403,156,122],[0,0,1,0],[0, 0, 0, 0],[9E+09,9E+09,9E+09,9E+09,9E+09,9E+09]];
    CONST robtarget point_109_contact:=[[402,175,122],[0,0,1,0],[0, 0, 0, 0],[9E+09,9E+09,9E+09,9E+09,9E+09,9E+09]];
    CONST robtarget point_109_clearance:=[[402,175,137],[0,0,1,0],[0, 0, 0, 0],[9E+09,9E+09,9E+09,9E+09,9E+09,9E+09]];
    CONST robtarget point_110_clearance:=[[361,180,137],[0,0,1,0],[0, 0, 0, 0],[9E+09,9E+09,9E+09,9E+09,9E+09,9E+09]];
    CONST robtarget point_110_contact:=[[361,180,122],[0,0,1,0],[0, 0, 0, 0],[9E+09,9E+09,9E+09,9E+09,9E+09,9E+09]];
    CONST robtarget point_111_contact:=[[362,158,122],[0,0,1,0],[0, 0, 0, 0],[9E+09,9E+09,9E+09,9E+09,9E+09,9E+09]];
    CONST robtarget point_111_clearance:=[[362,158,137],[0,0,1,0],[0, 0, 0, 0],[9E+09,9E+09,9E+09,9E+09,9E+09,9E+09]];
    CONST robtarget point_112_clearance:=[[304,167,137],[0,0,1,0],[0, 0, 0, 0],[9E+09,9E+09,9E+09,9E+09,9E+09,9E+09]];
    CONST robtarget point_112_contact:=[[304,167,122],[0,0,1,0],[0, 0, 0, 0],[9E+09,9E+09,9E+09,9E+09,9E+09,9E+09]];
    CONST robtarget point_113_contact:=[[306,160,122],[0,0,1,0],[0, 0, 0, 0],[9E+09,9E+09,9E+09,9E+09,9E+09,9E+09]];
    CONST robtarget point_113_clearance:=[[306,160,137],[0,0,1,0],[0, 0, 0, 0],[9E+09,9E+09,9E+09,9E+09,9E+09,9E+09]];
    CONST robtarget point_114_clearance:=[[327,176,137],[0,0,1,0],[0, 0, 0, 0],[9E+09,9E+09,9E+09,9E+09,9E+09,9E+09]];
    CONST robtarget point_114_contact:=[[327,176,122],[0,0,1,0],[0, 0, 0, 0],[9E+09,9E+09,9E+09,9E+09,9E+09,9E+09]];
    CONST robtarget point_115_contact:=[[327,160,122],[0,0,1,0],[0, 0, 0, 0],[9E+09,9E+09,9E+09,9E+09,9E+09,9E+09]];
    CONST robtarget point_115_clearance:=[[327,160,137],[0,0,1,0],[0, 0, 0, 0],[9E+09,9E+09,9E+09,9E+09,9E+09,9E+09]];
    CONST robtarget point_116_clearance:=[[343,170,137],[0,0,1,0],[0, 0, 0, 0],[9E+09,9E+09,9E+09,9E+09,9E+09,9E+09]];
    CONST robtarget point_116_contact:=[[343,170,122],[0,0,1,0],[0, 0, 0, 0],[9E+09,9E+09,9E+09,9E+09,9E+09,9E+09]];
    CONST robtarget point_117_contact:=[[341,160,122],[0,0,1,0],[0, 0, 0, 0],[9E+09,9E+09,9E+09,9E+09,9E+09,9E+09]];
    CONST robtarget point_117_clearance:=[[341,160,137],[0,0,1,0],[0, 0, 0, 0],[9E+09,9E+09,9E+09,9E+09,9E+09,9E+09]];
    CONST robtarget point_118_clearance:=[[375,164,137],[0,0,1,0],[0, 0, 0, 0],[9E+09,9E+09,9E+09,9E+09,9E+09,9E+09]];
    CONST robtarget point_118_contact:=[[375,164,122],[0,0,1,0],[0, 0, 0, 0],[9E+09,9E+09,9E+09,9E+09,9E+09,9E+09]];
    CONST robtarget point_119_contact:=[[371,160,122],[0,0,1,0],[0, 0, 0, 0],[9E+09,9E+09,9E+09,9E+09,9E+09,9E+09]];
    CONST robtarget point_119_clearance:=[[371,160,137],[0,0,1,0],[0, 0, 0, 0],[9E+09,9E+09,9E+09,9E+09,9E+09,9E+09]];
    CONST robtarget point_120_clearance:=[[301,203,137],[0,0,1,0],[0, 0, 0, 0],[9E+09,9E+09,9E+09,9E+09,9E+09,9E+09]];
    CONST robtarget point_120_contact:=[[301,203,122],[0,0,1,0],[0, 0, 0, 0],[9E+09,9E+09,9E+09,9E+09,9E+09,9E+09]];
    CONST robtarget point_121_contact:=[[289,161,122],[0,0,1,0],[0, 0, 0, 0],[9E+09,9E+09,9E+09,9E+09,9E+09,9E+09]];
    CONST robtarget point_121_clearance:=[[289,161,137],[0,0,1,0],[0, 0, 0, 0],[9E+09,9E+09,9E+09,9E+09,9E+09,9E+09]];
    CONST robtarget point_122_clearance:=[[332,161,137],[0,0,1,0],[0, 0, 0, 0],[9E+09,9E+09,9E+09,9E+09,9E+09,9E+09]];
    CONST robtarget point_122_contact:=[[332,161,122],[0,0,1,0],[0, 0, 0, 0],[9E+09,9E+09,9E+09,9E+09,9E+09,9E+09]];
    CONST robtarget point_123_contact:=[[330,173,122],[0,0,1,0],[0, 0, 0, 0],[9E+09,9E+09,9E+09,9E+09,9E+09,9E+09]];
    CONST robtarget point_123_clearance:=[[330,173,137],[0,0,1,0],[0, 0, 0, 0],[9E+09,9E+09,9E+09,9E+09,9E+09,9E+09]];
    CONST robtarget point_124_clearance:=[[346,162,137],[0,0,1,0],[0, 0, 0, 0],[9E+09,9E+09,9E+09,9E+09,9E+09,9E+09]];
    CONST robtarget point_124_contact:=[[346,162,122],[0,0,1,0],[0, 0, 0, 0],[9E+09,9E+09,9E+09,9E+09,9E+09,9E+09]];
    CONST robtarget point_125_contact:=[[346,177,122],[0,0,1,0],[0, 0, 0, 0],[9E+09,9E+09,9E+09,9E+09,9E+09,9E+09]];
    CONST robtarget point_125_clearance:=[[346,177,137],[0,0,1,0],[0, 0, 0, 0],[9E+09,9E+09,9E+09,9E+09,9E+09,9E+09]];
    CONST robtarget point_126_clearance:=[[322,163,137],[0,0,1,0],[0, 0, 0, 0],[9E+09,9E+09,9E+09,9E+09,9E+09,9E+09]];
    CONST robtarget point_126_contact:=[[322,163,122],[0,0,1,0],[0, 0, 0, 0],[9E+09,9E+09,9E+09,9E+09,9E+09,9E+09]];
    CONST robtarget point_127_contact:=[[322,176,122],[0,0,1,0],[0, 0, 0, 0],[9E+09,9E+09,9E+09,9E+09,9E+09,9E+09]];
    CONST robtarget point_127_clearance:=[[322,176,137],[0,0,1,0],[0, 0, 0, 0],[9E+09,9E+09,9E+09,9E+09,9E+09,9E+09]];
    CONST robtarget point_128_clearance:=[[310,166,137],[0,0,1,0],[0, 0, 0, 0],[9E+09,9E+09,9E+09,9E+09,9E+09,9E+09]];
    CONST robtarget point_128_contact:=[[310,166,122],[0,0,1,0],[0, 0, 0, 0],[9E+09,9E+09,9E+09,9E+09,9E+09,9E+09]];
    CONST robtarget point_129_contact:=[[317,166,122],[0,0,1,0],[0, 0, 0, 0],[9E+09,9E+09,9E+09,9E+09,9E+09,9E+09]];
    CONST robtarget point_129_clearance:=[[317,166,137],[0,0,1,0],[0, 0, 0, 0],[9E+09,9E+09,9E+09,9E+09,9E+09,9E+09]];
    CONST robtarget point_130_clearance:=[[365,165,137],[0,0,1,0],[0, 0, 0, 0],[9E+09,9E+09,9E+09,9E+09,9E+09,9E+09]];
    CONST robtarget point_130_contact:=[[365,165,122],[0,0,1,0],[0, 0, 0, 0],[9E+09,9E+09,9E+09,9E+09,9E+09,9E+09]];
    CONST robtarget point_131_contact:=[[365,181,122],[0,0,1,0],[0, 0, 0, 0],[9E+09,9E+09,9E+09,9E+09,9E+09,9E+09]];
    CONST robtarget point_131_clearance:=[[365,181,137],[0,0,1,0],[0, 0, 0, 0],[9E+09,9E+09,9E+09,9E+09,9E+09,9E+09]];
    CONST robtarget point_132_clearance:=[[375,181,137],[0,0,1,0],[0, 0, 0, 0],[9E+09,9E+09,9E+09,9E+09,9E+09,9E+09]];
    CONST robtarget point_132_contact:=[[375,181,122],[0,0,1,0],[0, 0, 0, 0],[9E+09,9E+09,9E+09,9E+09,9E+09,9E+09]];
    CONST robtarget point_133_contact:=[[375,165,122],[0,0,1,0],[0, 0, 0, 0],[9E+09,9E+09,9E+09,9E+09,9E+09,9E+09]];
    CONST robtarget point_133_clearance:=[[375,165,137],[0,0,1,0],[0, 0, 0, 0],[9E+09,9E+09,9E+09,9E+09,9E+09,9E+09]];
    CONST robtarget point_134_clearance:=[[317,170,137],[0,0,1,0],[0, 0, 0, 0],[9E+09,9E+09,9E+09,9E+09,9E+09,9E+09]];
    CONST robtarget point_134_contact:=[[317,170,122],[0,0,1,0],[0, 0, 0, 0],[9E+09,9E+09,9E+09,9E+09,9E+09,9E+09]];
    CONST robtarget point_135_contact:=[[306,170,122],[0,0,1,0],[0, 0, 0, 0],[9E+09,9E+09,9E+09,9E+09,9E+09,9E+09]];
    CONST robtarget point_135_clearance:=[[306,170,137],[0,0,1,0],[0, 0, 0, 0],[9E+09,9E+09,9E+09,9E+09,9E+09,9E+09]];
    CONST robtarget point_136_clearance:=[[395,178,137],[0,0,1,0],[0, 0, 0, 0],[9E+09,9E+09,9E+09,9E+09,9E+09,9E+09]];
    CONST robtarget point_136_contact:=[[395,178,122],[0,0,1,0],[0, 0, 0, 0],[9E+09,9E+09,9E+09,9E+09,9E+09,9E+09]];
    CONST robtarget point_137_contact:=[[399,170,122],[0,0,1,0],[0, 0, 0, 0],[9E+09,9E+09,9E+09,9E+09,9E+09,9E+09]];
    CONST robtarget point_137_clearance:=[[399,170,137],[0,0,1,0],[0, 0, 0, 0],[9E+09,9E+09,9E+09,9E+09,9E+09,9E+09]];
    CONST robtarget point_138_clearance:=[[341,177,137],[0,0,1,0],[0, 0, 0, 0],[9E+09,9E+09,9E+09,9E+09,9E+09,9E+09]];
    CONST robtarget point_138_contact:=[[341,177,122],[0,0,1,0],[0, 0, 0, 0],[9E+09,9E+09,9E+09,9E+09,9E+09,9E+09]];
    CONST robtarget point_139_contact:=[[343,171,122],[0,0,1,0],[0, 0, 0, 0],[9E+09,9E+09,9E+09,9E+09,9E+09,9E+09]];
    CONST robtarget point_139_clearance:=[[343,171,137],[0,0,1,0],[0, 0, 0, 0],[9E+09,9E+09,9E+09,9E+09,9E+09,9E+09]];
    CONST robtarget point_140_clearance:=[[418,172,137],[0,0,1,0],[0, 0, 0, 0],[9E+09,9E+09,9E+09,9E+09,9E+09,9E+09]];
    CONST robtarget point_140_contact:=[[418,172,122],[0,0,1,0],[0, 0, 0, 0],[9E+09,9E+09,9E+09,9E+09,9E+09,9E+09]];
    CONST robtarget point_141_contact:=[[402,218,122],[0,0,1,0],[0, 0, 0, 0],[9E+09,9E+09,9E+09,9E+09,9E+09,9E+09]];
    CONST robtarget point_141_clearance:=[[402,218,137],[0,0,1,0],[0, 0, 0, 0],[9E+09,9E+09,9E+09,9E+09,9E+09,9E+09]];
    CONST robtarget point_142_clearance:=[[384,175,137],[0,0,1,0],[0, 0, 0, 0],[9E+09,9E+09,9E+09,9E+09,9E+09,9E+09]];
    CONST robtarget point_142_contact:=[[384,175,122],[0,0,1,0],[0, 0, 0, 0],[9E+09,9E+09,9E+09,9E+09,9E+09,9E+09]];
    CONST robtarget point_143_contact:=[[390,179,122],[0,0,1,0],[0, 0, 0, 0],[9E+09,9E+09,9E+09,9E+09,9E+09,9E+09]];
    CONST robtarget point_143_clearance:=[[390,179,137],[0,0,1,0],[0, 0, 0, 0],[9E+09,9E+09,9E+09,9E+09,9E+09,9E+09]];
    CONST robtarget point_144_clearance:=[[403,174,137],[0,0,1,0],[0, 0, 0, 0],[9E+09,9E+09,9E+09,9E+09,9E+09,9E+09]];
    CONST robtarget point_144_contact:=[[403,174,122],[0,0,1,0],[0, 0, 0, 0],[9E+09,9E+09,9E+09,9E+09,9E+09,9E+09]];
    CONST robtarget point_145_contact:=[[395,183,122],[0,0,1,0],[0, 0, 0, 0],[9E+09,9E+09,9E+09,9E+09,9E+09,9E+09]];
    CONST robtarget point_145_clearance:=[[395,183,137],[0,0,1,0],[0, 0, 0, 0],[9E+09,9E+09,9E+09,9E+09,9E+09,9E+09]];
    CONST robtarget point_146_clearance:=[[307,177,137],[0,0,1,0],[0, 0, 0, 0],[9E+09,9E+09,9E+09,9E+09,9E+09,9E+09]];
    CONST robtarget point_146_contact:=[[307,177,122],[0,0,1,0],[0, 0, 0, 0],[9E+09,9E+09,9E+09,9E+09,9E+09,9E+09]];
    CONST robtarget point_147_contact:=[[315,179,122],[0,0,1,0],[0, 0, 0, 0],[9E+09,9E+09,9E+09,9E+09,9E+09,9E+09]];
    CONST robtarget point_147_clearance:=[[315,179,137],[0,0,1,0],[0, 0, 0, 0],[9E+09,9E+09,9E+09,9E+09,9E+09,9E+09]];
    CONST robtarget point_148_clearance:=[[333,183,137],[0,0,1,0],[0, 0, 0, 0],[9E+09,9E+09,9E+09,9E+09,9E+09,9E+09]];
    CONST robtarget point_148_contact:=[[333,183,122],[0,0,1,0],[0, 0, 0, 0],[9E+09,9E+09,9E+09,9E+09,9E+09,9E+09]];
    CONST robtarget point_149_contact:=[[326,176,122],[0,0,1,0],[0, 0, 0, 0],[9E+09,9E+09,9E+09,9E+09,9E+09,9E+09]];
    CONST robtarget point_149_clearance:=[[326,176,137],[0,0,1,0],[0, 0, 0, 0],[9E+09,9E+09,9E+09,9E+09,9E+09,9E+09]];
    CONST robtarget point_150_clearance:=[[322,176,137],[0,0,1,0],[0, 0, 0, 0],[9E+09,9E+09,9E+09,9E+09,9E+09,9E+09]];
    CONST robtarget point_150_contact:=[[322,176,122],[0,0,1,0],[0, 0, 0, 0],[9E+09,9E+09,9E+09,9E+09,9E+09,9E+09]];
    CONST robtarget point_151_contact:=[[317,183,122],[0,0,1,0],[0, 0, 0, 0],[9E+09,9E+09,9E+09,9E+09,9E+09,9E+09]];
    CONST robtarget point_151_clearance:=[[317,183,137],[0,0,1,0],[0, 0, 0, 0],[9E+09,9E+09,9E+09,9E+09,9E+09,9E+09]];
    CONST robtarget point_152_clearance:=[[346,176,137],[0,0,1,0],[0, 0, 0, 0],[9E+09,9E+09,9E+09,9E+09,9E+09,9E+09]];
    CONST robtarget point_152_contact:=[[346,176,122],[0,0,1,0],[0, 0, 0, 0],[9E+09,9E+09,9E+09,9E+09,9E+09,9E+09]];
    CONST robtarget point_153_contact:=[[340,183,122],[0,0,1,0],[0, 0, 0, 0],[9E+09,9E+09,9E+09,9E+09,9E+09,9E+09]];
    CONST robtarget point_153_clearance:=[[340,183,137],[0,0,1,0],[0, 0, 0, 0],[9E+09,9E+09,9E+09,9E+09,9E+09,9E+09]];
    CONST robtarget point_154_clearance:=[[389,184,137],[0,0,1,0],[0, 0, 0, 0],[9E+09,9E+09,9E+09,9E+09,9E+09,9E+09]];
    CONST robtarget point_154_contact:=[[389,184,122],[0,0,1,0],[0, 0, 0, 0],[9E+09,9E+09,9E+09,9E+09,9E+09,9E+09]];
    CONST robtarget point_155_contact:=[[381,178,122],[0,0,1,0],[0, 0, 0, 0],[9E+09,9E+09,9E+09,9E+09,9E+09,9E+09]];
    CONST robtarget point_155_clearance:=[[381,178,137],[0,0,1,0],[0, 0, 0, 0],[9E+09,9E+09,9E+09,9E+09,9E+09,9E+09]];
    CONST robtarget point_156_clearance:=[[315,183,137],[0,0,1,0],[0, 0, 0, 0],[9E+09,9E+09,9E+09,9E+09,9E+09,9E+09]];
    CONST robtarget point_156_contact:=[[315,183,122],[0,0,1,0],[0, 0, 0, 0],[9E+09,9E+09,9E+09,9E+09,9E+09,9E+09]];
    CONST robtarget point_157_contact:=[[306,182,122],[0,0,1,0],[0, 0, 0, 0],[9E+09,9E+09,9E+09,9E+09,9E+09,9E+09]];
    CONST robtarget point_157_clearance:=[[306,182,137],[0,0,1,0],[0, 0, 0, 0],[9E+09,9E+09,9E+09,9E+09,9E+09,9E+09]];
    CONST robtarget point_158_clearance:=[[340,182,137],[0,0,1,0],[0, 0, 0, 0],[9E+09,9E+09,9E+09,9E+09,9E+09,9E+09]];
    CONST robtarget point_158_contact:=[[340,182,122],[0,0,1,0],[0, 0, 0, 0],[9E+09,9E+09,9E+09,9E+09,9E+09,9E+09]];
    CONST robtarget point_159_contact:=[[333,182,122],[0,0,1,0],[0, 0, 0, 0],[9E+09,9E+09,9E+09,9E+09,9E+09,9E+09]];
    CONST robtarget point_159_clearance:=[[333,182,137],[0,0,1,0],[0, 0, 0, 0],[9E+09,9E+09,9E+09,9E+09,9E+09,9E+09]];
    CONST robtarget point_160_clearance:=[[395,182,137],[0,0,1,0],[0, 0, 0, 0],[9E+09,9E+09,9E+09,9E+09,9E+09,9E+09]];
    CONST robtarget point_160_contact:=[[395,182,122],[0,0,1,0],[0, 0, 0, 0],[9E+09,9E+09,9E+09,9E+09,9E+09,9E+09]];
    CONST robtarget point_161_contact:=[[388,182,122],[0,0,1,0],[0, 0, 0, 0],[9E+09,9E+09,9E+09,9E+09,9E+09,9E+09]];
    CONST robtarget point_161_clearance:=[[388,182,137],[0,0,1,0],[0, 0, 0, 0],[9E+09,9E+09,9E+09,9E+09,9E+09,9E+09]];
    CONST robtarget point_162_clearance:=[[386,239,137],[0,0,1,0],[0, 0, 0, 0],[9E+09,9E+09,9E+09,9E+09,9E+09,9E+09]];
    CONST robtarget point_162_contact:=[[386,239,122],[0,0,1,0],[0, 0, 0, 0],[9E+09,9E+09,9E+09,9E+09,9E+09,9E+09]];
    CONST robtarget point_163_contact:=[[408,196,122],[0,0,1,0],[0, 0, 0, 0],[9E+09,9E+09,9E+09,9E+09,9E+09,9E+09]];
    CONST robtarget point_163_clearance:=[[408,196,137],[0,0,1,0],[0, 0, 0, 0],[9E+09,9E+09,9E+09,9E+09,9E+09,9E+09]];
    CONST robtarget point_164_clearance:=[[301,198,137],[0,0,1,0],[0, 0, 0, 0],[9E+09,9E+09,9E+09,9E+09,9E+09,9E+09]];
    CONST robtarget point_164_contact:=[[301,198,122],[0,0,1,0],[0, 0, 0, 0],[9E+09,9E+09,9E+09,9E+09,9E+09,9E+09]];
    CONST robtarget point_165_contact:=[[323,239,122],[0,0,1,0],[0, 0, 0, 0],[9E+09,9E+09,9E+09,9E+09,9E+09,9E+09]];
    CONST robtarget point_165_clearance:=[[323,239,137],[0,0,1,0],[0, 0, 0, 0],[9E+09,9E+09,9E+09,9E+09,9E+09,9E+09]];
    CONST robtarget point_166_clearance:=[[321,240,137],[0,0,1,0],[0, 0, 0, 0],[9E+09,9E+09,9E+09,9E+09,9E+09,9E+09]];
    CONST robtarget point_166_contact:=[[321,240,122],[0,0,1,0],[0, 0, 0, 0],[9E+09,9E+09,9E+09,9E+09,9E+09,9E+09]];
    CONST robtarget point_167_contact:=[[301,204,122],[0,0,1,0],[0, 0, 0, 0],[9E+09,9E+09,9E+09,9E+09,9E+09,9E+09]];
    CONST robtarget point_167_clearance:=[[301,204,137],[0,0,1,0],[0, 0, 0, 0],[9E+09,9E+09,9E+09,9E+09,9E+09,9E+09]];
    CONST robtarget point_168_clearance:=[[401,218,137],[0,0,1,0],[0, 0, 0, 0],[9E+09,9E+09,9E+09,9E+09,9E+09,9E+09]];
    CONST robtarget point_168_contact:=[[401,218,122],[0,0,1,0],[0, 0, 0, 0],[9E+09,9E+09,9E+09,9E+09,9E+09,9E+09]];
    CONST robtarget point_169_contact:=[[438,258,122],[0,0,1,0],[0, 0, 0, 0],[9E+09,9E+09,9E+09,9E+09,9E+09,9E+09]];
    CONST robtarget point_169_clearance:=[[438,258,137],[0,0,1,0],[0, 0, 0, 0],[9E+09,9E+09,9E+09,9E+09,9E+09,9E+09]];
    CONST robtarget point_170_clearance:=[[434,259,137],[0,0,1,0],[0, 0, 0, 0],[9E+09,9E+09,9E+09,9E+09,9E+09,9E+09]];
    CONST robtarget point_170_contact:=[[434,259,122],[0,0,1,0],[0, 0, 0, 0],[9E+09,9E+09,9E+09,9E+09,9E+09,9E+09]];
    CONST robtarget point_171_contact:=[[399,221,122],[0,0,1,0],[0, 0, 0, 0],[9E+09,9E+09,9E+09,9E+09,9E+09,9E+09]];
    CONST robtarget point_171_clearance:=[[399,221,137],[0,0,1,0],[0, 0, 0, 0],[9E+09,9E+09,9E+09,9E+09,9E+09,9E+09]];
    CONST robtarget point_172_clearance:=[[399,223,137],[0,0,1,0],[0, 0, 0, 0],[9E+09,9E+09,9E+09,9E+09,9E+09,9E+09]];
    CONST robtarget point_172_contact:=[[399,223,122],[0,0,1,0],[0, 0, 0, 0],[9E+09,9E+09,9E+09,9E+09,9E+09,9E+09]];
    CONST robtarget point_173_contact:=[[378,254,122],[0,0,1,0],[0, 0, 0, 0],[9E+09,9E+09,9E+09,9E+09,9E+09,9E+09]];
    CONST robtarget point_173_clearance:=[[378,254,137],[0,0,1,0],[0, 0, 0, 0],[9E+09,9E+09,9E+09,9E+09,9E+09,9E+09]];
    CONST robtarget point_174_clearance:=[[323,240,137],[0,0,1,0],[0, 0, 0, 0],[9E+09,9E+09,9E+09,9E+09,9E+09,9E+09]];
    CONST robtarget point_174_contact:=[[323,240,122],[0,0,1,0],[0, 0, 0, 0],[9E+09,9E+09,9E+09,9E+09,9E+09,9E+09]];
    CONST robtarget point_175_contact:=[[353,271,122],[0,0,1,0],[0, 0, 0, 0],[9E+09,9E+09,9E+09,9E+09,9E+09,9E+09]];
    CONST robtarget point_175_clearance:=[[353,271,137],[0,0,1,0],[0, 0, 0, 0],[9E+09,9E+09,9E+09,9E+09,9E+09,9E+09]];
    CONST robtarget point_176_clearance:=[[356,271,137],[0,0,1,0],[0, 0, 0, 0],[9E+09,9E+09,9E+09,9E+09,9E+09,9E+09]];
    CONST robtarget point_176_contact:=[[356,271,122],[0,0,1,0],[0, 0, 0, 0],[9E+09,9E+09,9E+09,9E+09,9E+09,9E+09]];
    CONST robtarget point_177_contact:=[[386,239,122],[0,0,1,0],[0, 0, 0, 0],[9E+09,9E+09,9E+09,9E+09,9E+09,9E+09]];
    CONST robtarget point_177_clearance:=[[386,239,137],[0,0,1,0],[0, 0, 0, 0],[9E+09,9E+09,9E+09,9E+09,9E+09,9E+09]];
    CONST robtarget point_178_clearance:=[[344,267,137],[0,0,1,0],[0, 0, 0, 0],[9E+09,9E+09,9E+09,9E+09,9E+09,9E+09]];
    CONST robtarget point_178_contact:=[[344,267,122],[0,0,1,0],[0, 0, 0, 0],[9E+09,9E+09,9E+09,9E+09,9E+09,9E+09]];
    CONST robtarget point_179_contact:=[[321,241,122],[0,0,1,0],[0, 0, 0, 0],[9E+09,9E+09,9E+09,9E+09,9E+09,9E+09]];
    CONST robtarget point_179_clearance:=[[321,241,137],[0,0,1,0],[0, 0, 0, 0],[9E+09,9E+09,9E+09,9E+09,9E+09,9E+09]];
    CONST robtarget point_180_clearance:=[[378,254,137],[0,0,1,0],[0, 0, 0, 0],[9E+09,9E+09,9E+09,9E+09,9E+09,9E+09]];
    CONST robtarget point_180_contact:=[[378,254,122],[0,0,1,0],[0, 0, 0, 0],[9E+09,9E+09,9E+09,9E+09,9E+09,9E+09]];
    CONST robtarget point_181_contact:=[[355,275,122],[0,0,1,0],[0, 0, 0, 0],[9E+09,9E+09,9E+09,9E+09,9E+09,9E+09]];
    CONST robtarget point_181_clearance:=[[355,275,137],[0,0,1,0],[0, 0, 0, 0],[9E+09,9E+09,9E+09,9E+09,9E+09,9E+09]];
    CONST robtarget point_182_clearance:=[[438,257,137],[0,0,1,0],[0, 0, 0, 0],[9E+09,9E+09,9E+09,9E+09,9E+09,9E+09]];
    CONST robtarget point_182_contact:=[[438,257,122],[0,0,1,0],[0, 0, 0, 0],[9E+09,9E+09,9E+09,9E+09,9E+09,9E+09]];
    CONST robtarget point_183_contact:=[[466,261,122],[0,0,1,0],[0, 0, 0, 0],[9E+09,9E+09,9E+09,9E+09,9E+09,9E+09]];
    CONST robtarget point_183_clearance:=[[466,261,137],[0,0,1,0],[0, 0, 0, 0],[9E+09,9E+09,9E+09,9E+09,9E+09,9E+09]];
    CONST robtarget point_184_clearance:=[[438,283,137],[0,0,1,0],[0, 0, 0, 0],[9E+09,9E+09,9E+09,9E+09,9E+09,9E+09]];
    CONST robtarget point_184_contact:=[[438,283,122],[0,0,1,0],[0, 0, 0, 0],[9E+09,9E+09,9E+09,9E+09,9E+09,9E+09]];
    CONST robtarget point_185_contact:=[[435,259,122],[0,0,1,0],[0, 0, 0, 0],[9E+09,9E+09,9E+09,9E+09,9E+09,9E+09]];
    CONST robtarget point_185_clearance:=[[435,259,137],[0,0,1,0],[0, 0, 0, 0],[9E+09,9E+09,9E+09,9E+09,9E+09,9E+09]];
    CONST robtarget point_186_clearance:=[[465,264,137],[0,0,1,0],[0, 0, 0, 0],[9E+09,9E+09,9E+09,9E+09,9E+09,9E+09]];
    CONST robtarget point_186_contact:=[[465,264,122],[0,0,1,0],[0, 0, 0, 0],[9E+09,9E+09,9E+09,9E+09,9E+09,9E+09]];
    CONST robtarget point_187_contact:=[[441,260,122],[0,0,1,0],[0, 0, 0, 0],[9E+09,9E+09,9E+09,9E+09,9E+09,9E+09]];
    CONST robtarget point_187_clearance:=[[441,260,137],[0,0,1,0],[0, 0, 0, 0],[9E+09,9E+09,9E+09,9E+09,9E+09,9E+09]];
    CONST robtarget point_188_clearance:=[[440,263,137],[0,0,1,0],[0, 0, 0, 0],[9E+09,9E+09,9E+09,9E+09,9E+09,9E+09]];
    CONST robtarget point_188_contact:=[[440,263,122],[0,0,1,0],[0, 0, 0, 0],[9E+09,9E+09,9E+09,9E+09,9E+09,9E+09]];
    CONST robtarget point_189_contact:=[[463,271,122],[0,0,1,0],[0, 0, 0, 0],[9E+09,9E+09,9E+09,9E+09,9E+09,9E+09]];
    CONST robtarget point_189_clearance:=[[463,271,137],[0,0,1,0],[0, 0, 0, 0],[9E+09,9E+09,9E+09,9E+09,9E+09,9E+09]];
    CONST robtarget point_190_clearance:=[[354,275,137],[0,0,1,0],[0, 0, 0, 0],[9E+09,9E+09,9E+09,9E+09,9E+09,9E+09]];
    CONST robtarget point_190_contact:=[[354,275,122],[0,0,1,0],[0, 0, 0, 0],[9E+09,9E+09,9E+09,9E+09,9E+09,9E+09]];
    CONST robtarget point_191_contact:=[[342,265,122],[0,0,1,0],[0, 0, 0, 0],[9E+09,9E+09,9E+09,9E+09,9E+09,9E+09]];
    CONST robtarget point_191_clearance:=[[342,265,137],[0,0,1,0],[0, 0, 0, 0],[9E+09,9E+09,9E+09,9E+09,9E+09,9E+09]];
    CONST robtarget point_192_clearance:=[[438,264,137],[0,0,1,0],[0, 0, 0, 0],[9E+09,9E+09,9E+09,9E+09,9E+09,9E+09]];
    CONST robtarget point_192_contact:=[[438,264,122],[0,0,1,0],[0, 0, 0, 0],[9E+09,9E+09,9E+09,9E+09,9E+09,9E+09]];
    CONST robtarget point_193_contact:=[[441,282,122],[0,0,1,0],[0, 0, 0, 0],[9E+09,9E+09,9E+09,9E+09,9E+09,9E+09]];
    CONST robtarget point_193_clearance:=[[441,282,137],[0,0,1,0],[0, 0, 0, 0],[9E+09,9E+09,9E+09,9E+09,9E+09,9E+09]];
    CONST robtarget point_194_clearance:=[[448,288,137],[0,0,1,0],[0, 0, 0, 0],[9E+09,9E+09,9E+09,9E+09,9E+09,9E+09]];
    CONST robtarget point_194_contact:=[[448,288,122],[0,0,1,0],[0, 0, 0, 0],[9E+09,9E+09,9E+09,9E+09,9E+09,9E+09]];
    CONST robtarget point_195_contact:=[[443,266,122],[0,0,1,0],[0, 0, 0, 0],[9E+09,9E+09,9E+09,9E+09,9E+09,9E+09]];
    CONST robtarget point_195_clearance:=[[443,266,137],[0,0,1,0],[0, 0, 0, 0],[9E+09,9E+09,9E+09,9E+09,9E+09,9E+09]];
    CONST robtarget point_196_clearance:=[[461,274,137],[0,0,1,0],[0, 0, 0, 0],[9E+09,9E+09,9E+09,9E+09,9E+09,9E+09]];
    CONST robtarget point_196_contact:=[[461,274,122],[0,0,1,0],[0, 0, 0, 0],[9E+09,9E+09,9E+09,9E+09,9E+09,9E+09]];
    CONST robtarget point_197_contact:=[[448,270,122],[0,0,1,0],[0, 0, 0, 0],[9E+09,9E+09,9E+09,9E+09,9E+09,9E+09]];
    CONST robtarget point_197_clearance:=[[448,270,137],[0,0,1,0],[0, 0, 0, 0],[9E+09,9E+09,9E+09,9E+09,9E+09,9E+09]];
    CONST robtarget point_198_clearance:=[[447,272,137],[0,0,1,0],[0, 0, 0, 0],[9E+09,9E+09,9E+09,9E+09,9E+09,9E+09]];
    CONST robtarget point_198_contact:=[[447,272,122],[0,0,1,0],[0, 0, 0, 0],[9E+09,9E+09,9E+09,9E+09,9E+09,9E+09]];
    CONST robtarget point_199_contact:=[[451,287,122],[0,0,1,0],[0, 0, 0, 0],[9E+09,9E+09,9E+09,9E+09,9E+09,9E+09]];
    CONST robtarget point_199_clearance:=[[451,287,137],[0,0,1,0],[0, 0, 0, 0],[9E+09,9E+09,9E+09,9E+09,9E+09,9E+09]];



    PROC main()
        Path_Calib;
        Path_Draw;
    ENDPROC
    LOCAL PROC Path_Calib()
        MoveAbsJ home,v500,fine,GS25_ParallelGripper\WObj:=Workobject_1;
        MoveL calib_1,v500,fine,GS25_ParallelGripper\WObj:=Workobject_1;
        MoveL calib_1d,v80,fine,GS25_ParallelGripper\WObj:=Workobject_1;
        MoveL calib_1,v80,fine,GS25_ParallelGripper\WObj:=Workobject_1;
        MoveL calib_2,v80,fine,GS25_ParallelGripper\WObj:=Workobject_1;
        MoveL calib_2d,v80,fine,GS25_ParallelGripper\WObj:=Workobject_1;
        MoveL calib_2,v80,fine,GS25_ParallelGripper\WObj:=Workobject_1;
        MoveL calib_3,v80,fine,GS25_ParallelGripper\WObj:=Workobject_1;
        MoveL calib_3d,v80,fine,GS25_ParallelGripper\WObj:=Workobject_1;
        MoveL calib_3,v80,fine,GS25_ParallelGripper\WObj:=Workobject_1;
        MoveL calib_4,v80,fine,GS25_ParallelGripper\WObj:=Workobject_1;
        MoveL calib_4d,v80,fine,GS25_ParallelGripper\WObj:=Workobject_1;
        MoveL calib_4,v80,fine,GS25_ParallelGripper\WObj:=Workobject_1;
        MoveL calib_1,v80,fine,GS25_ParallelGripper\WObj:=Workobject_1;
    ENDPROC

    LOCAL PROC Path_Draw()
        MoveL point_0_clearance,v500,fine,GS25_ParallelGripper\WObj:=Workobject_1;
        MoveL point_0_contact,v500,fine,GS25_ParallelGripper\WObj:=Workobject_1;
        MoveL point_1_contact,v500,fine,GS25_ParallelGripper\WObj:=Workobject_1;
        MoveL point_1_clearance,v500,fine,GS25_ParallelGripper\WObj:=Workobject_1;
        MoveL point_2_clearance,v500,fine,GS25_ParallelGripper\WObj:=Workobject_1;
        MoveL point_2_contact,v500,fine,GS25_ParallelGripper\WObj:=Workobject_1;
        MoveL point_3_contact,v500,fine,GS25_ParallelGripper\WObj:=Workobject_1;
        MoveL point_3_clearance,v500,fine,GS25_ParallelGripper\WObj:=Workobject_1;
        MoveL point_4_clearance,v500,fine,GS25_ParallelGripper\WObj:=Workobject_1;
        MoveL point_4_contact,v500,fine,GS25_ParallelGripper\WObj:=Workobject_1;
        MoveL point_5_contact,v500,fine,GS25_ParallelGripper\WObj:=Workobject_1;
        MoveL point_5_clearance,v500,fine,GS25_ParallelGripper\WObj:=Workobject_1;
        MoveL point_6_clearance,v500,fine,GS25_ParallelGripper\WObj:=Workobject_1;
        MoveL point_6_contact,v500,fine,GS25_ParallelGripper\WObj:=Workobject_1;
        MoveL point_7_contact,v500,fine,GS25_ParallelGripper\WObj:=Workobject_1;
        MoveL point_7_clearance,v500,fine,GS25_ParallelGripper\WObj:=Workobject_1;
        MoveL point_8_clearance,v500,fine,GS25_ParallelGripper\WObj:=Workobject_1;
        MoveL point_8_contact,v500,fine,GS25_ParallelGripper\WObj:=Workobject_1;
        MoveL point_9_contact,v500,fine,GS25_ParallelGripper\WObj:=Workobject_1;
        MoveL point_9_clearance,v500,fine,GS25_ParallelGripper\WObj:=Workobject_1;
        MoveL point_10_clearance,v500,fine,GS25_ParallelGripper\WObj:=Workobject_1;
        MoveL point_10_contact,v500,fine,GS25_ParallelGripper\WObj:=Workobject_1;
        MoveL point_11_contact,v500,fine,GS25_ParallelGripper\WObj:=Workobject_1;
        MoveL point_11_clearance,v500,fine,GS25_ParallelGripper\WObj:=Workobject_1;
        MoveL point_12_clearance,v500,fine,GS25_ParallelGripper\WObj:=Workobject_1;
        MoveL point_12_contact,v500,fine,GS25_ParallelGripper\WObj:=Workobject_1;
        MoveL point_13_contact,v500,fine,GS25_ParallelGripper\WObj:=Workobject_1;
        MoveL point_13_clearance,v500,fine,GS25_ParallelGripper\WObj:=Workobject_1;
        MoveL point_14_clearance,v500,fine,GS25_ParallelGripper\WObj:=Workobject_1;
        MoveL point_14_contact,v500,fine,GS25_ParallelGripper\WObj:=Workobject_1;
        MoveL point_15_contact,v500,fine,GS25_ParallelGripper\WObj:=Workobject_1;
        MoveL point_15_clearance,v500,fine,GS25_ParallelGripper\WObj:=Workobject_1;
        MoveL point_16_clearance,v500,fine,GS25_ParallelGripper\WObj:=Workobject_1;
        MoveL point_16_contact,v500,fine,GS25_ParallelGripper\WObj:=Workobject_1;
        MoveL point_17_contact,v500,fine,GS25_ParallelGripper\WObj:=Workobject_1;
        MoveL point_17_clearance,v500,fine,GS25_ParallelGripper\WObj:=Workobject_1;
        MoveL point_18_clearance,v500,fine,GS25_ParallelGripper\WObj:=Workobject_1;
        MoveL point_18_contact,v500,fine,GS25_ParallelGripper\WObj:=Workobject_1;
        MoveL point_19_contact,v500,fine,GS25_ParallelGripper\WObj:=Workobject_1;
        MoveL point_19_clearance,v500,fine,GS25_ParallelGripper\WObj:=Workobject_1;
        MoveL point_20_clearance,v500,fine,GS25_ParallelGripper\WObj:=Workobject_1;
        MoveL point_20_contact,v500,fine,GS25_ParallelGripper\WObj:=Workobject_1;
        MoveL point_21_contact,v500,fine,GS25_ParallelGripper\WObj:=Workobject_1;
        MoveL point_21_clearance,v500,fine,GS25_ParallelGripper\WObj:=Workobject_1;
        MoveL point_22_clearance,v500,fine,GS25_ParallelGripper\WObj:=Workobject_1;
        MoveL point_22_contact,v500,fine,GS25_ParallelGripper\WObj:=Workobject_1;
        MoveL point_23_contact,v500,fine,GS25_ParallelGripper\WObj:=Workobject_1;
        MoveL point_23_clearance,v500,fine,GS25_ParallelGripper\WObj:=Workobject_1;
        MoveL point_24_clearance,v500,fine,GS25_ParallelGripper\WObj:=Workobject_1;
        MoveL point_24_contact,v500,fine,GS25_ParallelGripper\WObj:=Workobject_1;
        MoveL point_25_contact,v500,fine,GS25_ParallelGripper\WObj:=Workobject_1;
        MoveL point_25_clearance,v500,fine,GS25_ParallelGripper\WObj:=Workobject_1;
        MoveL point_26_clearance,v500,fine,GS25_ParallelGripper\WObj:=Workobject_1;
        MoveL point_26_contact,v500,fine,GS25_ParallelGripper\WObj:=Workobject_1;
        MoveL point_27_contact,v500,fine,GS25_ParallelGripper\WObj:=Workobject_1;
        MoveL point_27_clearance,v500,fine,GS25_ParallelGripper\WObj:=Workobject_1;
        MoveL point_28_clearance,v500,fine,GS25_ParallelGripper\WObj:=Workobject_1;
        MoveL point_28_contact,v500,fine,GS25_ParallelGripper\WObj:=Workobject_1;
        MoveL point_29_contact,v500,fine,GS25_ParallelGripper\WObj:=Workobject_1;
        MoveL point_29_clearance,v500,fine,GS25_ParallelGripper\WObj:=Workobject_1;
        MoveL point_30_clearance,v500,fine,GS25_ParallelGripper\WObj:=Workobject_1;
        MoveL point_30_contact,v500,fine,GS25_ParallelGripper\WObj:=Workobject_1;
        MoveL point_31_contact,v500,fine,GS25_ParallelGripper\WObj:=Workobject_1;
        MoveL point_31_clearance,v500,fine,GS25_ParallelGripper\WObj:=Workobject_1;
        MoveL point_32_clearance,v500,fine,GS25_ParallelGripper\WObj:=Workobject_1;
        MoveL point_32_contact,v500,fine,GS25_ParallelGripper\WObj:=Workobject_1;
        MoveL point_33_contact,v500,fine,GS25_ParallelGripper\WObj:=Workobject_1;
        MoveL point_33_clearance,v500,fine,GS25_ParallelGripper\WObj:=Workobject_1;
        MoveL point_34_clearance,v500,fine,GS25_ParallelGripper\WObj:=Workobject_1;
        MoveL point_34_contact,v500,fine,GS25_ParallelGripper\WObj:=Workobject_1;
        MoveL point_35_contact,v500,fine,GS25_ParallelGripper\WObj:=Workobject_1;
        MoveL point_35_clearance,v500,fine,GS25_ParallelGripper\WObj:=Workobject_1;
        MoveL point_36_clearance,v500,fine,GS25_ParallelGripper\WObj:=Workobject_1;
        MoveL point_36_contact,v500,fine,GS25_ParallelGripper\WObj:=Workobject_1;
        MoveL point_37_contact,v500,fine,GS25_ParallelGripper\WObj:=Workobject_1;
        MoveL point_37_clearance,v500,fine,GS25_ParallelGripper\WObj:=Workobject_1;
        MoveL point_38_clearance,v500,fine,GS25_ParallelGripper\WObj:=Workobject_1;
        MoveL point_38_contact,v500,fine,GS25_ParallelGripper\WObj:=Workobject_1;
        MoveL point_39_contact,v500,fine,GS25_ParallelGripper\WObj:=Workobject_1;
        MoveL point_39_clearance,v500,fine,GS25_ParallelGripper\WObj:=Workobject_1;
        MoveL point_40_clearance,v500,fine,GS25_ParallelGripper\WObj:=Workobject_1;
        MoveL point_40_contact,v500,fine,GS25_ParallelGripper\WObj:=Workobject_1;
        MoveL point_41_contact,v500,fine,GS25_ParallelGripper\WObj:=Workobject_1;
        MoveL point_41_clearance,v500,fine,GS25_ParallelGripper\WObj:=Workobject_1;
        MoveL point_42_clearance,v500,fine,GS25_ParallelGripper\WObj:=Workobject_1;
        MoveL point_42_contact,v500,fine,GS25_ParallelGripper\WObj:=Workobject_1;
        MoveL point_43_contact,v500,fine,GS25_ParallelGripper\WObj:=Workobject_1;
        MoveL point_43_clearance,v500,fine,GS25_ParallelGripper\WObj:=Workobject_1;
        MoveL point_44_clearance,v500,fine,GS25_ParallelGripper\WObj:=Workobject_1;
        MoveL point_44_contact,v500,fine,GS25_ParallelGripper\WObj:=Workobject_1;
        MoveL point_45_contact,v500,fine,GS25_ParallelGripper\WObj:=Workobject_1;
        MoveL point_45_clearance,v500,fine,GS25_ParallelGripper\WObj:=Workobject_1;
        MoveL point_46_clearance,v500,fine,GS25_ParallelGripper\WObj:=Workobject_1;
        MoveL point_46_contact,v500,fine,GS25_ParallelGripper\WObj:=Workobject_1;
        MoveL point_47_contact,v500,fine,GS25_ParallelGripper\WObj:=Workobject_1;
        MoveL point_47_clearance,v500,fine,GS25_ParallelGripper\WObj:=Workobject_1;
        MoveL point_48_clearance,v500,fine,GS25_ParallelGripper\WObj:=Workobject_1;
        MoveL point_48_contact,v500,fine,GS25_ParallelGripper\WObj:=Workobject_1;
        MoveL point_49_contact,v500,fine,GS25_ParallelGripper\WObj:=Workobject_1;
        MoveL point_49_clearance,v500,fine,GS25_ParallelGripper\WObj:=Workobject_1;
        MoveL point_50_clearance,v500,fine,GS25_ParallelGripper\WObj:=Workobject_1;
        MoveL point_50_contact,v500,fine,GS25_ParallelGripper\WObj:=Workobject_1;
        MoveL point_51_contact,v500,fine,GS25_ParallelGripper\WObj:=Workobject_1;
        MoveL point_51_clearance,v500,fine,GS25_ParallelGripper\WObj:=Workobject_1;
        MoveL point_52_clearance,v500,fine,GS25_ParallelGripper\WObj:=Workobject_1;
        MoveL point_52_contact,v500,fine,GS25_ParallelGripper\WObj:=Workobject_1;
        MoveL point_53_contact,v500,fine,GS25_ParallelGripper\WObj:=Workobject_1;
        MoveL point_53_clearance,v500,fine,GS25_ParallelGripper\WObj:=Workobject_1;
        MoveL point_54_clearance,v500,fine,GS25_ParallelGripper\WObj:=Workobject_1;
        MoveL point_54_contact,v500,fine,GS25_ParallelGripper\WObj:=Workobject_1;
        MoveL point_55_contact,v500,fine,GS25_ParallelGripper\WObj:=Workobject_1;
        MoveL point_55_clearance,v500,fine,GS25_ParallelGripper\WObj:=Workobject_1;
        MoveL point_56_clearance,v500,fine,GS25_ParallelGripper\WObj:=Workobject_1;
        MoveL point_56_contact,v500,fine,GS25_ParallelGripper\WObj:=Workobject_1;
        MoveL point_57_contact,v500,fine,GS25_ParallelGripper\WObj:=Workobject_1;
        MoveL point_57_clearance,v500,fine,GS25_ParallelGripper\WObj:=Workobject_1;
        MoveL point_58_clearance,v500,fine,GS25_ParallelGripper\WObj:=Workobject_1;
        MoveL point_58_contact,v500,fine,GS25_ParallelGripper\WObj:=Workobject_1;
        MoveL point_59_contact,v500,fine,GS25_ParallelGripper\WObj:=Workobject_1;
        MoveL point_59_clearance,v500,fine,GS25_ParallelGripper\WObj:=Workobject_1;
        MoveL point_60_clearance,v500,fine,GS25_ParallelGripper\WObj:=Workobject_1;
        MoveL point_60_contact,v500,fine,GS25_ParallelGripper\WObj:=Workobject_1;
        MoveL point_61_contact,v500,fine,GS25_ParallelGripper\WObj:=Workobject_1;
        MoveL point_61_clearance,v500,fine,GS25_ParallelGripper\WObj:=Workobject_1;
        MoveL point_62_clearance,v500,fine,GS25_ParallelGripper\WObj:=Workobject_1;
        MoveL point_62_contact,v500,fine,GS25_ParallelGripper\WObj:=Workobject_1;
        MoveL point_63_contact,v500,fine,GS25_ParallelGripper\WObj:=Workobject_1;
        MoveL point_63_clearance,v500,fine,GS25_ParallelGripper\WObj:=Workobject_1;
        MoveL point_64_clearance,v500,fine,GS25_ParallelGripper\WObj:=Workobject_1;
        MoveL point_64_contact,v500,fine,GS25_ParallelGripper\WObj:=Workobject_1;
        MoveL point_65_contact,v500,fine,GS25_ParallelGripper\WObj:=Workobject_1;
        MoveL point_65_clearance,v500,fine,GS25_ParallelGripper\WObj:=Workobject_1;
        MoveL point_66_clearance,v500,fine,GS25_ParallelGripper\WObj:=Workobject_1;
        MoveL point_66_contact,v500,fine,GS25_ParallelGripper\WObj:=Workobject_1;
        MoveL point_67_contact,v500,fine,GS25_ParallelGripper\WObj:=Workobject_1;
        MoveL point_67_clearance,v500,fine,GS25_ParallelGripper\WObj:=Workobject_1;
        MoveL point_68_clearance,v500,fine,GS25_ParallelGripper\WObj:=Workobject_1;
        MoveL point_68_contact,v500,fine,GS25_ParallelGripper\WObj:=Workobject_1;
        MoveL point_69_contact,v500,fine,GS25_ParallelGripper\WObj:=Workobject_1;
        MoveL point_69_clearance,v500,fine,GS25_ParallelGripper\WObj:=Workobject_1;
        MoveL point_70_clearance,v500,fine,GS25_ParallelGripper\WObj:=Workobject_1;
        MoveL point_70_contact,v500,fine,GS25_ParallelGripper\WObj:=Workobject_1;
        MoveL point_71_contact,v500,fine,GS25_ParallelGripper\WObj:=Workobject_1;
        MoveL point_71_clearance,v500,fine,GS25_ParallelGripper\WObj:=Workobject_1;
        MoveL point_72_clearance,v500,fine,GS25_ParallelGripper\WObj:=Workobject_1;
        MoveL point_72_contact,v500,fine,GS25_ParallelGripper\WObj:=Workobject_1;
        MoveL point_73_contact,v500,fine,GS25_ParallelGripper\WObj:=Workobject_1;
        MoveL point_73_clearance,v500,fine,GS25_ParallelGripper\WObj:=Workobject_1;
        MoveL point_74_clearance,v500,fine,GS25_ParallelGripper\WObj:=Workobject_1;
        MoveL point_74_contact,v500,fine,GS25_ParallelGripper\WObj:=Workobject_1;
        MoveL point_75_contact,v500,fine,GS25_ParallelGripper\WObj:=Workobject_1;
        MoveL point_75_clearance,v500,fine,GS25_ParallelGripper\WObj:=Workobject_1;
        MoveL point_76_clearance,v500,fine,GS25_ParallelGripper\WObj:=Workobject_1;
        MoveL point_76_contact,v500,fine,GS25_ParallelGripper\WObj:=Workobject_1;
        MoveL point_77_contact,v500,fine,GS25_ParallelGripper\WObj:=Workobject_1;
        MoveL point_77_clearance,v500,fine,GS25_ParallelGripper\WObj:=Workobject_1;
        MoveL point_78_clearance,v500,fine,GS25_ParallelGripper\WObj:=Workobject_1;
        MoveL point_78_contact,v500,fine,GS25_ParallelGripper\WObj:=Workobject_1;
        MoveL point_79_contact,v500,fine,GS25_ParallelGripper\WObj:=Workobject_1;
        MoveL point_79_clearance,v500,fine,GS25_ParallelGripper\WObj:=Workobject_1;
        MoveL point_80_clearance,v500,fine,GS25_ParallelGripper\WObj:=Workobject_1;
        MoveL point_80_contact,v500,fine,GS25_ParallelGripper\WObj:=Workobject_1;
        MoveL point_81_contact,v500,fine,GS25_ParallelGripper\WObj:=Workobject_1;
        MoveL point_81_clearance,v500,fine,GS25_ParallelGripper\WObj:=Workobject_1;
        MoveL point_82_clearance,v500,fine,GS25_ParallelGripper\WObj:=Workobject_1;
        MoveL point_82_contact,v500,fine,GS25_ParallelGripper\WObj:=Workobject_1;
        MoveL point_83_contact,v500,fine,GS25_ParallelGripper\WObj:=Workobject_1;
        MoveL point_83_clearance,v500,fine,GS25_ParallelGripper\WObj:=Workobject_1;
        MoveL point_84_clearance,v500,fine,GS25_ParallelGripper\WObj:=Workobject_1;
        MoveL point_84_contact,v500,fine,GS25_ParallelGripper\WObj:=Workobject_1;
        MoveL point_85_contact,v500,fine,GS25_ParallelGripper\WObj:=Workobject_1;
        MoveL point_85_clearance,v500,fine,GS25_ParallelGripper\WObj:=Workobject_1;
        MoveL point_86_clearance,v500,fine,GS25_ParallelGripper\WObj:=Workobject_1;
        MoveL point_86_contact,v500,fine,GS25_ParallelGripper\WObj:=Workobject_1;
        MoveL point_87_contact,v500,fine,GS25_ParallelGripper\WObj:=Workobject_1;
        MoveL point_87_clearance,v500,fine,GS25_ParallelGripper\WObj:=Workobject_1;
        MoveL point_88_clearance,v500,fine,GS25_ParallelGripper\WObj:=Workobject_1;
        MoveL point_88_contact,v500,fine,GS25_ParallelGripper\WObj:=Workobject_1;
        MoveL point_89_contact,v500,fine,GS25_ParallelGripper\WObj:=Workobject_1;
        MoveL point_89_clearance,v500,fine,GS25_ParallelGripper\WObj:=Workobject_1;
        MoveL point_90_clearance,v500,fine,GS25_ParallelGripper\WObj:=Workobject_1;
        MoveL point_90_contact,v500,fine,GS25_ParallelGripper\WObj:=Workobject_1;
        MoveL point_91_contact,v500,fine,GS25_ParallelGripper\WObj:=Workobject_1;
        MoveL point_91_clearance,v500,fine,GS25_ParallelGripper\WObj:=Workobject_1;
        MoveL point_92_clearance,v500,fine,GS25_ParallelGripper\WObj:=Workobject_1;
        MoveL point_92_contact,v500,fine,GS25_ParallelGripper\WObj:=Workobject_1;
        MoveL point_93_contact,v500,fine,GS25_ParallelGripper\WObj:=Workobject_1;
        MoveL point_93_clearance,v500,fine,GS25_ParallelGripper\WObj:=Workobject_1;
        MoveL point_94_clearance,v500,fine,GS25_ParallelGripper\WObj:=Workobject_1;
        MoveL point_94_contact,v500,fine,GS25_ParallelGripper\WObj:=Workobject_1;
        MoveL point_95_contact,v500,fine,GS25_ParallelGripper\WObj:=Workobject_1;
        MoveL point_95_clearance,v500,fine,GS25_ParallelGripper\WObj:=Workobject_1;
        MoveL point_96_clearance,v500,fine,GS25_ParallelGripper\WObj:=Workobject_1;
        MoveL point_96_contact,v500,fine,GS25_ParallelGripper\WObj:=Workobject_1;
        MoveL point_97_contact,v500,fine,GS25_ParallelGripper\WObj:=Workobject_1;
        MoveL point_97_clearance,v500,fine,GS25_ParallelGripper\WObj:=Workobject_1;
        MoveL point_98_clearance,v500,fine,GS25_ParallelGripper\WObj:=Workobject_1;
        MoveL point_98_contact,v500,fine,GS25_ParallelGripper\WObj:=Workobject_1;
        MoveL point_99_contact,v500,fine,GS25_ParallelGripper\WObj:=Workobject_1;
        MoveL point_99_clearance,v500,fine,GS25_ParallelGripper\WObj:=Workobject_1;
        MoveL point_100_clearance,v500,fine,GS25_ParallelGripper\WObj:=Workobject_1;
        MoveL point_100_contact,v500,fine,GS25_ParallelGripper\WObj:=Workobject_1;
        MoveL point_101_contact,v500,fine,GS25_ParallelGripper\WObj:=Workobject_1;
        MoveL point_101_clearance,v500,fine,GS25_ParallelGripper\WObj:=Workobject_1;
        MoveL point_102_clearance,v500,fine,GS25_ParallelGripper\WObj:=Workobject_1;
        MoveL point_102_contact,v500,fine,GS25_ParallelGripper\WObj:=Workobject_1;
        MoveL point_103_contact,v500,fine,GS25_ParallelGripper\WObj:=Workobject_1;
        MoveL point_103_clearance,v500,fine,GS25_ParallelGripper\WObj:=Workobject_1;
        MoveL point_104_clearance,v500,fine,GS25_ParallelGripper\WObj:=Workobject_1;
        MoveL point_104_contact,v500,fine,GS25_ParallelGripper\WObj:=Workobject_1;
        MoveL point_105_contact,v500,fine,GS25_ParallelGripper\WObj:=Workobject_1;
        MoveL point_105_clearance,v500,fine,GS25_ParallelGripper\WObj:=Workobject_1;
        MoveL point_106_clearance,v500,fine,GS25_ParallelGripper\WObj:=Workobject_1;
        MoveL point_106_contact,v500,fine,GS25_ParallelGripper\WObj:=Workobject_1;
        MoveL point_107_contact,v500,fine,GS25_ParallelGripper\WObj:=Workobject_1;
        MoveL point_107_clearance,v500,fine,GS25_ParallelGripper\WObj:=Workobject_1;
        MoveL point_108_clearance,v500,fine,GS25_ParallelGripper\WObj:=Workobject_1;
        MoveL point_108_contact,v500,fine,GS25_ParallelGripper\WObj:=Workobject_1;
        MoveL point_109_contact,v500,fine,GS25_ParallelGripper\WObj:=Workobject_1;
        MoveL point_109_clearance,v500,fine,GS25_ParallelGripper\WObj:=Workobject_1;
        MoveL point_110_clearance,v500,fine,GS25_ParallelGripper\WObj:=Workobject_1;
        MoveL point_110_contact,v500,fine,GS25_ParallelGripper\WObj:=Workobject_1;
        MoveL point_111_contact,v500,fine,GS25_ParallelGripper\WObj:=Workobject_1;
        MoveL point_111_clearance,v500,fine,GS25_ParallelGripper\WObj:=Workobject_1;
        MoveL point_112_clearance,v500,fine,GS25_ParallelGripper\WObj:=Workobject_1;
        MoveL point_112_contact,v500,fine,GS25_ParallelGripper\WObj:=Workobject_1;
        MoveL point_113_contact,v500,fine,GS25_ParallelGripper\WObj:=Workobject_1;
        MoveL point_113_clearance,v500,fine,GS25_ParallelGripper\WObj:=Workobject_1;
        MoveL point_114_clearance,v500,fine,GS25_ParallelGripper\WObj:=Workobject_1;
        MoveL point_114_contact,v500,fine,GS25_ParallelGripper\WObj:=Workobject_1;
        MoveL point_115_contact,v500,fine,GS25_ParallelGripper\WObj:=Workobject_1;
        MoveL point_115_clearance,v500,fine,GS25_ParallelGripper\WObj:=Workobject_1;
        MoveL point_116_clearance,v500,fine,GS25_ParallelGripper\WObj:=Workobject_1;
        MoveL point_116_contact,v500,fine,GS25_ParallelGripper\WObj:=Workobject_1;
        MoveL point_117_contact,v500,fine,GS25_ParallelGripper\WObj:=Workobject_1;
        MoveL point_117_clearance,v500,fine,GS25_ParallelGripper\WObj:=Workobject_1;
        MoveL point_118_clearance,v500,fine,GS25_ParallelGripper\WObj:=Workobject_1;
        MoveL point_118_contact,v500,fine,GS25_ParallelGripper\WObj:=Workobject_1;
        MoveL point_119_contact,v500,fine,GS25_ParallelGripper\WObj:=Workobject_1;
        MoveL point_119_clearance,v500,fine,GS25_ParallelGripper\WObj:=Workobject_1;
        MoveL point_120_clearance,v500,fine,GS25_ParallelGripper\WObj:=Workobject_1;
        MoveL point_120_contact,v500,fine,GS25_ParallelGripper\WObj:=Workobject_1;
        MoveL point_121_contact,v500,fine,GS25_ParallelGripper\WObj:=Workobject_1;
        MoveL point_121_clearance,v500,fine,GS25_ParallelGripper\WObj:=Workobject_1;
        MoveL point_122_clearance,v500,fine,GS25_ParallelGripper\WObj:=Workobject_1;
        MoveL point_122_contact,v500,fine,GS25_ParallelGripper\WObj:=Workobject_1;
        MoveL point_123_contact,v500,fine,GS25_ParallelGripper\WObj:=Workobject_1;
        MoveL point_123_clearance,v500,fine,GS25_ParallelGripper\WObj:=Workobject_1;
        MoveL point_124_clearance,v500,fine,GS25_ParallelGripper\WObj:=Workobject_1;
        MoveL point_124_contact,v500,fine,GS25_ParallelGripper\WObj:=Workobject_1;
        MoveL point_125_contact,v500,fine,GS25_ParallelGripper\WObj:=Workobject_1;
        MoveL point_125_clearance,v500,fine,GS25_ParallelGripper\WObj:=Workobject_1;
        MoveL point_126_clearance,v500,fine,GS25_ParallelGripper\WObj:=Workobject_1;
        MoveL point_126_contact,v500,fine,GS25_ParallelGripper\WObj:=Workobject_1;
        MoveL point_127_contact,v500,fine,GS25_ParallelGripper\WObj:=Workobject_1;
        MoveL point_127_clearance,v500,fine,GS25_ParallelGripper\WObj:=Workobject_1;
        MoveL point_128_clearance,v500,fine,GS25_ParallelGripper\WObj:=Workobject_1;
        MoveL point_128_contact,v500,fine,GS25_ParallelGripper\WObj:=Workobject_1;
        MoveL point_129_contact,v500,fine,GS25_ParallelGripper\WObj:=Workobject_1;
        MoveL point_129_clearance,v500,fine,GS25_ParallelGripper\WObj:=Workobject_1;
        MoveL point_130_clearance,v500,fine,GS25_ParallelGripper\WObj:=Workobject_1;
        MoveL point_130_contact,v500,fine,GS25_ParallelGripper\WObj:=Workobject_1;
        MoveL point_131_contact,v500,fine,GS25_ParallelGripper\WObj:=Workobject_1;
        MoveL point_131_clearance,v500,fine,GS25_ParallelGripper\WObj:=Workobject_1;
        MoveL point_132_clearance,v500,fine,GS25_ParallelGripper\WObj:=Workobject_1;
        MoveL point_132_contact,v500,fine,GS25_ParallelGripper\WObj:=Workobject_1;
        MoveL point_133_contact,v500,fine,GS25_ParallelGripper\WObj:=Workobject_1;
        MoveL point_133_clearance,v500,fine,GS25_ParallelGripper\WObj:=Workobject_1;
        MoveL point_134_clearance,v500,fine,GS25_ParallelGripper\WObj:=Workobject_1;
        MoveL point_134_contact,v500,fine,GS25_ParallelGripper\WObj:=Workobject_1;
        MoveL point_135_contact,v500,fine,GS25_ParallelGripper\WObj:=Workobject_1;
        MoveL point_135_clearance,v500,fine,GS25_ParallelGripper\WObj:=Workobject_1;
        MoveL point_136_clearance,v500,fine,GS25_ParallelGripper\WObj:=Workobject_1;
        MoveL point_136_contact,v500,fine,GS25_ParallelGripper\WObj:=Workobject_1;
        MoveL point_137_contact,v500,fine,GS25_ParallelGripper\WObj:=Workobject_1;
        MoveL point_137_clearance,v500,fine,GS25_ParallelGripper\WObj:=Workobject_1;
        MoveL point_138_clearance,v500,fine,GS25_ParallelGripper\WObj:=Workobject_1;
        MoveL point_138_contact,v500,fine,GS25_ParallelGripper\WObj:=Workobject_1;
        MoveL point_139_contact,v500,fine,GS25_ParallelGripper\WObj:=Workobject_1;
        MoveL point_139_clearance,v500,fine,GS25_ParallelGripper\WObj:=Workobject_1;
        MoveL point_140_clearance,v500,fine,GS25_ParallelGripper\WObj:=Workobject_1;
        MoveL point_140_contact,v500,fine,GS25_ParallelGripper\WObj:=Workobject_1;
        MoveL point_141_contact,v500,fine,GS25_ParallelGripper\WObj:=Workobject_1;
        MoveL point_141_clearance,v500,fine,GS25_ParallelGripper\WObj:=Workobject_1;
        MoveL point_142_clearance,v500,fine,GS25_ParallelGripper\WObj:=Workobject_1;
        MoveL point_142_contact,v500,fine,GS25_ParallelGripper\WObj:=Workobject_1;
        MoveL point_143_contact,v500,fine,GS25_ParallelGripper\WObj:=Workobject_1;
        MoveL point_143_clearance,v500,fine,GS25_ParallelGripper\WObj:=Workobject_1;
        MoveL point_144_clearance,v500,fine,GS25_ParallelGripper\WObj:=Workobject_1;
        MoveL point_144_contact,v500,fine,GS25_ParallelGripper\WObj:=Workobject_1;
        MoveL point_145_contact,v500,fine,GS25_ParallelGripper\WObj:=Workobject_1;
        MoveL point_145_clearance,v500,fine,GS25_ParallelGripper\WObj:=Workobject_1;
        MoveL point_146_clearance,v500,fine,GS25_ParallelGripper\WObj:=Workobject_1;
        MoveL point_146_contact,v500,fine,GS25_ParallelGripper\WObj:=Workobject_1;
        MoveL point_147_contact,v500,fine,GS25_ParallelGripper\WObj:=Workobject_1;
        MoveL point_147_clearance,v500,fine,GS25_ParallelGripper\WObj:=Workobject_1;
        MoveL point_148_clearance,v500,fine,GS25_ParallelGripper\WObj:=Workobject_1;
        MoveL point_148_contact,v500,fine,GS25_ParallelGripper\WObj:=Workobject_1;
        MoveL point_149_contact,v500,fine,GS25_ParallelGripper\WObj:=Workobject_1;
        MoveL point_149_clearance,v500,fine,GS25_ParallelGripper\WObj:=Workobject_1;
        MoveL point_150_clearance,v500,fine,GS25_ParallelGripper\WObj:=Workobject_1;
        MoveL point_150_contact,v500,fine,GS25_ParallelGripper\WObj:=Workobject_1;
        MoveL point_151_contact,v500,fine,GS25_ParallelGripper\WObj:=Workobject_1;
        MoveL point_151_clearance,v500,fine,GS25_ParallelGripper\WObj:=Workobject_1;
        MoveL point_152_clearance,v500,fine,GS25_ParallelGripper\WObj:=Workobject_1;
        MoveL point_152_contact,v500,fine,GS25_ParallelGripper\WObj:=Workobject_1;
        MoveL point_153_contact,v500,fine,GS25_ParallelGripper\WObj:=Workobject_1;
        MoveL point_153_clearance,v500,fine,GS25_ParallelGripper\WObj:=Workobject_1;
        MoveL point_154_clearance,v500,fine,GS25_ParallelGripper\WObj:=Workobject_1;
        MoveL point_154_contact,v500,fine,GS25_ParallelGripper\WObj:=Workobject_1;
        MoveL point_155_contact,v500,fine,GS25_ParallelGripper\WObj:=Workobject_1;
        MoveL point_155_clearance,v500,fine,GS25_ParallelGripper\WObj:=Workobject_1;
        MoveL point_156_clearance,v500,fine,GS25_ParallelGripper\WObj:=Workobject_1;
        MoveL point_156_contact,v500,fine,GS25_ParallelGripper\WObj:=Workobject_1;
        MoveL point_157_contact,v500,fine,GS25_ParallelGripper\WObj:=Workobject_1;
        MoveL point_157_clearance,v500,fine,GS25_ParallelGripper\WObj:=Workobject_1;
        MoveL point_158_clearance,v500,fine,GS25_ParallelGripper\WObj:=Workobject_1;
        MoveL point_158_contact,v500,fine,GS25_ParallelGripper\WObj:=Workobject_1;
        MoveL point_159_contact,v500,fine,GS25_ParallelGripper\WObj:=Workobject_1;
        MoveL point_159_clearance,v500,fine,GS25_ParallelGripper\WObj:=Workobject_1;
        MoveL point_160_clearance,v500,fine,GS25_ParallelGripper\WObj:=Workobject_1;
        MoveL point_160_contact,v500,fine,GS25_ParallelGripper\WObj:=Workobject_1;
        MoveL point_161_contact,v500,fine,GS25_ParallelGripper\WObj:=Workobject_1;
        MoveL point_161_clearance,v500,fine,GS25_ParallelGripper\WObj:=Workobject_1;
        MoveL point_162_clearance,v500,fine,GS25_ParallelGripper\WObj:=Workobject_1;
        MoveL point_162_contact,v500,fine,GS25_ParallelGripper\WObj:=Workobject_1;
        MoveL point_163_contact,v500,fine,GS25_ParallelGripper\WObj:=Workobject_1;
        MoveL point_163_clearance,v500,fine,GS25_ParallelGripper\WObj:=Workobject_1;
        MoveL point_164_clearance,v500,fine,GS25_ParallelGripper\WObj:=Workobject_1;
        MoveL point_164_contact,v500,fine,GS25_ParallelGripper\WObj:=Workobject_1;
        MoveL point_165_contact,v500,fine,GS25_ParallelGripper\WObj:=Workobject_1;
        MoveL point_165_clearance,v500,fine,GS25_ParallelGripper\WObj:=Workobject_1;
        MoveL point_166_clearance,v500,fine,GS25_ParallelGripper\WObj:=Workobject_1;
        MoveL point_166_contact,v500,fine,GS25_ParallelGripper\WObj:=Workobject_1;
        MoveL point_167_contact,v500,fine,GS25_ParallelGripper\WObj:=Workobject_1;
        MoveL point_167_clearance,v500,fine,GS25_ParallelGripper\WObj:=Workobject_1;
        MoveL point_168_clearance,v500,fine,GS25_ParallelGripper\WObj:=Workobject_1;
        MoveL point_168_contact,v500,fine,GS25_ParallelGripper\WObj:=Workobject_1;
        MoveL point_169_contact,v500,fine,GS25_ParallelGripper\WObj:=Workobject_1;
        MoveL point_169_clearance,v500,fine,GS25_ParallelGripper\WObj:=Workobject_1;
        MoveL point_170_clearance,v500,fine,GS25_ParallelGripper\WObj:=Workobject_1;
        MoveL point_170_contact,v500,fine,GS25_ParallelGripper\WObj:=Workobject_1;
        MoveL point_171_contact,v500,fine,GS25_ParallelGripper\WObj:=Workobject_1;
        MoveL point_171_clearance,v500,fine,GS25_ParallelGripper\WObj:=Workobject_1;
        MoveL point_172_clearance,v500,fine,GS25_ParallelGripper\WObj:=Workobject_1;
        MoveL point_172_contact,v500,fine,GS25_ParallelGripper\WObj:=Workobject_1;
        MoveL point_173_contact,v500,fine,GS25_ParallelGripper\WObj:=Workobject_1;
        MoveL point_173_clearance,v500,fine,GS25_ParallelGripper\WObj:=Workobject_1;
        MoveL point_174_clearance,v500,fine,GS25_ParallelGripper\WObj:=Workobject_1;
        MoveL point_174_contact,v500,fine,GS25_ParallelGripper\WObj:=Workobject_1;
        MoveL point_175_contact,v500,fine,GS25_ParallelGripper\WObj:=Workobject_1;
        MoveL point_175_clearance,v500,fine,GS25_ParallelGripper\WObj:=Workobject_1;
        MoveL point_176_clearance,v500,fine,GS25_ParallelGripper\WObj:=Workobject_1;
        MoveL point_176_contact,v500,fine,GS25_ParallelGripper\WObj:=Workobject_1;
        MoveL point_177_contact,v500,fine,GS25_ParallelGripper\WObj:=Workobject_1;
        MoveL point_177_clearance,v500,fine,GS25_ParallelGripper\WObj:=Workobject_1;
        MoveL point_178_clearance,v500,fine,GS25_ParallelGripper\WObj:=Workobject_1;
        MoveL point_178_contact,v500,fine,GS25_ParallelGripper\WObj:=Workobject_1;
        MoveL point_179_contact,v500,fine,GS25_ParallelGripper\WObj:=Workobject_1;
        MoveL point_179_clearance,v500,fine,GS25_ParallelGripper\WObj:=Workobject_1;
        MoveL point_180_clearance,v500,fine,GS25_ParallelGripper\WObj:=Workobject_1;
        MoveL point_180_contact,v500,fine,GS25_ParallelGripper\WObj:=Workobject_1;
        MoveL point_181_contact,v500,fine,GS25_ParallelGripper\WObj:=Workobject_1;
        MoveL point_181_clearance,v500,fine,GS25_ParallelGripper\WObj:=Workobject_1;
        MoveL point_182_clearance,v500,fine,GS25_ParallelGripper\WObj:=Workobject_1;
        MoveL point_182_contact,v500,fine,GS25_ParallelGripper\WObj:=Workobject_1;
        MoveL point_183_contact,v500,fine,GS25_ParallelGripper\WObj:=Workobject_1;
        MoveL point_183_clearance,v500,fine,GS25_ParallelGripper\WObj:=Workobject_1;
        MoveL point_184_clearance,v500,fine,GS25_ParallelGripper\WObj:=Workobject_1;
        MoveL point_184_contact,v500,fine,GS25_ParallelGripper\WObj:=Workobject_1;
        MoveL point_185_contact,v500,fine,GS25_ParallelGripper\WObj:=Workobject_1;
        MoveL point_185_clearance,v500,fine,GS25_ParallelGripper\WObj:=Workobject_1;
        MoveL point_186_clearance,v500,fine,GS25_ParallelGripper\WObj:=Workobject_1;
        MoveL point_186_contact,v500,fine,GS25_ParallelGripper\WObj:=Workobject_1;
        MoveL point_187_contact,v500,fine,GS25_ParallelGripper\WObj:=Workobject_1;
        MoveL point_187_clearance,v500,fine,GS25_ParallelGripper\WObj:=Workobject_1;
        MoveL point_188_clearance,v500,fine,GS25_ParallelGripper\WObj:=Workobject_1;
        MoveL point_188_contact,v500,fine,GS25_ParallelGripper\WObj:=Workobject_1;
        MoveL point_189_contact,v500,fine,GS25_ParallelGripper\WObj:=Workobject_1;
        MoveL point_189_clearance,v500,fine,GS25_ParallelGripper\WObj:=Workobject_1;
        MoveL point_190_clearance,v500,fine,GS25_ParallelGripper\WObj:=Workobject_1;
        MoveL point_190_contact,v500,fine,GS25_ParallelGripper\WObj:=Workobject_1;
        MoveL point_191_contact,v500,fine,GS25_ParallelGripper\WObj:=Workobject_1;
        MoveL point_191_clearance,v500,fine,GS25_ParallelGripper\WObj:=Workobject_1;
        MoveL point_192_clearance,v500,fine,GS25_ParallelGripper\WObj:=Workobject_1;
        MoveL point_192_contact,v500,fine,GS25_ParallelGripper\WObj:=Workobject_1;
        MoveL point_193_contact,v500,fine,GS25_ParallelGripper\WObj:=Workobject_1;
        MoveL point_193_clearance,v500,fine,GS25_ParallelGripper\WObj:=Workobject_1;
        MoveL point_194_clearance,v500,fine,GS25_ParallelGripper\WObj:=Workobject_1;
        MoveL point_194_contact,v500,fine,GS25_ParallelGripper\WObj:=Workobject_1;
        MoveL point_195_contact,v500,fine,GS25_ParallelGripper\WObj:=Workobject_1;
        MoveL point_195_clearance,v500,fine,GS25_ParallelGripper\WObj:=Workobject_1;
        MoveL point_196_clearance,v500,fine,GS25_ParallelGripper\WObj:=Workobject_1;
        MoveL point_196_contact,v500,fine,GS25_ParallelGripper\WObj:=Workobject_1;
        MoveL point_197_contact,v500,fine,GS25_ParallelGripper\WObj:=Workobject_1;
        MoveL point_197_clearance,v500,fine,GS25_ParallelGripper\WObj:=Workobject_1;
        MoveL point_198_clearance,v500,fine,GS25_ParallelGripper\WObj:=Workobject_1;
        MoveL point_198_contact,v500,fine,GS25_ParallelGripper\WObj:=Workobject_1;
        MoveL point_199_contact,v500,fine,GS25_ParallelGripper\WObj:=Workobject_1;
        MoveL point_199_clearance,v500,fine,GS25_ParallelGripper\WObj:=Workobject_1;
        MoveAbsJ home,v500,fine,GS25_ParallelGripper\WObj:=Workobject_1;
    ENDPROC
ENDMODULE