MODULE Module1
    CONST robtarget point_0_clearance:=[[272,12,10],[0,0.707106781,0.707106781,0],[0, 0, 0, 0],[9000000000.0, 9000000000.0, 9000000000.0, 9000000000.0, 9000000000.0, 9000000000.0]];
    CONST robtarget point_0_contact:=[[272,12,5],[0,0.707106781,0.707106781,0],[0, 0, 0, 0],[9000000000.0, 9000000000.0, 9000000000.0, 9000000000.0, 9000000000.0, 9000000000.0]];
    CONST robtarget point_1_contact:=[[272,13,5],[0,0.707106781,0.707106781,0],[0, 0, 0, 0],[9000000000.0, 9000000000.0, 9000000000.0, 9000000000.0, 9000000000.0, 9000000000.0]];
    CONST robtarget point_1_clearance:=[[272,13,10],[0,0.707106781,0.707106781,0],[0, 0, 0, 0],[9000000000.0, 9000000000.0, 9000000000.0, 9000000000.0, 9000000000.0, 9000000000.0]];
    CONST robtarget point_2_clearance:=[[273,14,10],[0,0.707106781,0.707106781,0],[0, 0, 0, 0],[9000000000.0, 9000000000.0, 9000000000.0, 9000000000.0, 9000000000.0, 9000000000.0]];
    CONST robtarget point_2_contact:=[[273,14,5],[0,0.707106781,0.707106781,0],[0, 0, 0, 0],[9000000000.0, 9000000000.0, 9000000000.0, 9000000000.0, 9000000000.0, 9000000000.0]];
    CONST robtarget point_3_contact:=[[281,14,5],[0,0.707106781,0.707106781,0],[0, 0, 0, 0],[9000000000.0, 9000000000.0, 9000000000.0, 9000000000.0, 9000000000.0, 9000000000.0]];
    CONST robtarget point_3_clearance:=[[281,14,10],[0,0.707106781,0.707106781,0],[0, 0, 0, 0],[9000000000.0, 9000000000.0, 9000000000.0, 9000000000.0, 9000000000.0, 9000000000.0]];
    CONST robtarget point_4_clearance:=[[281,14,10],[0,0.707106781,0.707106781,0],[0, 0, 0, 0],[9000000000.0, 9000000000.0, 9000000000.0, 9000000000.0, 9000000000.0, 9000000000.0]];
    CONST robtarget point_4_contact:=[[281,14,5],[0,0.707106781,0.707106781,0],[0, 0, 0, 0],[9000000000.0, 9000000000.0, 9000000000.0, 9000000000.0, 9000000000.0, 9000000000.0]];
    CONST robtarget point_5_contact:=[[311,13,5],[0,0.707106781,0.707106781,0],[0, 0, 0, 0],[9000000000.0, 9000000000.0, 9000000000.0, 9000000000.0, 9000000000.0, 9000000000.0]];
    CONST robtarget point_5_clearance:=[[311,13,10],[0,0.707106781,0.707106781,0],[0, 0, 0, 0],[9000000000.0, 9000000000.0, 9000000000.0, 9000000000.0, 9000000000.0, 9000000000.0]];
    CONST robtarget point_6_clearance:=[[312,13,10],[0,0.707106781,0.707106781,0],[0, 0, 0, 0],[9000000000.0, 9000000000.0, 9000000000.0, 9000000000.0, 9000000000.0, 9000000000.0]];
    CONST robtarget point_6_contact:=[[312,13,5],[0,0.707106781,0.707106781,0],[0, 0, 0, 0],[9000000000.0, 9000000000.0, 9000000000.0, 9000000000.0, 9000000000.0, 9000000000.0]];
    CONST robtarget point_7_contact:=[[341,24,5],[0,0.707106781,0.707106781,0],[0, 0, 0, 0],[9000000000.0, 9000000000.0, 9000000000.0, 9000000000.0, 9000000000.0, 9000000000.0]];
    CONST robtarget point_7_clearance:=[[341,24,10],[0,0.707106781,0.707106781,0],[0, 0, 0, 0],[9000000000.0, 9000000000.0, 9000000000.0, 9000000000.0, 9000000000.0, 9000000000.0]];
    CONST robtarget point_8_clearance:=[[230,29,10],[0,0.707106781,0.707106781,0],[0, 0, 0, 0],[9000000000.0, 9000000000.0, 9000000000.0, 9000000000.0, 9000000000.0, 9000000000.0]];
    CONST robtarget point_8_contact:=[[230,29,5],[0,0.707106781,0.707106781,0],[0, 0, 0, 0],[9000000000.0, 9000000000.0, 9000000000.0, 9000000000.0, 9000000000.0, 9000000000.0]];
    CONST robtarget point_9_contact:=[[269,17,5],[0,0.707106781,0.707106781,0],[0, 0, 0, 0],[9000000000.0, 9000000000.0, 9000000000.0, 9000000000.0, 9000000000.0, 9000000000.0]];
    CONST robtarget point_9_clearance:=[[269,17,10],[0,0.707106781,0.707106781,0],[0, 0, 0, 0],[9000000000.0, 9000000000.0, 9000000000.0, 9000000000.0, 9000000000.0, 9000000000.0]];
    CONST robtarget point_10_clearance:=[[302,19,10],[0,0.707106781,0.707106781,0],[0, 0, 0, 0],[9000000000.0, 9000000000.0, 9000000000.0, 9000000000.0, 9000000000.0, 9000000000.0]];
    CONST robtarget point_10_contact:=[[302,19,5],[0,0.707106781,0.707106781,0],[0, 0, 0, 0],[9000000000.0, 9000000000.0, 9000000000.0, 9000000000.0, 9000000000.0, 9000000000.0]];
    CONST robtarget point_11_contact:=[[284,20,5],[0,0.707106781,0.707106781,0],[0, 0, 0, 0],[9000000000.0, 9000000000.0, 9000000000.0, 9000000000.0, 9000000000.0, 9000000000.0]];
    CONST robtarget point_11_clearance:=[[284,20,10],[0,0.707106781,0.707106781,0],[0, 0, 0, 0],[9000000000.0, 9000000000.0, 9000000000.0, 9000000000.0, 9000000000.0, 9000000000.0]];
    CONST robtarget point_12_clearance:=[[338,28,10],[0,0.707106781,0.707106781,0],[0, 0, 0, 0],[9000000000.0, 9000000000.0, 9000000000.0, 9000000000.0, 9000000000.0, 9000000000.0]];
    CONST robtarget point_12_contact:=[[338,28,5],[0,0.707106781,0.707106781,0],[0, 0, 0, 0],[9000000000.0, 9000000000.0, 9000000000.0, 9000000000.0, 9000000000.0, 9000000000.0]];
    CONST robtarget point_13_contact:=[[303,18,5],[0,0.707106781,0.707106781,0],[0, 0, 0, 0],[9000000000.0, 9000000000.0, 9000000000.0, 9000000000.0, 9000000000.0, 9000000000.0]];
    CONST robtarget point_13_clearance:=[[303,18,10],[0,0.707106781,0.707106781,0],[0, 0, 0, 0],[9000000000.0, 9000000000.0, 9000000000.0, 9000000000.0, 9000000000.0, 9000000000.0]];
    CONST robtarget point_14_clearance:=[[283,19,10],[0,0.707106781,0.707106781,0],[0, 0, 0, 0],[9000000000.0, 9000000000.0, 9000000000.0, 9000000000.0, 9000000000.0, 9000000000.0]];
    CONST robtarget point_14_contact:=[[283,19,5],[0,0.707106781,0.707106781,0],[0, 0, 0, 0],[9000000000.0, 9000000000.0, 9000000000.0, 9000000000.0, 9000000000.0, 9000000000.0]];
    CONST robtarget point_15_contact:=[[239,32,5],[0,0.707106781,0.707106781,0],[0, 0, 0, 0],[9000000000.0, 9000000000.0, 9000000000.0, 9000000000.0, 9000000000.0, 9000000000.0]];
    CONST robtarget point_15_clearance:=[[239,32,10],[0,0.707106781,0.707106781,0],[0, 0, 0, 0],[9000000000.0, 9000000000.0, 9000000000.0, 9000000000.0, 9000000000.0, 9000000000.0]];
    CONST robtarget point_16_clearance:=[[341,24,10],[0,0.707106781,0.707106781,0],[0, 0, 0, 0],[9000000000.0, 9000000000.0, 9000000000.0, 9000000000.0, 9000000000.0, 9000000000.0]];
    CONST robtarget point_16_contact:=[[341,24,5],[0,0.707106781,0.707106781,0],[0, 0, 0, 0],[9000000000.0, 9000000000.0, 9000000000.0, 9000000000.0, 9000000000.0, 9000000000.0]];
    CONST robtarget point_17_contact:=[[363,56,5],[0,0.707106781,0.707106781,0],[0, 0, 0, 0],[9000000000.0, 9000000000.0, 9000000000.0, 9000000000.0, 9000000000.0, 9000000000.0]];
    CONST robtarget point_17_clearance:=[[363,56,10],[0,0.707106781,0.707106781,0],[0, 0, 0, 0],[9000000000.0, 9000000000.0, 9000000000.0, 9000000000.0, 9000000000.0, 9000000000.0]];
    CONST robtarget point_18_clearance:=[[246,51,10],[0,0.707106781,0.707106781,0],[0, 0, 0, 0],[9000000000.0, 9000000000.0, 9000000000.0, 9000000000.0, 9000000000.0, 9000000000.0]];
    CONST robtarget point_18_contact:=[[246,51,5],[0,0.707106781,0.707106781,0],[0, 0, 0, 0],[9000000000.0, 9000000000.0, 9000000000.0, 9000000000.0, 9000000000.0, 9000000000.0]];
    CONST robtarget point_19_contact:=[[274,27,5],[0,0.707106781,0.707106781,0],[0, 0, 0, 0],[9000000000.0, 9000000000.0, 9000000000.0, 9000000000.0, 9000000000.0, 9000000000.0]];
    CONST robtarget point_19_clearance:=[[274,27,10],[0,0.707106781,0.707106781,0],[0, 0, 0, 0],[9000000000.0, 9000000000.0, 9000000000.0, 9000000000.0, 9000000000.0, 9000000000.0]];
    CONST robtarget point_20_clearance:=[[213,47,10],[0,0.707106781,0.707106781,0],[0, 0, 0, 0],[9000000000.0, 9000000000.0, 9000000000.0, 9000000000.0, 9000000000.0, 9000000000.0]];
    CONST robtarget point_20_contact:=[[213,47,5],[0,0.707106781,0.707106781,0],[0, 0, 0, 0],[9000000000.0, 9000000000.0, 9000000000.0, 9000000000.0, 9000000000.0, 9000000000.0]];
    CONST robtarget point_21_contact:=[[230,30,5],[0,0.707106781,0.707106781,0],[0, 0, 0, 0],[9000000000.0, 9000000000.0, 9000000000.0, 9000000000.0, 9000000000.0, 9000000000.0]];
    CONST robtarget point_21_clearance:=[[230,30,10],[0,0.707106781,0.707106781,0],[0, 0, 0, 0],[9000000000.0, 9000000000.0, 9000000000.0, 9000000000.0, 9000000000.0, 9000000000.0]];
    CONST robtarget point_22_clearance:=[[356,54,10],[0,0.707106781,0.707106781,0],[0, 0, 0, 0],[9000000000.0, 9000000000.0, 9000000000.0, 9000000000.0, 9000000000.0, 9000000000.0]];
    CONST robtarget point_22_contact:=[[356,54,5],[0,0.707106781,0.707106781,0],[0, 0, 0, 0],[9000000000.0, 9000000000.0, 9000000000.0, 9000000000.0, 9000000000.0, 9000000000.0]];
    CONST robtarget point_23_contact:=[[338,29,5],[0,0.707106781,0.707106781,0],[0, 0, 0, 0],[9000000000.0, 9000000000.0, 9000000000.0, 9000000000.0, 9000000000.0, 9000000000.0]];
    CONST robtarget point_23_clearance:=[[338,29,10],[0,0.707106781,0.707106781,0],[0, 0, 0, 0],[9000000000.0, 9000000000.0, 9000000000.0, 9000000000.0, 9000000000.0, 9000000000.0]];
    CONST robtarget point_24_clearance:=[[279,27,10],[0,0.707106781,0.707106781,0],[0, 0, 0, 0],[9000000000.0, 9000000000.0, 9000000000.0, 9000000000.0, 9000000000.0, 9000000000.0]];
    CONST robtarget point_24_contact:=[[279,27,5],[0,0.707106781,0.707106781,0],[0, 0, 0, 0],[9000000000.0, 9000000000.0, 9000000000.0, 9000000000.0, 9000000000.0, 9000000000.0]];
    CONST robtarget point_25_contact:=[[247,55,5],[0,0.707106781,0.707106781,0],[0, 0, 0, 0],[9000000000.0, 9000000000.0, 9000000000.0, 9000000000.0, 9000000000.0, 9000000000.0]];
    CONST robtarget point_25_clearance:=[[247,55,10],[0,0.707106781,0.707106781,0],[0, 0, 0, 0],[9000000000.0, 9000000000.0, 9000000000.0, 9000000000.0, 9000000000.0, 9000000000.0]];
    CONST robtarget point_26_clearance:=[[238,32,10],[0,0.707106781,0.707106781,0],[0, 0, 0, 0],[9000000000.0, 9000000000.0, 9000000000.0, 9000000000.0, 9000000000.0, 9000000000.0]];
    CONST robtarget point_26_contact:=[[238,32,5],[0,0.707106781,0.707106781,0],[0, 0, 0, 0],[9000000000.0, 9000000000.0, 9000000000.0, 9000000000.0, 9000000000.0, 9000000000.0]];
    CONST robtarget point_27_contact:=[[220,47,5],[0,0.707106781,0.707106781,0],[0, 0, 0, 0],[9000000000.0, 9000000000.0, 9000000000.0, 9000000000.0, 9000000000.0, 9000000000.0]];
    CONST robtarget point_27_clearance:=[[220,47,10],[0,0.707106781,0.707106781,0],[0, 0, 0, 0],[9000000000.0, 9000000000.0, 9000000000.0, 9000000000.0, 9000000000.0, 9000000000.0]];
    CONST robtarget point_28_clearance:=[[307,58,10],[0,0.707106781,0.707106781,0],[0, 0, 0, 0],[9000000000.0, 9000000000.0, 9000000000.0, 9000000000.0, 9000000000.0, 9000000000.0]];
    CONST robtarget point_28_contact:=[[307,58,5],[0,0.707106781,0.707106781,0],[0, 0, 0, 0],[9000000000.0, 9000000000.0, 9000000000.0, 9000000000.0, 9000000000.0, 9000000000.0]];
    CONST robtarget point_29_contact:=[[303,31,5],[0,0.707106781,0.707106781,0],[0, 0, 0, 0],[9000000000.0, 9000000000.0, 9000000000.0, 9000000000.0, 9000000000.0, 9000000000.0]];
    CONST robtarget point_29_clearance:=[[303,31,10],[0,0.707106781,0.707106781,0],[0, 0, 0, 0],[9000000000.0, 9000000000.0, 9000000000.0, 9000000000.0, 9000000000.0, 9000000000.0]];
    CONST robtarget point_30_clearance:=[[233,46,10],[0,0.707106781,0.707106781,0],[0, 0, 0, 0],[9000000000.0, 9000000000.0, 9000000000.0, 9000000000.0, 9000000000.0, 9000000000.0]];
    CONST robtarget point_30_contact:=[[233,46,5],[0,0.707106781,0.707106781,0],[0, 0, 0, 0],[9000000000.0, 9000000000.0, 9000000000.0, 9000000000.0, 9000000000.0, 9000000000.0]];
    CONST robtarget point_31_contact:=[[238,36,5],[0,0.707106781,0.707106781,0],[0, 0, 0, 0],[9000000000.0, 9000000000.0, 9000000000.0, 9000000000.0, 9000000000.0, 9000000000.0]];
    CONST robtarget point_31_clearance:=[[238,36,10],[0,0.707106781,0.707106781,0],[0, 0, 0, 0],[9000000000.0, 9000000000.0, 9000000000.0, 9000000000.0, 9000000000.0, 9000000000.0]];
    CONST robtarget point_32_clearance:=[[242,37,10],[0,0.707106781,0.707106781,0],[0, 0, 0, 0],[9000000000.0, 9000000000.0, 9000000000.0, 9000000000.0, 9000000000.0, 9000000000.0]];
    CONST robtarget point_32_contact:=[[242,37,5],[0,0.707106781,0.707106781,0],[0, 0, 0, 0],[9000000000.0, 9000000000.0, 9000000000.0, 9000000000.0, 9000000000.0, 9000000000.0]];
    CONST robtarget point_33_contact:=[[237,42,5],[0,0.707106781,0.707106781,0],[0, 0, 0, 0],[9000000000.0, 9000000000.0, 9000000000.0, 9000000000.0, 9000000000.0, 9000000000.0]];
    CONST robtarget point_33_clearance:=[[237,42,10],[0,0.707106781,0.707106781,0],[0, 0, 0, 0],[9000000000.0, 9000000000.0, 9000000000.0, 9000000000.0, 9000000000.0, 9000000000.0]];
    CONST robtarget point_34_clearance:=[[295,38,10],[0,0.707106781,0.707106781,0],[0, 0, 0, 0],[9000000000.0, 9000000000.0, 9000000000.0, 9000000000.0, 9000000000.0, 9000000000.0]];
    CONST robtarget point_34_contact:=[[295,38,5],[0,0.707106781,0.707106781,0],[0, 0, 0, 0],[9000000000.0, 9000000000.0, 9000000000.0, 9000000000.0, 9000000000.0, 9000000000.0]];
    CONST robtarget point_35_contact:=[[287,50,5],[0,0.707106781,0.707106781,0],[0, 0, 0, 0],[9000000000.0, 9000000000.0, 9000000000.0, 9000000000.0, 9000000000.0, 9000000000.0]];
    CONST robtarget point_35_clearance:=[[287,50,10],[0,0.707106781,0.707106781,0],[0, 0, 0, 0],[9000000000.0, 9000000000.0, 9000000000.0, 9000000000.0, 9000000000.0, 9000000000.0]];
    CONST robtarget point_36_clearance:=[[314,39,10],[0,0.707106781,0.707106781,0],[0, 0, 0, 0],[9000000000.0, 9000000000.0, 9000000000.0, 9000000000.0, 9000000000.0, 9000000000.0]];
    CONST robtarget point_36_contact:=[[314,39,5],[0,0.707106781,0.707106781,0],[0, 0, 0, 0],[9000000000.0, 9000000000.0, 9000000000.0, 9000000000.0, 9000000000.0, 9000000000.0]];
    CONST robtarget point_37_contact:=[[307,45,5],[0,0.707106781,0.707106781,0],[0, 0, 0, 0],[9000000000.0, 9000000000.0, 9000000000.0, 9000000000.0, 9000000000.0, 9000000000.0]];
    CONST robtarget point_37_clearance:=[[307,45,10],[0,0.707106781,0.707106781,0],[0, 0, 0, 0],[9000000000.0, 9000000000.0, 9000000000.0, 9000000000.0, 9000000000.0, 9000000000.0]];
    CONST robtarget point_38_clearance:=[[272,44,10],[0,0.707106781,0.707106781,0],[0, 0, 0, 0],[9000000000.0, 9000000000.0, 9000000000.0, 9000000000.0, 9000000000.0, 9000000000.0]];
    CONST robtarget point_38_contact:=[[272,44,5],[0,0.707106781,0.707106781,0],[0, 0, 0, 0],[9000000000.0, 9000000000.0, 9000000000.0, 9000000000.0, 9000000000.0, 9000000000.0]];
    CONST robtarget point_39_contact:=[[287,41,5],[0,0.707106781,0.707106781,0],[0, 0, 0, 0],[9000000000.0, 9000000000.0, 9000000000.0, 9000000000.0, 9000000000.0, 9000000000.0]];
    CONST robtarget point_39_clearance:=[[287,41,10],[0,0.707106781,0.707106781,0],[0, 0, 0, 0],[9000000000.0, 9000000000.0, 9000000000.0, 9000000000.0, 9000000000.0, 9000000000.0]];
    CONST robtarget point_40_clearance:=[[297,60,10],[0,0.707106781,0.707106781,0],[0, 0, 0, 0],[9000000000.0, 9000000000.0, 9000000000.0, 9000000000.0, 9000000000.0, 9000000000.0]];
    CONST robtarget point_40_contact:=[[297,60,5],[0,0.707106781,0.707106781,0],[0, 0, 0, 0],[9000000000.0, 9000000000.0, 9000000000.0, 9000000000.0, 9000000000.0, 9000000000.0]];
    CONST robtarget point_41_contact:=[[296,41,5],[0,0.707106781,0.707106781,0],[0, 0, 0, 0],[9000000000.0, 9000000000.0, 9000000000.0, 9000000000.0, 9000000000.0, 9000000000.0]];
    CONST robtarget point_41_clearance:=[[296,41,10],[0,0.707106781,0.707106781,0],[0, 0, 0, 0],[9000000000.0, 9000000000.0, 9000000000.0, 9000000000.0, 9000000000.0, 9000000000.0]];
    CONST robtarget point_42_clearance:=[[299,42,10],[0,0.707106781,0.707106781,0],[0, 0, 0, 0],[9000000000.0, 9000000000.0, 9000000000.0, 9000000000.0, 9000000000.0, 9000000000.0]];
    CONST robtarget point_42_contact:=[[299,42,5],[0,0.707106781,0.707106781,0],[0, 0, 0, 0],[9000000000.0, 9000000000.0, 9000000000.0, 9000000000.0, 9000000000.0, 9000000000.0]];
    CONST robtarget point_43_contact:=[[300,62,5],[0,0.707106781,0.707106781,0],[0, 0, 0, 0],[9000000000.0, 9000000000.0, 9000000000.0, 9000000000.0, 9000000000.0, 9000000000.0]];
    CONST robtarget point_43_clearance:=[[300,62,10],[0,0.707106781,0.707106781,0],[0, 0, 0, 0],[9000000000.0, 9000000000.0, 9000000000.0, 9000000000.0, 9000000000.0, 9000000000.0]];
    CONST robtarget point_44_clearance:=[[272,49,10],[0,0.707106781,0.707106781,0],[0, 0, 0, 0],[9000000000.0, 9000000000.0, 9000000000.0, 9000000000.0, 9000000000.0, 9000000000.0]];
    CONST robtarget point_44_contact:=[[272,49,5],[0,0.707106781,0.707106781,0],[0, 0, 0, 0],[9000000000.0, 9000000000.0, 9000000000.0, 9000000000.0, 9000000000.0, 9000000000.0]];
    CONST robtarget point_45_contact:=[[287,45,5],[0,0.707106781,0.707106781,0],[0, 0, 0, 0],[9000000000.0, 9000000000.0, 9000000000.0, 9000000000.0, 9000000000.0, 9000000000.0]];
    CONST robtarget point_45_clearance:=[[287,45,10],[0,0.707106781,0.707106781,0],[0, 0, 0, 0],[9000000000.0, 9000000000.0, 9000000000.0, 9000000000.0, 9000000000.0, 9000000000.0]];
    CONST robtarget point_46_clearance:=[[237,54,10],[0,0.707106781,0.707106781,0],[0, 0, 0, 0],[9000000000.0, 9000000000.0, 9000000000.0, 9000000000.0, 9000000000.0, 9000000000.0]];
    CONST robtarget point_46_contact:=[[237,54,5],[0,0.707106781,0.707106781,0],[0, 0, 0, 0],[9000000000.0, 9000000000.0, 9000000000.0, 9000000000.0, 9000000000.0, 9000000000.0]];
    CONST robtarget point_47_contact:=[[232,45,5],[0,0.707106781,0.707106781,0],[0, 0, 0, 0],[9000000000.0, 9000000000.0, 9000000000.0, 9000000000.0, 9000000000.0, 9000000000.0]];
    CONST robtarget point_47_clearance:=[[232,45,10],[0,0.707106781,0.707106781,0],[0, 0, 0, 0],[9000000000.0, 9000000000.0, 9000000000.0, 9000000000.0, 9000000000.0, 9000000000.0]];
    CONST robtarget point_48_clearance:=[[308,46,10],[0,0.707106781,0.707106781,0],[0, 0, 0, 0],[9000000000.0, 9000000000.0, 9000000000.0, 9000000000.0, 9000000000.0, 9000000000.0]];
    CONST robtarget point_48_contact:=[[308,46,5],[0,0.707106781,0.707106781,0],[0, 0, 0, 0],[9000000000.0, 9000000000.0, 9000000000.0, 9000000000.0, 9000000000.0, 9000000000.0]];
    CONST robtarget point_49_contact:=[[312,60,5],[0,0.707106781,0.707106781,0],[0, 0, 0, 0],[9000000000.0, 9000000000.0, 9000000000.0, 9000000000.0, 9000000000.0, 9000000000.0]];
    CONST robtarget point_49_clearance:=[[312,60,10],[0,0.707106781,0.707106781,0],[0, 0, 0, 0],[9000000000.0, 9000000000.0, 9000000000.0, 9000000000.0, 9000000000.0, 9000000000.0]];
    CONST robtarget point_50_clearance:=[[215,85,10],[0,0.707106781,0.707106781,0],[0, 0, 0, 0],[9000000000.0, 9000000000.0, 9000000000.0, 9000000000.0, 9000000000.0, 9000000000.0]];
    CONST robtarget point_50_contact:=[[215,85,5],[0,0.707106781,0.707106781,0],[0, 0, 0, 0],[9000000000.0, 9000000000.0, 9000000000.0, 9000000000.0, 9000000000.0, 9000000000.0]];
    CONST robtarget point_51_contact:=[[214,47,5],[0,0.707106781,0.707106781,0],[0, 0, 0, 0],[9000000000.0, 9000000000.0, 9000000000.0, 9000000000.0, 9000000000.0, 9000000000.0]];
    CONST robtarget point_51_clearance:=[[214,47,10],[0,0.707106781,0.707106781,0],[0, 0, 0, 0],[9000000000.0, 9000000000.0, 9000000000.0, 9000000000.0, 9000000000.0, 9000000000.0]];
    CONST robtarget point_52_clearance:=[[221,47,10],[0,0.707106781,0.707106781,0],[0, 0, 0, 0],[9000000000.0, 9000000000.0, 9000000000.0, 9000000000.0, 9000000000.0, 9000000000.0]];
    CONST robtarget point_52_contact:=[[221,47,5],[0,0.707106781,0.707106781,0],[0, 0, 0, 0],[9000000000.0, 9000000000.0, 9000000000.0, 9000000000.0, 9000000000.0, 9000000000.0]];
    CONST robtarget point_53_contact:=[[223,85,5],[0,0.707106781,0.707106781,0],[0, 0, 0, 0],[9000000000.0, 9000000000.0, 9000000000.0, 9000000000.0, 9000000000.0, 9000000000.0]];
    CONST robtarget point_53_clearance:=[[223,85,10],[0,0.707106781,0.707106781,0],[0, 0, 0, 0],[9000000000.0, 9000000000.0, 9000000000.0, 9000000000.0, 9000000000.0, 9000000000.0]];
    CONST robtarget point_54_clearance:=[[281,49,10],[0,0.707106781,0.707106781,0],[0, 0, 0, 0],[9000000000.0, 9000000000.0, 9000000000.0, 9000000000.0, 9000000000.0, 9000000000.0]];
    CONST robtarget point_54_contact:=[[281,49,5],[0,0.707106781,0.707106781,0],[0, 0, 0, 0],[9000000000.0, 9000000000.0, 9000000000.0, 9000000000.0, 9000000000.0, 9000000000.0]];
    CONST robtarget point_55_contact:=[[270,52,5],[0,0.707106781,0.707106781,0],[0, 0, 0, 0],[9000000000.0, 9000000000.0, 9000000000.0, 9000000000.0, 9000000000.0, 9000000000.0]];
    CONST robtarget point_55_clearance:=[[270,52,10],[0,0.707106781,0.707106781,0],[0, 0, 0, 0],[9000000000.0, 9000000000.0, 9000000000.0, 9000000000.0, 9000000000.0, 9000000000.0]];
    CONST robtarget point_56_clearance:=[[287,51,10],[0,0.707106781,0.707106781,0],[0, 0, 0, 0],[9000000000.0, 9000000000.0, 9000000000.0, 9000000000.0, 9000000000.0, 9000000000.0]];
    CONST robtarget point_56_contact:=[[287,51,5],[0,0.707106781,0.707106781,0],[0, 0, 0, 0],[9000000000.0, 9000000000.0, 9000000000.0, 9000000000.0, 9000000000.0, 9000000000.0]];
    CONST robtarget point_57_contact:=[[265,70,5],[0,0.707106781,0.707106781,0],[0, 0, 0, 0],[9000000000.0, 9000000000.0, 9000000000.0, 9000000000.0, 9000000000.0, 9000000000.0]];
    CONST robtarget point_57_clearance:=[[265,70,10],[0,0.707106781,0.707106781,0],[0, 0, 0, 0],[9000000000.0, 9000000000.0, 9000000000.0, 9000000000.0, 9000000000.0, 9000000000.0]];
    CONST robtarget point_58_clearance:=[[246,54,10],[0,0.707106781,0.707106781,0],[0, 0, 0, 0],[9000000000.0, 9000000000.0, 9000000000.0, 9000000000.0, 9000000000.0, 9000000000.0]];
    CONST robtarget point_58_contact:=[[246,54,5],[0,0.707106781,0.707106781,0],[0, 0, 0, 0],[9000000000.0, 9000000000.0, 9000000000.0, 9000000000.0, 9000000000.0, 9000000000.0]];
    CONST robtarget point_59_contact:=[[237,53,5],[0,0.707106781,0.707106781,0],[0, 0, 0, 0],[9000000000.0, 9000000000.0, 9000000000.0, 9000000000.0, 9000000000.0, 9000000000.0]];
    CONST robtarget point_59_clearance:=[[237,53,10],[0,0.707106781,0.707106781,0],[0, 0, 0, 0],[9000000000.0, 9000000000.0, 9000000000.0, 9000000000.0, 9000000000.0, 9000000000.0]];
    CONST robtarget point_60_clearance:=[[263,58,10],[0,0.707106781,0.707106781,0],[0, 0, 0, 0],[9000000000.0, 9000000000.0, 9000000000.0, 9000000000.0, 9000000000.0, 9000000000.0]];
    CONST robtarget point_60_contact:=[[263,58,5],[0,0.707106781,0.707106781,0],[0, 0, 0, 0],[9000000000.0, 9000000000.0, 9000000000.0, 9000000000.0, 9000000000.0, 9000000000.0]];
    CONST robtarget point_61_contact:=[[282,51,5],[0,0.707106781,0.707106781,0],[0, 0, 0, 0],[9000000000.0, 9000000000.0, 9000000000.0, 9000000000.0, 9000000000.0, 9000000000.0]];
    CONST robtarget point_61_clearance:=[[282,51,10],[0,0.707106781,0.707106781,0],[0, 0, 0, 0],[9000000000.0, 9000000000.0, 9000000000.0, 9000000000.0, 9000000000.0, 9000000000.0]];
    CONST robtarget point_62_clearance:=[[356,61,10],[0,0.707106781,0.707106781,0],[0, 0, 0, 0],[9000000000.0, 9000000000.0, 9000000000.0, 9000000000.0, 9000000000.0, 9000000000.0]];
    CONST robtarget point_62_contact:=[[356,61,5],[0,0.707106781,0.707106781,0],[0, 0, 0, 0],[9000000000.0, 9000000000.0, 9000000000.0, 9000000000.0, 9000000000.0, 9000000000.0]];
    CONST robtarget point_63_contact:=[[355,55,5],[0,0.707106781,0.707106781,0],[0, 0, 0, 0],[9000000000.0, 9000000000.0, 9000000000.0, 9000000000.0, 9000000000.0, 9000000000.0]];
    CONST robtarget point_63_clearance:=[[355,55,10],[0,0.707106781,0.707106781,0],[0, 0, 0, 0],[9000000000.0, 9000000000.0, 9000000000.0, 9000000000.0, 9000000000.0, 9000000000.0]];
    CONST robtarget point_64_clearance:=[[275,57,10],[0,0.707106781,0.707106781,0],[0, 0, 0, 0],[9000000000.0, 9000000000.0, 9000000000.0, 9000000000.0, 9000000000.0, 9000000000.0]];
    CONST robtarget point_64_contact:=[[275,57,5],[0,0.707106781,0.707106781,0],[0, 0, 0, 0],[9000000000.0, 9000000000.0, 9000000000.0, 9000000000.0, 9000000000.0, 9000000000.0]];
    CONST robtarget point_65_contact:=[[264,60,5],[0,0.707106781,0.707106781,0],[0, 0, 0, 0],[9000000000.0, 9000000000.0, 9000000000.0, 9000000000.0, 9000000000.0, 9000000000.0]];
    CONST robtarget point_65_clearance:=[[264,60,10],[0,0.707106781,0.707106781,0],[0, 0, 0, 0],[9000000000.0, 9000000000.0, 9000000000.0, 9000000000.0, 9000000000.0, 9000000000.0]];
    CONST robtarget point_66_clearance:=[[361,57,10],[0,0.707106781,0.707106781,0],[0, 0, 0, 0],[9000000000.0, 9000000000.0, 9000000000.0, 9000000000.0, 9000000000.0, 9000000000.0]];
    CONST robtarget point_66_contact:=[[361,57,5],[0,0.707106781,0.707106781,0],[0, 0, 0, 0],[9000000000.0, 9000000000.0, 9000000000.0, 9000000000.0, 9000000000.0, 9000000000.0]];
    CONST robtarget point_67_contact:=[[365,91,5],[0,0.707106781,0.707106781,0],[0, 0, 0, 0],[9000000000.0, 9000000000.0, 9000000000.0, 9000000000.0, 9000000000.0, 9000000000.0]];
    CONST robtarget point_67_clearance:=[[365,91,10],[0,0.707106781,0.707106781,0],[0, 0, 0, 0],[9000000000.0, 9000000000.0, 9000000000.0, 9000000000.0, 9000000000.0, 9000000000.0]];
    CONST robtarget point_68_clearance:=[[258,70,10],[0,0.707106781,0.707106781,0],[0, 0, 0, 0],[9000000000.0, 9000000000.0, 9000000000.0, 9000000000.0, 9000000000.0, 9000000000.0]];
    CONST robtarget point_68_contact:=[[258,70,5],[0,0.707106781,0.707106781,0],[0, 0, 0, 0],[9000000000.0, 9000000000.0, 9000000000.0, 9000000000.0, 9000000000.0, 9000000000.0]];
    CONST robtarget point_69_contact:=[[275,59,5],[0,0.707106781,0.707106781,0],[0, 0, 0, 0],[9000000000.0, 9000000000.0, 9000000000.0, 9000000000.0, 9000000000.0, 9000000000.0]];
    CONST robtarget point_69_clearance:=[[275,59,10],[0,0.707106781,0.707106781,0],[0, 0, 0, 0],[9000000000.0, 9000000000.0, 9000000000.0, 9000000000.0, 9000000000.0, 9000000000.0]];
    CONST robtarget point_70_clearance:=[[255,73,10],[0,0.707106781,0.707106781,0],[0, 0, 0, 0],[9000000000.0, 9000000000.0, 9000000000.0, 9000000000.0, 9000000000.0, 9000000000.0]];
    CONST robtarget point_70_contact:=[[255,73,5],[0,0.707106781,0.707106781,0],[0, 0, 0, 0],[9000000000.0, 9000000000.0, 9000000000.0, 9000000000.0, 9000000000.0, 9000000000.0]];
    CONST robtarget point_71_contact:=[[300,63,5],[0,0.707106781,0.707106781,0],[0, 0, 0, 0],[9000000000.0, 9000000000.0, 9000000000.0, 9000000000.0, 9000000000.0, 9000000000.0]];
    CONST robtarget point_71_clearance:=[[300,63,10],[0,0.707106781,0.707106781,0],[0, 0, 0, 0],[9000000000.0, 9000000000.0, 9000000000.0, 9000000000.0, 9000000000.0, 9000000000.0]];
    CONST robtarget point_72_clearance:=[[346,77,10],[0,0.707106781,0.707106781,0],[0, 0, 0, 0],[9000000000.0, 9000000000.0, 9000000000.0, 9000000000.0, 9000000000.0, 9000000000.0]];
    CONST robtarget point_72_contact:=[[346,77,5],[0,0.707106781,0.707106781,0],[0, 0, 0, 0],[9000000000.0, 9000000000.0, 9000000000.0, 9000000000.0, 9000000000.0, 9000000000.0]];
    CONST robtarget point_73_contact:=[[348,62,5],[0,0.707106781,0.707106781,0],[0, 0, 0, 0],[9000000000.0, 9000000000.0, 9000000000.0, 9000000000.0, 9000000000.0, 9000000000.0]];
    CONST robtarget point_73_clearance:=[[348,62,10],[0,0.707106781,0.707106781,0],[0, 0, 0, 0],[9000000000.0, 9000000000.0, 9000000000.0, 9000000000.0, 9000000000.0, 9000000000.0]];
    CONST robtarget point_74_clearance:=[[351,62,10],[0,0.707106781,0.707106781,0],[0, 0, 0, 0],[9000000000.0, 9000000000.0, 9000000000.0, 9000000000.0, 9000000000.0, 9000000000.0]];
    CONST robtarget point_74_contact:=[[351,62,5],[0,0.707106781,0.707106781,0],[0, 0, 0, 0],[9000000000.0, 9000000000.0, 9000000000.0, 9000000000.0, 9000000000.0, 9000000000.0]];
    CONST robtarget point_75_contact:=[[351,68,5],[0,0.707106781,0.707106781,0],[0, 0, 0, 0],[9000000000.0, 9000000000.0, 9000000000.0, 9000000000.0, 9000000000.0, 9000000000.0]];
    CONST robtarget point_75_clearance:=[[351,68,10],[0,0.707106781,0.707106781,0],[0, 0, 0, 0],[9000000000.0, 9000000000.0, 9000000000.0, 9000000000.0, 9000000000.0, 9000000000.0]];
    CONST robtarget point_76_clearance:=[[355,80,10],[0,0.707106781,0.707106781,0],[0, 0, 0, 0],[9000000000.0, 9000000000.0, 9000000000.0, 9000000000.0, 9000000000.0, 9000000000.0]];
    CONST robtarget point_76_contact:=[[355,80,5],[0,0.707106781,0.707106781,0],[0, 0, 0, 0],[9000000000.0, 9000000000.0, 9000000000.0, 9000000000.0, 9000000000.0, 9000000000.0]];
    CONST robtarget point_77_contact:=[[355,62,5],[0,0.707106781,0.707106781,0],[0, 0, 0, 0],[9000000000.0, 9000000000.0, 9000000000.0, 9000000000.0, 9000000000.0, 9000000000.0]];
    CONST robtarget point_77_clearance:=[[355,62,10],[0,0.707106781,0.707106781,0],[0, 0, 0, 0],[9000000000.0, 9000000000.0, 9000000000.0, 9000000000.0, 9000000000.0, 9000000000.0]];
    CONST robtarget point_78_clearance:=[[301,64,10],[0,0.707106781,0.707106781,0],[0, 0, 0, 0],[9000000000.0, 9000000000.0, 9000000000.0, 9000000000.0, 9000000000.0, 9000000000.0]];
    CONST robtarget point_78_contact:=[[301,64,5],[0,0.707106781,0.707106781,0],[0, 0, 0, 0],[9000000000.0, 9000000000.0, 9000000000.0, 9000000000.0, 9000000000.0, 9000000000.0]];
    CONST robtarget point_79_contact:=[[306,66,5],[0,0.707106781,0.707106781,0],[0, 0, 0, 0],[9000000000.0, 9000000000.0, 9000000000.0, 9000000000.0, 9000000000.0, 9000000000.0]];
    CONST robtarget point_79_clearance:=[[306,66,10],[0,0.707106781,0.707106781,0],[0, 0, 0, 0],[9000000000.0, 9000000000.0, 9000000000.0, 9000000000.0, 9000000000.0, 9000000000.0]];
    CONST robtarget point_80_clearance:=[[307,66,10],[0,0.707106781,0.707106781,0],[0, 0, 0, 0],[9000000000.0, 9000000000.0, 9000000000.0, 9000000000.0, 9000000000.0, 9000000000.0]];
    CONST robtarget point_80_contact:=[[307,66,5],[0,0.707106781,0.707106781,0],[0, 0, 0, 0],[9000000000.0, 9000000000.0, 9000000000.0, 9000000000.0, 9000000000.0, 9000000000.0]];
    CONST robtarget point_81_contact:=[[313,67,5],[0,0.707106781,0.707106781,0],[0, 0, 0, 0],[9000000000.0, 9000000000.0, 9000000000.0, 9000000000.0, 9000000000.0, 9000000000.0]];
    CONST robtarget point_81_clearance:=[[313,67,10],[0,0.707106781,0.707106781,0],[0, 0, 0, 0],[9000000000.0, 9000000000.0, 9000000000.0, 9000000000.0, 9000000000.0, 9000000000.0]];
    CONST robtarget point_82_clearance:=[[312,67,10],[0,0.707106781,0.707106781,0],[0, 0, 0, 0],[9000000000.0, 9000000000.0, 9000000000.0, 9000000000.0, 9000000000.0, 9000000000.0]];
    CONST robtarget point_82_contact:=[[312,67,5],[0,0.707106781,0.707106781,0],[0, 0, 0, 0],[9000000000.0, 9000000000.0, 9000000000.0, 9000000000.0, 9000000000.0, 9000000000.0]];
    CONST robtarget point_83_contact:=[[343,79,5],[0,0.707106781,0.707106781,0],[0, 0, 0, 0],[9000000000.0, 9000000000.0, 9000000000.0, 9000000000.0, 9000000000.0, 9000000000.0]];
    CONST robtarget point_83_clearance:=[[343,79,10],[0,0.707106781,0.707106781,0],[0, 0, 0, 0],[9000000000.0, 9000000000.0, 9000000000.0, 9000000000.0, 9000000000.0, 9000000000.0]];
    CONST robtarget point_84_clearance:=[[300,66,10],[0,0.707106781,0.707106781,0],[0, 0, 0, 0],[9000000000.0, 9000000000.0, 9000000000.0, 9000000000.0, 9000000000.0, 9000000000.0]];
    CONST robtarget point_84_contact:=[[300,66,5],[0,0.707106781,0.707106781,0],[0, 0, 0, 0],[9000000000.0, 9000000000.0, 9000000000.0, 9000000000.0, 9000000000.0, 9000000000.0]];
    CONST robtarget point_85_contact:=[[239,81,5],[0,0.707106781,0.707106781,0],[0, 0, 0, 0],[9000000000.0, 9000000000.0, 9000000000.0, 9000000000.0, 9000000000.0, 9000000000.0]];
    CONST robtarget point_85_clearance:=[[239,81,10],[0,0.707106781,0.707106781,0],[0, 0, 0, 0],[9000000000.0, 9000000000.0, 9000000000.0, 9000000000.0, 9000000000.0, 9000000000.0]];
    CONST robtarget point_86_clearance:=[[317,71,10],[0,0.707106781,0.707106781,0],[0, 0, 0, 0],[9000000000.0, 9000000000.0, 9000000000.0, 9000000000.0, 9000000000.0, 9000000000.0]];
    CONST robtarget point_86_contact:=[[317,71,5],[0,0.707106781,0.707106781,0],[0, 0, 0, 0],[9000000000.0, 9000000000.0, 9000000000.0, 9000000000.0, 9000000000.0, 9000000000.0]];
    CONST robtarget point_87_contact:=[[300,68,5],[0,0.707106781,0.707106781,0],[0, 0, 0, 0],[9000000000.0, 9000000000.0, 9000000000.0, 9000000000.0, 9000000000.0, 9000000000.0]];
    CONST robtarget point_87_clearance:=[[300,68,10],[0,0.707106781,0.707106781,0],[0, 0, 0, 0],[9000000000.0, 9000000000.0, 9000000000.0, 9000000000.0, 9000000000.0, 9000000000.0]];
    CONST robtarget point_88_clearance:=[[351,69,10],[0,0.707106781,0.707106781,0],[0, 0, 0, 0],[9000000000.0, 9000000000.0, 9000000000.0, 9000000000.0, 9000000000.0, 9000000000.0]];
    CONST robtarget point_88_contact:=[[351,69,5],[0,0.707106781,0.707106781,0],[0, 0, 0, 0],[9000000000.0, 9000000000.0, 9000000000.0, 9000000000.0, 9000000000.0, 9000000000.0]];
    CONST robtarget point_89_contact:=[[348,81,5],[0,0.707106781,0.707106781,0],[0, 0, 0, 0],[9000000000.0, 9000000000.0, 9000000000.0, 9000000000.0, 9000000000.0, 9000000000.0]];
    CONST robtarget point_89_clearance:=[[348,81,10],[0,0.707106781,0.707106781,0],[0, 0, 0, 0],[9000000000.0, 9000000000.0, 9000000000.0, 9000000000.0, 9000000000.0, 9000000000.0]];
    CONST robtarget point_90_clearance:=[[224,85,10],[0,0.707106781,0.707106781,0],[0, 0, 0, 0],[9000000000.0, 9000000000.0, 9000000000.0, 9000000000.0, 9000000000.0, 9000000000.0]];
    CONST robtarget point_90_contact:=[[224,85,5],[0,0.707106781,0.707106781,0],[0, 0, 0, 0],[9000000000.0, 9000000000.0, 9000000000.0, 9000000000.0, 9000000000.0, 9000000000.0]];
    CONST robtarget point_91_contact:=[[255,73,5],[0,0.707106781,0.707106781,0],[0, 0, 0, 0],[9000000000.0, 9000000000.0, 9000000000.0, 9000000000.0, 9000000000.0, 9000000000.0]];
    CONST robtarget point_91_clearance:=[[255,73,10],[0,0.707106781,0.707106781,0],[0, 0, 0, 0],[9000000000.0, 9000000000.0, 9000000000.0, 9000000000.0, 9000000000.0, 9000000000.0]];
    CONST robtarget point_92_clearance:=[[343,82,10],[0,0.707106781,0.707106781,0],[0, 0, 0, 0],[9000000000.0, 9000000000.0, 9000000000.0, 9000000000.0, 9000000000.0, 9000000000.0]];
    CONST robtarget point_92_contact:=[[343,82,5],[0,0.707106781,0.707106781,0],[0, 0, 0, 0],[9000000000.0, 9000000000.0, 9000000000.0, 9000000000.0, 9000000000.0, 9000000000.0]];
    CONST robtarget point_93_contact:=[[316,72,5],[0,0.707106781,0.707106781,0],[0, 0, 0, 0],[9000000000.0, 9000000000.0, 9000000000.0, 9000000000.0, 9000000000.0, 9000000000.0]];
    CONST robtarget point_93_clearance:=[[316,72,10],[0,0.707106781,0.707106781,0],[0, 0, 0, 0],[9000000000.0, 9000000000.0, 9000000000.0, 9000000000.0, 9000000000.0, 9000000000.0]];
    CONST robtarget point_94_clearance:=[[346,97,10],[0,0.707106781,0.707106781,0],[0, 0, 0, 0],[9000000000.0, 9000000000.0, 9000000000.0, 9000000000.0, 9000000000.0, 9000000000.0]];
    CONST robtarget point_94_contact:=[[346,97,5],[0,0.707106781,0.707106781,0],[0, 0, 0, 0],[9000000000.0, 9000000000.0, 9000000000.0, 9000000000.0, 9000000000.0, 9000000000.0]];
    CONST robtarget point_95_contact:=[[343,80,5],[0,0.707106781,0.707106781,0],[0, 0, 0, 0],[9000000000.0, 9000000000.0, 9000000000.0, 9000000000.0, 9000000000.0, 9000000000.0]];
    CONST robtarget point_95_clearance:=[[343,80,10],[0,0.707106781,0.707106781,0],[0, 0, 0, 0],[9000000000.0, 9000000000.0, 9000000000.0, 9000000000.0, 9000000000.0, 9000000000.0]];
    CONST robtarget point_96_clearance:=[[348,82,10],[0,0.707106781,0.707106781,0],[0, 0, 0, 0],[9000000000.0, 9000000000.0, 9000000000.0, 9000000000.0, 9000000000.0, 9000000000.0]];
    CONST robtarget point_96_contact:=[[348,82,5],[0,0.707106781,0.707106781,0],[0, 0, 0, 0],[9000000000.0, 9000000000.0, 9000000000.0, 9000000000.0, 9000000000.0, 9000000000.0]];
    CONST robtarget point_97_contact:=[[357,87,5],[0,0.707106781,0.707106781,0],[0, 0, 0, 0],[9000000000.0, 9000000000.0, 9000000000.0, 9000000000.0, 9000000000.0, 9000000000.0]];
    CONST robtarget point_97_clearance:=[[357,87,10],[0,0.707106781,0.707106781,0],[0, 0, 0, 0],[9000000000.0, 9000000000.0, 9000000000.0, 9000000000.0, 9000000000.0, 9000000000.0]];
    CONST robtarget point_98_clearance:=[[359,86,10],[0,0.707106781,0.707106781,0],[0, 0, 0, 0],[9000000000.0, 9000000000.0, 9000000000.0, 9000000000.0, 9000000000.0, 9000000000.0]];
    CONST robtarget point_98_contact:=[[359,86,5],[0,0.707106781,0.707106781,0],[0, 0, 0, 0],[9000000000.0, 9000000000.0, 9000000000.0, 9000000000.0, 9000000000.0, 9000000000.0]];
    CONST robtarget point_99_contact:=[[355,80,5],[0,0.707106781,0.707106781,0],[0, 0, 0, 0],[9000000000.0, 9000000000.0, 9000000000.0, 9000000000.0, 9000000000.0, 9000000000.0]];
    CONST robtarget point_99_clearance:=[[355,80,10],[0,0.707106781,0.707106781,0],[0, 0, 0, 0],[9000000000.0, 9000000000.0, 9000000000.0, 9000000000.0, 9000000000.0, 9000000000.0]];
    CONST robtarget point_100_clearance:=[[239,82,10],[0,0.707106781,0.707106781,0],[0, 0, 0, 0],[9000000000.0, 9000000000.0, 9000000000.0, 9000000000.0, 9000000000.0, 9000000000.0]];
    CONST robtarget point_100_contact:=[[239,82,5],[0,0.707106781,0.707106781,0],[0, 0, 0, 0],[9000000000.0, 9000000000.0, 9000000000.0, 9000000000.0, 9000000000.0, 9000000000.0]];
    CONST robtarget point_101_contact:=[[220,91,5],[0,0.707106781,0.707106781,0],[0, 0, 0, 0],[9000000000.0, 9000000000.0, 9000000000.0, 9000000000.0, 9000000000.0, 9000000000.0]];
    CONST robtarget point_101_clearance:=[[220,91,10],[0,0.707106781,0.707106781,0],[0, 0, 0, 0],[9000000000.0, 9000000000.0, 9000000000.0, 9000000000.0, 9000000000.0, 9000000000.0]];
    CONST robtarget point_102_clearance:=[[212,106,10],[0,0.707106781,0.707106781,0],[0, 0, 0, 0],[9000000000.0, 9000000000.0, 9000000000.0, 9000000000.0, 9000000000.0, 9000000000.0]];
    CONST robtarget point_102_contact:=[[212,106,5],[0,0.707106781,0.707106781,0],[0, 0, 0, 0],[9000000000.0, 9000000000.0, 9000000000.0, 9000000000.0, 9000000000.0, 9000000000.0]];
    CONST robtarget point_103_contact:=[[214,86,5],[0,0.707106781,0.707106781,0],[0, 0, 0, 0],[9000000000.0, 9000000000.0, 9000000000.0, 9000000000.0, 9000000000.0, 9000000000.0]];
    CONST robtarget point_103_clearance:=[[214,86,10],[0,0.707106781,0.707106781,0],[0, 0, 0, 0],[9000000000.0, 9000000000.0, 9000000000.0, 9000000000.0, 9000000000.0, 9000000000.0]];
    CONST robtarget point_104_clearance:=[[364,96,10],[0,0.707106781,0.707106781,0],[0, 0, 0, 0],[9000000000.0, 9000000000.0, 9000000000.0, 9000000000.0, 9000000000.0, 9000000000.0]];
    CONST robtarget point_104_contact:=[[364,96,5],[0,0.707106781,0.707106781,0],[0, 0, 0, 0],[9000000000.0, 9000000000.0, 9000000000.0, 9000000000.0, 9000000000.0, 9000000000.0]];
    CONST robtarget point_105_contact:=[[349,87,5],[0,0.707106781,0.707106781,0],[0, 0, 0, 0],[9000000000.0, 9000000000.0, 9000000000.0, 9000000000.0, 9000000000.0, 9000000000.0]];
    CONST robtarget point_105_clearance:=[[349,87,10],[0,0.707106781,0.707106781,0],[0, 0, 0, 0],[9000000000.0, 9000000000.0, 9000000000.0, 9000000000.0, 9000000000.0, 9000000000.0]];
    CONST robtarget point_106_clearance:=[[363,85,10],[0,0.707106781,0.707106781,0],[0, 0, 0, 0],[9000000000.0, 9000000000.0, 9000000000.0, 9000000000.0, 9000000000.0, 9000000000.0]];
    CONST robtarget point_106_contact:=[[363,85,5],[0,0.707106781,0.707106781,0],[0, 0, 0, 0],[9000000000.0, 9000000000.0, 9000000000.0, 9000000000.0, 9000000000.0, 9000000000.0]];
    CONST robtarget point_107_contact:=[[372,98,5],[0,0.707106781,0.707106781,0],[0, 0, 0, 0],[9000000000.0, 9000000000.0, 9000000000.0, 9000000000.0, 9000000000.0, 9000000000.0]];
    CONST robtarget point_107_clearance:=[[372,98,10],[0,0.707106781,0.707106781,0],[0, 0, 0, 0],[9000000000.0, 9000000000.0, 9000000000.0, 9000000000.0, 9000000000.0, 9000000000.0]];
    CONST robtarget point_108_clearance:=[[348,88,10],[0,0.707106781,0.707106781,0],[0, 0, 0, 0],[9000000000.0, 9000000000.0, 9000000000.0, 9000000000.0, 9000000000.0, 9000000000.0]];
    CONST robtarget point_108_contact:=[[348,88,5],[0,0.707106781,0.707106781,0],[0, 0, 0, 0],[9000000000.0, 9000000000.0, 9000000000.0, 9000000000.0, 9000000000.0, 9000000000.0]];
    CONST robtarget point_109_contact:=[[353,95,5],[0,0.707106781,0.707106781,0],[0, 0, 0, 0],[9000000000.0, 9000000000.0, 9000000000.0, 9000000000.0, 9000000000.0, 9000000000.0]];
    CONST robtarget point_109_clearance:=[[353,95,10],[0,0.707106781,0.707106781,0],[0, 0, 0, 0],[9000000000.0, 9000000000.0, 9000000000.0, 9000000000.0, 9000000000.0, 9000000000.0]];
    CONST robtarget point_110_clearance:=[[219,91,10],[0,0.707106781,0.707106781,0],[0, 0, 0, 0],[9000000000.0, 9000000000.0, 9000000000.0, 9000000000.0, 9000000000.0, 9000000000.0]];
    CONST robtarget point_110_contact:=[[219,91,5],[0,0.707106781,0.707106781,0],[0, 0, 0, 0],[9000000000.0, 9000000000.0, 9000000000.0, 9000000000.0, 9000000000.0, 9000000000.0]];
    CONST robtarget point_111_contact:=[[219,97,5],[0,0.707106781,0.707106781,0],[0, 0, 0, 0],[9000000000.0, 9000000000.0, 9000000000.0, 9000000000.0, 9000000000.0, 9000000000.0]];
    CONST robtarget point_111_clearance:=[[219,97,10],[0,0.707106781,0.707106781,0],[0, 0, 0, 0],[9000000000.0, 9000000000.0, 9000000000.0, 9000000000.0, 9000000000.0, 9000000000.0]];
    CONST robtarget point_112_clearance:=[[281,93,10],[0,0.707106781,0.707106781,0],[0, 0, 0, 0],[9000000000.0, 9000000000.0, 9000000000.0, 9000000000.0, 9000000000.0, 9000000000.0]];
    CONST robtarget point_112_contact:=[[281,93,5],[0,0.707106781,0.707106781,0],[0, 0, 0, 0],[9000000000.0, 9000000000.0, 9000000000.0, 9000000000.0, 9000000000.0, 9000000000.0]];
    CONST robtarget point_113_contact:=[[296,93,5],[0,0.707106781,0.707106781,0],[0, 0, 0, 0],[9000000000.0, 9000000000.0, 9000000000.0, 9000000000.0, 9000000000.0, 9000000000.0]];
    CONST robtarget point_113_clearance:=[[296,93,10],[0,0.707106781,0.707106781,0],[0, 0, 0, 0],[9000000000.0, 9000000000.0, 9000000000.0, 9000000000.0, 9000000000.0, 9000000000.0]];
    CONST robtarget point_114_clearance:=[[270,94,10],[0,0.707106781,0.707106781,0],[0, 0, 0, 0],[9000000000.0, 9000000000.0, 9000000000.0, 9000000000.0, 9000000000.0, 9000000000.0]];
    CONST robtarget point_114_contact:=[[270,94,5],[0,0.707106781,0.707106781,0],[0, 0, 0, 0],[9000000000.0, 9000000000.0, 9000000000.0, 9000000000.0, 9000000000.0, 9000000000.0]];
    CONST robtarget point_115_contact:=[[281,94,5],[0,0.707106781,0.707106781,0],[0, 0, 0, 0],[9000000000.0, 9000000000.0, 9000000000.0, 9000000000.0, 9000000000.0, 9000000000.0]];
    CONST robtarget point_115_clearance:=[[281,94,10],[0,0.707106781,0.707106781,0],[0, 0, 0, 0],[9000000000.0, 9000000000.0, 9000000000.0, 9000000000.0, 9000000000.0, 9000000000.0]];
    CONST robtarget point_116_clearance:=[[296,93,10],[0,0.707106781,0.707106781,0],[0, 0, 0, 0],[9000000000.0, 9000000000.0, 9000000000.0, 9000000000.0, 9000000000.0, 9000000000.0]];
    CONST robtarget point_116_contact:=[[296,93,5],[0,0.707106781,0.707106781,0],[0, 0, 0, 0],[9000000000.0, 9000000000.0, 9000000000.0, 9000000000.0, 9000000000.0, 9000000000.0]];
    CONST robtarget point_117_contact:=[[328,97,5],[0,0.707106781,0.707106781,0],[0, 0, 0, 0],[9000000000.0, 9000000000.0, 9000000000.0, 9000000000.0, 9000000000.0, 9000000000.0]];
    CONST robtarget point_117_clearance:=[[328,97,10],[0,0.707106781,0.707106781,0],[0, 0, 0, 0],[9000000000.0, 9000000000.0, 9000000000.0, 9000000000.0, 9000000000.0, 9000000000.0]];
    CONST robtarget point_118_clearance:=[[224,110,10],[0,0.707106781,0.707106781,0],[0, 0, 0, 0],[9000000000.0, 9000000000.0, 9000000000.0, 9000000000.0, 9000000000.0, 9000000000.0]];
    CONST robtarget point_118_contact:=[[224,110,5],[0,0.707106781,0.707106781,0],[0, 0, 0, 0],[9000000000.0, 9000000000.0, 9000000000.0, 9000000000.0, 9000000000.0, 9000000000.0]];
    CONST robtarget point_119_contact:=[[224,93,5],[0,0.707106781,0.707106781,0],[0, 0, 0, 0],[9000000000.0, 9000000000.0, 9000000000.0, 9000000000.0, 9000000000.0, 9000000000.0]];
    CONST robtarget point_119_clearance:=[[224,93,10],[0,0.707106781,0.707106781,0],[0, 0, 0, 0],[9000000000.0, 9000000000.0, 9000000000.0, 9000000000.0, 9000000000.0, 9000000000.0]];
    CONST robtarget point_120_clearance:=[[243,105,10],[0,0.707106781,0.707106781,0],[0, 0, 0, 0],[9000000000.0, 9000000000.0, 9000000000.0, 9000000000.0, 9000000000.0, 9000000000.0]];
    CONST robtarget point_120_contact:=[[243,105,5],[0,0.707106781,0.707106781,0],[0, 0, 0, 0],[9000000000.0, 9000000000.0, 9000000000.0, 9000000000.0, 9000000000.0, 9000000000.0]];
    CONST robtarget point_121_contact:=[[269,94,5],[0,0.707106781,0.707106781,0],[0, 0, 0, 0],[9000000000.0, 9000000000.0, 9000000000.0, 9000000000.0, 9000000000.0, 9000000000.0]];
    CONST robtarget point_121_clearance:=[[269,94,10],[0,0.707106781,0.707106781,0],[0, 0, 0, 0],[9000000000.0, 9000000000.0, 9000000000.0, 9000000000.0, 9000000000.0, 9000000000.0]];
    CONST robtarget point_122_clearance:=[[298,97,10],[0,0.707106781,0.707106781,0],[0, 0, 0, 0],[9000000000.0, 9000000000.0, 9000000000.0, 9000000000.0, 9000000000.0, 9000000000.0]];
    CONST robtarget point_122_contact:=[[298,97,5],[0,0.707106781,0.707106781,0],[0, 0, 0, 0],[9000000000.0, 9000000000.0, 9000000000.0, 9000000000.0, 9000000000.0, 9000000000.0]];
    CONST robtarget point_123_contact:=[[267,98,5],[0,0.707106781,0.707106781,0],[0, 0, 0, 0],[9000000000.0, 9000000000.0, 9000000000.0, 9000000000.0, 9000000000.0, 9000000000.0]];
    CONST robtarget point_123_clearance:=[[267,98,10],[0,0.707106781,0.707106781,0],[0, 0, 0, 0],[9000000000.0, 9000000000.0, 9000000000.0, 9000000000.0, 9000000000.0, 9000000000.0]];
    CONST robtarget point_124_clearance:=[[354,95,10],[0,0.707106781,0.707106781,0],[0, 0, 0, 0],[9000000000.0, 9000000000.0, 9000000000.0, 9000000000.0, 9000000000.0, 9000000000.0]];
    CONST robtarget point_124_contact:=[[354,95,5],[0,0.707106781,0.707106781,0],[0, 0, 0, 0],[9000000000.0, 9000000000.0, 9000000000.0, 9000000000.0, 9000000000.0, 9000000000.0]];
    CONST robtarget point_125_contact:=[[349,100,5],[0,0.707106781,0.707106781,0],[0, 0, 0, 0],[9000000000.0, 9000000000.0, 9000000000.0, 9000000000.0, 9000000000.0, 9000000000.0]];
    CONST robtarget point_125_clearance:=[[349,100,10],[0,0.707106781,0.707106781,0],[0, 0, 0, 0],[9000000000.0, 9000000000.0, 9000000000.0, 9000000000.0, 9000000000.0, 9000000000.0]];
    CONST robtarget point_126_clearance:=[[364,101,10],[0,0.707106781,0.707106781,0],[0, 0, 0, 0],[9000000000.0, 9000000000.0, 9000000000.0, 9000000000.0, 9000000000.0, 9000000000.0]];
    CONST robtarget point_126_contact:=[[364,101,5],[0,0.707106781,0.707106781,0],[0, 0, 0, 0],[9000000000.0, 9000000000.0, 9000000000.0, 9000000000.0, 9000000000.0, 9000000000.0]];
    CONST robtarget point_127_contact:=[[364,96,5],[0,0.707106781,0.707106781,0],[0, 0, 0, 0],[9000000000.0, 9000000000.0, 9000000000.0, 9000000000.0, 9000000000.0, 9000000000.0]];
    CONST robtarget point_127_clearance:=[[364,96,10],[0,0.707106781,0.707106781,0],[0, 0, 0, 0],[9000000000.0, 9000000000.0, 9000000000.0, 9000000000.0, 9000000000.0, 9000000000.0]];
    CONST robtarget point_128_clearance:=[[266,98,10],[0,0.707106781,0.707106781,0],[0, 0, 0, 0],[9000000000.0, 9000000000.0, 9000000000.0, 9000000000.0, 9000000000.0, 9000000000.0]];
    CONST robtarget point_128_contact:=[[266,98,5],[0,0.707106781,0.707106781,0],[0, 0, 0, 0],[9000000000.0, 9000000000.0, 9000000000.0, 9000000000.0, 9000000000.0, 9000000000.0]];
    CONST robtarget point_129_contact:=[[228,116,5],[0,0.707106781,0.707106781,0],[0, 0, 0, 0],[9000000000.0, 9000000000.0, 9000000000.0, 9000000000.0, 9000000000.0, 9000000000.0]];
    CONST robtarget point_129_clearance:=[[228,116,10],[0,0.707106781,0.707106781,0],[0, 0, 0, 0],[9000000000.0, 9000000000.0, 9000000000.0, 9000000000.0, 9000000000.0, 9000000000.0]];
    CONST robtarget point_130_clearance:=[[327,100,10],[0,0.707106781,0.707106781,0],[0, 0, 0, 0],[9000000000.0, 9000000000.0, 9000000000.0, 9000000000.0, 9000000000.0, 9000000000.0]];
    CONST robtarget point_130_contact:=[[327,100,5],[0,0.707106781,0.707106781,0],[0, 0, 0, 0],[9000000000.0, 9000000000.0, 9000000000.0, 9000000000.0, 9000000000.0, 9000000000.0]];
    CONST robtarget point_131_contact:=[[299,97,5],[0,0.707106781,0.707106781,0],[0, 0, 0, 0],[9000000000.0, 9000000000.0, 9000000000.0, 9000000000.0, 9000000000.0, 9000000000.0]];
    CONST robtarget point_131_clearance:=[[299,97,10],[0,0.707106781,0.707106781,0],[0, 0, 0, 0],[9000000000.0, 9000000000.0, 9000000000.0, 9000000000.0, 9000000000.0, 9000000000.0]];
    CONST robtarget point_132_clearance:=[[337,98,10],[0,0.707106781,0.707106781,0],[0, 0, 0, 0],[9000000000.0, 9000000000.0, 9000000000.0, 9000000000.0, 9000000000.0, 9000000000.0]];
    CONST robtarget point_132_contact:=[[337,98,5],[0,0.707106781,0.707106781,0],[0, 0, 0, 0],[9000000000.0, 9000000000.0, 9000000000.0, 9000000000.0, 9000000000.0, 9000000000.0]];
    CONST robtarget point_133_contact:=[[344,100,5],[0,0.707106781,0.707106781,0],[0, 0, 0, 0],[9000000000.0, 9000000000.0, 9000000000.0, 9000000000.0, 9000000000.0, 9000000000.0]];
    CONST robtarget point_133_clearance:=[[344,100,10],[0,0.707106781,0.707106781,0],[0, 0, 0, 0],[9000000000.0, 9000000000.0, 9000000000.0, 9000000000.0, 9000000000.0, 9000000000.0]];
    CONST robtarget point_134_clearance:=[[220,98,10],[0,0.707106781,0.707106781,0],[0, 0, 0, 0],[9000000000.0, 9000000000.0, 9000000000.0, 9000000000.0, 9000000000.0, 9000000000.0]];
    CONST robtarget point_134_contact:=[[220,98,5],[0,0.707106781,0.707106781,0],[0, 0, 0, 0],[9000000000.0, 9000000000.0, 9000000000.0, 9000000000.0, 9000000000.0, 9000000000.0]];
    CONST robtarget point_135_contact:=[[220,108,5],[0,0.707106781,0.707106781,0],[0, 0, 0, 0],[9000000000.0, 9000000000.0, 9000000000.0, 9000000000.0, 9000000000.0, 9000000000.0]];
    CONST robtarget point_135_clearance:=[[220,108,10],[0,0.707106781,0.707106781,0],[0, 0, 0, 0],[9000000000.0, 9000000000.0, 9000000000.0, 9000000000.0, 9000000000.0, 9000000000.0]];
    CONST robtarget point_136_clearance:=[[373,98,10],[0,0.707106781,0.707106781,0],[0, 0, 0, 0],[9000000000.0, 9000000000.0, 9000000000.0, 9000000000.0, 9000000000.0, 9000000000.0]];
    CONST robtarget point_136_contact:=[[373,98,5],[0,0.707106781,0.707106781,0],[0, 0, 0, 0],[9000000000.0, 9000000000.0, 9000000000.0, 9000000000.0, 9000000000.0, 9000000000.0]];
    CONST robtarget point_137_contact:=[[369,102,5],[0,0.707106781,0.707106781,0],[0, 0, 0, 0],[9000000000.0, 9000000000.0, 9000000000.0, 9000000000.0, 9000000000.0, 9000000000.0]];
    CONST robtarget point_137_clearance:=[[369,102,10],[0,0.707106781,0.707106781,0],[0, 0, 0, 0],[9000000000.0, 9000000000.0, 9000000000.0, 9000000000.0, 9000000000.0, 9000000000.0]];
    CONST robtarget point_138_clearance:=[[350,101,10],[0,0.707106781,0.707106781,0],[0, 0, 0, 0],[9000000000.0, 9000000000.0, 9000000000.0, 9000000000.0, 9000000000.0, 9000000000.0]];
    CONST robtarget point_138_contact:=[[350,101,5],[0,0.707106781,0.707106781,0],[0, 0, 0, 0],[9000000000.0, 9000000000.0, 9000000000.0, 9000000000.0, 9000000000.0, 9000000000.0]];
    CONST robtarget point_139_contact:=[[361,103,5],[0,0.707106781,0.707106781,0],[0, 0, 0, 0],[9000000000.0, 9000000000.0, 9000000000.0, 9000000000.0, 9000000000.0, 9000000000.0]];
    CONST robtarget point_139_clearance:=[[361,103,10],[0,0.707106781,0.707106781,0],[0, 0, 0, 0],[9000000000.0, 9000000000.0, 9000000000.0, 9000000000.0, 9000000000.0, 9000000000.0]];
    CONST robtarget point_140_clearance:=[[390,113,10],[0,0.707106781,0.707106781,0],[0, 0, 0, 0],[9000000000.0, 9000000000.0, 9000000000.0, 9000000000.0, 9000000000.0, 9000000000.0]];
    CONST robtarget point_140_contact:=[[390,113,5],[0,0.707106781,0.707106781,0],[0, 0, 0, 0],[9000000000.0, 9000000000.0, 9000000000.0, 9000000000.0, 9000000000.0, 9000000000.0]];
    CONST robtarget point_141_contact:=[[337,103,5],[0,0.707106781,0.707106781,0],[0, 0, 0, 0],[9000000000.0, 9000000000.0, 9000000000.0, 9000000000.0, 9000000000.0, 9000000000.0]];
    CONST robtarget point_141_clearance:=[[337,103,10],[0,0.707106781,0.707106781,0],[0, 0, 0, 0],[9000000000.0, 9000000000.0, 9000000000.0, 9000000000.0, 9000000000.0, 9000000000.0]];
    CONST robtarget point_142_clearance:=[[387,106,10],[0,0.707106781,0.707106781,0],[0, 0, 0, 0],[9000000000.0, 9000000000.0, 9000000000.0, 9000000000.0, 9000000000.0, 9000000000.0]];
    CONST robtarget point_142_contact:=[[387,106,5],[0,0.707106781,0.707106781,0],[0, 0, 0, 0],[9000000000.0, 9000000000.0, 9000000000.0, 9000000000.0, 9000000000.0, 9000000000.0]];
    CONST robtarget point_143_contact:=[[411,103,5],[0,0.707106781,0.707106781,0],[0, 0, 0, 0],[9000000000.0, 9000000000.0, 9000000000.0, 9000000000.0, 9000000000.0, 9000000000.0]];
    CONST robtarget point_143_clearance:=[[411,103,10],[0,0.707106781,0.707106781,0],[0, 0, 0, 0],[9000000000.0, 9000000000.0, 9000000000.0, 9000000000.0, 9000000000.0, 9000000000.0]];
    CONST robtarget point_144_clearance:=[[411,103,10],[0,0.707106781,0.707106781,0],[0, 0, 0, 0],[9000000000.0, 9000000000.0, 9000000000.0, 9000000000.0, 9000000000.0, 9000000000.0]];
    CONST robtarget point_144_contact:=[[411,103,5],[0,0.707106781,0.707106781,0],[0, 0, 0, 0],[9000000000.0, 9000000000.0, 9000000000.0, 9000000000.0, 9000000000.0, 9000000000.0]];
    CONST robtarget point_145_contact:=[[422,106,5],[0,0.707106781,0.707106781,0],[0, 0, 0, 0],[9000000000.0, 9000000000.0, 9000000000.0, 9000000000.0, 9000000000.0, 9000000000.0]];
    CONST robtarget point_145_clearance:=[[422,106,10],[0,0.707106781,0.707106781,0],[0, 0, 0, 0],[9000000000.0, 9000000000.0, 9000000000.0, 9000000000.0, 9000000000.0, 9000000000.0]];
    CONST robtarget point_146_clearance:=[[370,103,10],[0,0.707106781,0.707106781,0],[0, 0, 0, 0],[9000000000.0, 9000000000.0, 9000000000.0, 9000000000.0, 9000000000.0, 9000000000.0]];
    CONST robtarget point_146_contact:=[[370,103,5],[0,0.707106781,0.707106781,0],[0, 0, 0, 0],[9000000000.0, 9000000000.0, 9000000000.0, 9000000000.0, 9000000000.0, 9000000000.0]];
    CONST robtarget point_147_contact:=[[375,104,5],[0,0.707106781,0.707106781,0],[0, 0, 0, 0],[9000000000.0, 9000000000.0, 9000000000.0, 9000000000.0, 9000000000.0, 9000000000.0]];
    CONST robtarget point_147_clearance:=[[375,104,10],[0,0.707106781,0.707106781,0],[0, 0, 0, 0],[9000000000.0, 9000000000.0, 9000000000.0, 9000000000.0, 9000000000.0, 9000000000.0]];
    CONST robtarget point_148_clearance:=[[376,104,10],[0,0.707106781,0.707106781,0],[0, 0, 0, 0],[9000000000.0, 9000000000.0, 9000000000.0, 9000000000.0, 9000000000.0, 9000000000.0]];
    CONST robtarget point_148_contact:=[[376,104,5],[0,0.707106781,0.707106781,0],[0, 0, 0, 0],[9000000000.0, 9000000000.0, 9000000000.0, 9000000000.0, 9000000000.0, 9000000000.0]];
    CONST robtarget point_149_contact:=[[386,106,5],[0,0.707106781,0.707106781,0],[0, 0, 0, 0],[9000000000.0, 9000000000.0, 9000000000.0, 9000000000.0, 9000000000.0, 9000000000.0]];
    CONST robtarget point_149_clearance:=[[386,106,10],[0,0.707106781,0.707106781,0],[0, 0, 0, 0],[9000000000.0, 9000000000.0, 9000000000.0, 9000000000.0, 9000000000.0, 9000000000.0]];
    CONST robtarget point_150_clearance:=[[168,108,10],[0,0.707106781,0.707106781,0],[0, 0, 0, 0],[9000000000.0, 9000000000.0, 9000000000.0, 9000000000.0, 9000000000.0, 9000000000.0]];
    CONST robtarget point_150_contact:=[[168,108,5],[0,0.707106781,0.707106781,0],[0, 0, 0, 0],[9000000000.0, 9000000000.0, 9000000000.0, 9000000000.0, 9000000000.0, 9000000000.0]];
    CONST robtarget point_151_contact:=[[180,104,5],[0,0.707106781,0.707106781,0],[0, 0, 0, 0],[9000000000.0, 9000000000.0, 9000000000.0, 9000000000.0, 9000000000.0, 9000000000.0]];
    CONST robtarget point_151_clearance:=[[180,104,10],[0,0.707106781,0.707106781,0],[0, 0, 0, 0],[9000000000.0, 9000000000.0, 9000000000.0, 9000000000.0, 9000000000.0, 9000000000.0]];
    CONST robtarget point_152_clearance:=[[181,106,10],[0,0.707106781,0.707106781,0],[0, 0, 0, 0],[9000000000.0, 9000000000.0, 9000000000.0, 9000000000.0, 9000000000.0, 9000000000.0]];
    CONST robtarget point_152_contact:=[[181,106,5],[0,0.707106781,0.707106781,0],[0, 0, 0, 0],[9000000000.0, 9000000000.0, 9000000000.0, 9000000000.0, 9000000000.0, 9000000000.0]];
    CONST robtarget point_153_contact:=[[211,108,5],[0,0.707106781,0.707106781,0],[0, 0, 0, 0],[9000000000.0, 9000000000.0, 9000000000.0, 9000000000.0, 9000000000.0, 9000000000.0]];
    CONST robtarget point_153_clearance:=[[211,108,10],[0,0.707106781,0.707106781,0],[0, 0, 0, 0],[9000000000.0, 9000000000.0, 9000000000.0, 9000000000.0, 9000000000.0, 9000000000.0]];
    CONST robtarget point_154_clearance:=[[158,118,10],[0,0.707106781,0.707106781,0],[0, 0, 0, 0],[9000000000.0, 9000000000.0, 9000000000.0, 9000000000.0, 9000000000.0, 9000000000.0]];
    CONST robtarget point_154_contact:=[[158,118,5],[0,0.707106781,0.707106781,0],[0, 0, 0, 0],[9000000000.0, 9000000000.0, 9000000000.0, 9000000000.0, 9000000000.0, 9000000000.0]];
    CONST robtarget point_155_contact:=[[169,109,5],[0,0.707106781,0.707106781,0],[0, 0, 0, 0],[9000000000.0, 9000000000.0, 9000000000.0, 9000000000.0, 9000000000.0, 9000000000.0]];
    CONST robtarget point_155_clearance:=[[169,109,10],[0,0.707106781,0.707106781,0],[0, 0, 0, 0],[9000000000.0, 9000000000.0, 9000000000.0, 9000000000.0, 9000000000.0, 9000000000.0]];
    CONST robtarget point_156_clearance:=[[415,109,10],[0,0.707106781,0.707106781,0],[0, 0, 0, 0],[9000000000.0, 9000000000.0, 9000000000.0, 9000000000.0, 9000000000.0, 9000000000.0]];
    CONST robtarget point_156_contact:=[[415,109,5],[0,0.707106781,0.707106781,0],[0, 0, 0, 0],[9000000000.0, 9000000000.0, 9000000000.0, 9000000000.0, 9000000000.0, 9000000000.0]];
    CONST robtarget point_157_contact:=[[390,110,5],[0,0.707106781,0.707106781,0],[0, 0, 0, 0],[9000000000.0, 9000000000.0, 9000000000.0, 9000000000.0, 9000000000.0, 9000000000.0]];
    CONST robtarget point_157_clearance:=[[390,110,10],[0,0.707106781,0.707106781,0],[0, 0, 0, 0],[9000000000.0, 9000000000.0, 9000000000.0, 9000000000.0, 9000000000.0, 9000000000.0]];
    CONST robtarget point_158_clearance:=[[176,108,10],[0,0.707106781,0.707106781,0],[0, 0, 0, 0],[9000000000.0, 9000000000.0, 9000000000.0, 9000000000.0, 9000000000.0, 9000000000.0]];
    CONST robtarget point_158_contact:=[[176,108,5],[0,0.707106781,0.707106781,0],[0, 0, 0, 0],[9000000000.0, 9000000000.0, 9000000000.0, 9000000000.0, 9000000000.0, 9000000000.0]];
    CONST robtarget point_159_contact:=[[163,122,5],[0,0.707106781,0.707106781,0],[0, 0, 0, 0],[9000000000.0, 9000000000.0, 9000000000.0, 9000000000.0, 9000000000.0, 9000000000.0]];
    CONST robtarget point_159_clearance:=[[163,122,10],[0,0.707106781,0.707106781,0],[0, 0, 0, 0],[9000000000.0, 9000000000.0, 9000000000.0, 9000000000.0, 9000000000.0, 9000000000.0]];
    CONST robtarget point_160_clearance:=[[227,115,10],[0,0.707106781,0.707106781,0],[0, 0, 0, 0],[9000000000.0, 9000000000.0, 9000000000.0, 9000000000.0, 9000000000.0, 9000000000.0]];
    CONST robtarget point_160_contact:=[[227,115,5],[0,0.707106781,0.707106781,0],[0, 0, 0, 0],[9000000000.0, 9000000000.0, 9000000000.0, 9000000000.0, 9000000000.0, 9000000000.0]];
    CONST robtarget point_161_contact:=[[177,110,5],[0,0.707106781,0.707106781,0],[0, 0, 0, 0],[9000000000.0, 9000000000.0, 9000000000.0, 9000000000.0, 9000000000.0, 9000000000.0]];
    CONST robtarget point_161_clearance:=[[177,110,10],[0,0.707106781,0.707106781,0],[0, 0, 0, 0],[9000000000.0, 9000000000.0, 9000000000.0, 9000000000.0, 9000000000.0, 9000000000.0]];
    CONST robtarget point_162_clearance:=[[423,108,10],[0,0.707106781,0.707106781,0],[0, 0, 0, 0],[9000000000.0, 9000000000.0, 9000000000.0, 9000000000.0, 9000000000.0, 9000000000.0]];
    CONST robtarget point_162_contact:=[[423,108,5],[0,0.707106781,0.707106781,0],[0, 0, 0, 0],[9000000000.0, 9000000000.0, 9000000000.0, 9000000000.0, 9000000000.0, 9000000000.0]];
    CONST robtarget point_163_contact:=[[422,114,5],[0,0.707106781,0.707106781,0],[0, 0, 0, 0],[9000000000.0, 9000000000.0, 9000000000.0, 9000000000.0, 9000000000.0, 9000000000.0]];
    CONST robtarget point_163_clearance:=[[422,114,10],[0,0.707106781,0.707106781,0],[0, 0, 0, 0],[9000000000.0, 9000000000.0, 9000000000.0, 9000000000.0, 9000000000.0, 9000000000.0]];
    CONST robtarget point_164_clearance:=[[388,143,10],[0,0.707106781,0.707106781,0],[0, 0, 0, 0],[9000000000.0, 9000000000.0, 9000000000.0, 9000000000.0, 9000000000.0, 9000000000.0]];
    CONST robtarget point_164_contact:=[[388,143,5],[0,0.707106781,0.707106781,0],[0, 0, 0, 0],[9000000000.0, 9000000000.0, 9000000000.0, 9000000000.0, 9000000000.0, 9000000000.0]];
    CONST robtarget point_165_contact:=[[418,111,5],[0,0.707106781,0.707106781,0],[0, 0, 0, 0],[9000000000.0, 9000000000.0, 9000000000.0, 9000000000.0, 9000000000.0, 9000000000.0]];
    CONST robtarget point_165_clearance:=[[418,111,10],[0,0.707106781,0.707106781,0],[0, 0, 0, 0],[9000000000.0, 9000000000.0, 9000000000.0, 9000000000.0, 9000000000.0, 9000000000.0]];
    CONST robtarget point_166_clearance:=[[397,116,10],[0,0.707106781,0.707106781,0],[0, 0, 0, 0],[9000000000.0, 9000000000.0, 9000000000.0, 9000000000.0, 9000000000.0, 9000000000.0]];
    CONST robtarget point_166_contact:=[[397,116,5],[0,0.707106781,0.707106781,0],[0, 0, 0, 0],[9000000000.0, 9000000000.0, 9000000000.0, 9000000000.0, 9000000000.0, 9000000000.0]];
    CONST robtarget point_167_contact:=[[406,114,5],[0,0.707106781,0.707106781,0],[0, 0, 0, 0],[9000000000.0, 9000000000.0, 9000000000.0, 9000000000.0, 9000000000.0, 9000000000.0]];
    CONST robtarget point_167_clearance:=[[406,114,10],[0,0.707106781,0.707106781,0],[0, 0, 0, 0],[9000000000.0, 9000000000.0, 9000000000.0, 9000000000.0, 9000000000.0, 9000000000.0]];
    CONST robtarget point_168_clearance:=[[170,120,10],[0,0.707106781,0.707106781,0],[0, 0, 0, 0],[9000000000.0, 9000000000.0, 9000000000.0, 9000000000.0, 9000000000.0, 9000000000.0]];
    CONST robtarget point_168_contact:=[[170,120,5],[0,0.707106781,0.707106781,0],[0, 0, 0, 0],[9000000000.0, 9000000000.0, 9000000000.0, 9000000000.0, 9000000000.0, 9000000000.0]];
    CONST robtarget point_169_contact:=[[180,114,5],[0,0.707106781,0.707106781,0],[0, 0, 0, 0],[9000000000.0, 9000000000.0, 9000000000.0, 9000000000.0, 9000000000.0, 9000000000.0]];
    CONST robtarget point_169_clearance:=[[180,114,10],[0,0.707106781,0.707106781,0],[0, 0, 0, 0],[9000000000.0, 9000000000.0, 9000000000.0, 9000000000.0, 9000000000.0, 9000000000.0]];
    CONST robtarget point_170_clearance:=[[180,116,10],[0,0.707106781,0.707106781,0],[0, 0, 0, 0],[9000000000.0, 9000000000.0, 9000000000.0, 9000000000.0, 9000000000.0, 9000000000.0]];
    CONST robtarget point_170_contact:=[[180,116,5],[0,0.707106781,0.707106781,0],[0, 0, 0, 0],[9000000000.0, 9000000000.0, 9000000000.0, 9000000000.0, 9000000000.0, 9000000000.0]];
    CONST robtarget point_171_contact:=[[233,126,5],[0,0.707106781,0.707106781,0],[0, 0, 0, 0],[9000000000.0, 9000000000.0, 9000000000.0, 9000000000.0, 9000000000.0, 9000000000.0]];
    CONST robtarget point_171_clearance:=[[233,126,10],[0,0.707106781,0.707106781,0],[0, 0, 0, 0],[9000000000.0, 9000000000.0, 9000000000.0, 9000000000.0, 9000000000.0, 9000000000.0]];
    CONST robtarget point_172_clearance:=[[423,113,10],[0,0.707106781,0.707106781,0],[0, 0, 0, 0],[9000000000.0, 9000000000.0, 9000000000.0, 9000000000.0, 9000000000.0, 9000000000.0]];
    CONST robtarget point_172_contact:=[[423,113,5],[0,0.707106781,0.707106781,0],[0, 0, 0, 0],[9000000000.0, 9000000000.0, 9000000000.0, 9000000000.0, 9000000000.0, 9000000000.0]];
    CONST robtarget point_173_contact:=[[392,145,5],[0,0.707106781,0.707106781,0],[0, 0, 0, 0],[9000000000.0, 9000000000.0, 9000000000.0, 9000000000.0, 9000000000.0, 9000000000.0]];
    CONST robtarget point_173_clearance:=[[392,145,10],[0,0.707106781,0.707106781,0],[0, 0, 0, 0],[9000000000.0, 9000000000.0, 9000000000.0, 9000000000.0, 9000000000.0, 9000000000.0]];
    CONST robtarget point_174_clearance:=[[275,129,10],[0,0.707106781,0.707106781,0],[0, 0, 0, 0],[9000000000.0, 9000000000.0, 9000000000.0, 9000000000.0, 9000000000.0, 9000000000.0]];
    CONST robtarget point_174_contact:=[[275,129,5],[0,0.707106781,0.707106781,0],[0, 0, 0, 0],[9000000000.0, 9000000000.0, 9000000000.0, 9000000000.0, 9000000000.0, 9000000000.0]];
    CONST robtarget point_175_contact:=[[392,118,5],[0,0.707106781,0.707106781,0],[0, 0, 0, 0],[9000000000.0, 9000000000.0, 9000000000.0, 9000000000.0, 9000000000.0, 9000000000.0]];
    CONST robtarget point_175_clearance:=[[392,118,10],[0,0.707106781,0.707106781,0],[0, 0, 0, 0],[9000000000.0, 9000000000.0, 9000000000.0, 9000000000.0, 9000000000.0, 9000000000.0]];
    CONST robtarget point_176_clearance:=[[408,115,10],[0,0.707106781,0.707106781,0],[0, 0, 0, 0],[9000000000.0, 9000000000.0, 9000000000.0, 9000000000.0, 9000000000.0, 9000000000.0]];
    CONST robtarget point_176_contact:=[[408,115,5],[0,0.707106781,0.707106781,0],[0, 0, 0, 0],[9000000000.0, 9000000000.0, 9000000000.0, 9000000000.0, 9000000000.0, 9000000000.0]];
    CONST robtarget point_177_contact:=[[384,138,5],[0,0.707106781,0.707106781,0],[0, 0, 0, 0],[9000000000.0, 9000000000.0, 9000000000.0, 9000000000.0, 9000000000.0, 9000000000.0]];
    CONST robtarget point_177_clearance:=[[384,138,10],[0,0.707106781,0.707106781,0],[0, 0, 0, 0],[9000000000.0, 9000000000.0, 9000000000.0, 9000000000.0, 9000000000.0, 9000000000.0]];
    CONST robtarget point_178_clearance:=[[158,126,10],[0,0.707106781,0.707106781,0],[0, 0, 0, 0],[9000000000.0, 9000000000.0, 9000000000.0, 9000000000.0, 9000000000.0, 9000000000.0]];
    CONST robtarget point_178_contact:=[[158,126,5],[0,0.707106781,0.707106781,0],[0, 0, 0, 0],[9000000000.0, 9000000000.0, 9000000000.0, 9000000000.0, 9000000000.0, 9000000000.0]];
    CONST robtarget point_179_contact:=[[158,118,5],[0,0.707106781,0.707106781,0],[0, 0, 0, 0],[9000000000.0, 9000000000.0, 9000000000.0, 9000000000.0, 9000000000.0, 9000000000.0]];
    CONST robtarget point_179_clearance:=[[158,118,10],[0,0.707106781,0.707106781,0],[0, 0, 0, 0],[9000000000.0, 9000000000.0, 9000000000.0, 9000000000.0, 9000000000.0, 9000000000.0]];
    CONST robtarget point_180_clearance:=[[163,121,10],[0,0.707106781,0.707106781,0],[0, 0, 0, 0],[9000000000.0, 9000000000.0, 9000000000.0, 9000000000.0, 9000000000.0, 9000000000.0]];
    CONST robtarget point_180_contact:=[[163,121,5],[0,0.707106781,0.707106781,0],[0, 0, 0, 0],[9000000000.0, 9000000000.0, 9000000000.0, 9000000000.0, 9000000000.0, 9000000000.0]];
    CONST robtarget point_181_contact:=[[174,150,5],[0,0.707106781,0.707106781,0],[0, 0, 0, 0],[9000000000.0, 9000000000.0, 9000000000.0, 9000000000.0, 9000000000.0, 9000000000.0]];
    CONST robtarget point_181_clearance:=[[174,150,10],[0,0.707106781,0.707106781,0],[0, 0, 0, 0],[9000000000.0, 9000000000.0, 9000000000.0, 9000000000.0, 9000000000.0, 9000000000.0]];
    CONST robtarget point_182_clearance:=[[169,127,10],[0,0.707106781,0.707106781,0],[0, 0, 0, 0],[9000000000.0, 9000000000.0, 9000000000.0, 9000000000.0, 9000000000.0, 9000000000.0]];
    CONST robtarget point_182_contact:=[[169,127,5],[0,0.707106781,0.707106781,0],[0, 0, 0, 0],[9000000000.0, 9000000000.0, 9000000000.0, 9000000000.0, 9000000000.0, 9000000000.0]];
    CONST robtarget point_183_contact:=[[169,121,5],[0,0.707106781,0.707106781,0],[0, 0, 0, 0],[9000000000.0, 9000000000.0, 9000000000.0, 9000000000.0, 9000000000.0, 9000000000.0]];
    CONST robtarget point_183_clearance:=[[169,121,10],[0,0.707106781,0.707106781,0],[0, 0, 0, 0],[9000000000.0, 9000000000.0, 9000000000.0, 9000000000.0, 9000000000.0, 9000000000.0]];
    CONST robtarget point_184_clearance:=[[233,125,10],[0,0.707106781,0.707106781,0],[0, 0, 0, 0],[9000000000.0, 9000000000.0, 9000000000.0, 9000000000.0, 9000000000.0, 9000000000.0]];
    CONST robtarget point_184_contact:=[[233,125,5],[0,0.707106781,0.707106781,0],[0, 0, 0, 0],[9000000000.0, 9000000000.0, 9000000000.0, 9000000000.0, 9000000000.0, 9000000000.0]];
    CONST robtarget point_185_contact:=[[275,127,5],[0,0.707106781,0.707106781,0],[0, 0, 0, 0],[9000000000.0, 9000000000.0, 9000000000.0, 9000000000.0, 9000000000.0, 9000000000.0]];
    CONST robtarget point_185_clearance:=[[275,127,10],[0,0.707106781,0.707106781,0],[0, 0, 0, 0],[9000000000.0, 9000000000.0, 9000000000.0, 9000000000.0, 9000000000.0, 9000000000.0]];
    CONST robtarget point_186_clearance:=[[177,163,10],[0,0.707106781,0.707106781,0],[0, 0, 0, 0],[9000000000.0, 9000000000.0, 9000000000.0, 9000000000.0, 9000000000.0, 9000000000.0]];
    CONST robtarget point_186_contact:=[[177,163,5],[0,0.707106781,0.707106781,0],[0, 0, 0, 0],[9000000000.0, 9000000000.0, 9000000000.0, 9000000000.0, 9000000000.0, 9000000000.0]];
    CONST robtarget point_187_contact:=[[156,126,5],[0,0.707106781,0.707106781,0],[0, 0, 0, 0],[9000000000.0, 9000000000.0, 9000000000.0, 9000000000.0, 9000000000.0, 9000000000.0]];
    CONST robtarget point_187_clearance:=[[156,126,10],[0,0.707106781,0.707106781,0],[0, 0, 0, 0],[9000000000.0, 9000000000.0, 9000000000.0, 9000000000.0, 9000000000.0, 9000000000.0]];
    CONST robtarget point_188_clearance:=[[336,129,10],[0,0.707106781,0.707106781,0],[0, 0, 0, 0],[9000000000.0, 9000000000.0, 9000000000.0, 9000000000.0, 9000000000.0, 9000000000.0]];
    CONST robtarget point_188_contact:=[[336,129,5],[0,0.707106781,0.707106781,0],[0, 0, 0, 0],[9000000000.0, 9000000000.0, 9000000000.0, 9000000000.0, 9000000000.0, 9000000000.0]];
    CONST robtarget point_189_contact:=[[270,132,5],[0,0.707106781,0.707106781,0],[0, 0, 0, 0],[9000000000.0, 9000000000.0, 9000000000.0, 9000000000.0, 9000000000.0, 9000000000.0]];
    CONST robtarget point_189_clearance:=[[270,132,10],[0,0.707106781,0.707106781,0],[0, 0, 0, 0],[9000000000.0, 9000000000.0, 9000000000.0, 9000000000.0, 9000000000.0, 9000000000.0]];
    CONST robtarget point_190_clearance:=[[183,154,10],[0,0.707106781,0.707106781,0],[0, 0, 0, 0],[9000000000.0, 9000000000.0, 9000000000.0, 9000000000.0, 9000000000.0, 9000000000.0]];
    CONST robtarget point_190_contact:=[[183,154,5],[0,0.707106781,0.707106781,0],[0, 0, 0, 0],[9000000000.0, 9000000000.0, 9000000000.0, 9000000000.0, 9000000000.0, 9000000000.0]];
    CONST robtarget point_191_contact:=[[169,128,5],[0,0.707106781,0.707106781,0],[0, 0, 0, 0],[9000000000.0, 9000000000.0, 9000000000.0, 9000000000.0, 9000000000.0, 9000000000.0]];
    CONST robtarget point_191_clearance:=[[169,128,10],[0,0.707106781,0.707106781,0],[0, 0, 0, 0],[9000000000.0, 9000000000.0, 9000000000.0, 9000000000.0, 9000000000.0, 9000000000.0]];
    CONST robtarget point_192_clearance:=[[349,136,10],[0,0.707106781,0.707106781,0],[0, 0, 0, 0],[9000000000.0, 9000000000.0, 9000000000.0, 9000000000.0, 9000000000.0, 9000000000.0]];
    CONST robtarget point_192_contact:=[[349,136,5],[0,0.707106781,0.707106781,0],[0, 0, 0, 0],[9000000000.0, 9000000000.0, 9000000000.0, 9000000000.0, 9000000000.0, 9000000000.0]];
    CONST robtarget point_193_contact:=[[352,128,5],[0,0.707106781,0.707106781,0],[0, 0, 0, 0],[9000000000.0, 9000000000.0, 9000000000.0, 9000000000.0, 9000000000.0, 9000000000.0]];
    CONST robtarget point_193_clearance:=[[352,128,10],[0,0.707106781,0.707106781,0],[0, 0, 0, 0],[9000000000.0, 9000000000.0, 9000000000.0, 9000000000.0, 9000000000.0, 9000000000.0]];
    CONST robtarget point_194_clearance:=[[365,130,10],[0,0.707106781,0.707106781,0],[0, 0, 0, 0],[9000000000.0, 9000000000.0, 9000000000.0, 9000000000.0, 9000000000.0, 9000000000.0]];
    CONST robtarget point_194_contact:=[[365,130,5],[0,0.707106781,0.707106781,0],[0, 0, 0, 0],[9000000000.0, 9000000000.0, 9000000000.0, 9000000000.0, 9000000000.0, 9000000000.0]];
    CONST robtarget point_195_contact:=[[353,136,5],[0,0.707106781,0.707106781,0],[0, 0, 0, 0],[9000000000.0, 9000000000.0, 9000000000.0, 9000000000.0, 9000000000.0, 9000000000.0]];
    CONST robtarget point_195_clearance:=[[353,136,10],[0,0.707106781,0.707106781,0],[0, 0, 0, 0],[9000000000.0, 9000000000.0, 9000000000.0, 9000000000.0, 9000000000.0, 9000000000.0]];
    CONST robtarget point_196_clearance:=[[371,135,10],[0,0.707106781,0.707106781,0],[0, 0, 0, 0],[9000000000.0, 9000000000.0, 9000000000.0, 9000000000.0, 9000000000.0, 9000000000.0]];
    CONST robtarget point_196_contact:=[[371,135,5],[0,0.707106781,0.707106781,0],[0, 0, 0, 0],[9000000000.0, 9000000000.0, 9000000000.0, 9000000000.0, 9000000000.0, 9000000000.0]];
    CONST robtarget point_197_contact:=[[367,129,5],[0,0.707106781,0.707106781,0],[0, 0, 0, 0],[9000000000.0, 9000000000.0, 9000000000.0, 9000000000.0, 9000000000.0, 9000000000.0]];
    CONST robtarget point_197_clearance:=[[367,129,10],[0,0.707106781,0.707106781,0],[0, 0, 0, 0],[9000000000.0, 9000000000.0, 9000000000.0, 9000000000.0, 9000000000.0, 9000000000.0]];
    CONST robtarget point_198_clearance:=[[226,141,10],[0,0.707106781,0.707106781,0],[0, 0, 0, 0],[9000000000.0, 9000000000.0, 9000000000.0, 9000000000.0, 9000000000.0, 9000000000.0]];
    CONST robtarget point_198_contact:=[[226,141,5],[0,0.707106781,0.707106781,0],[0, 0, 0, 0],[9000000000.0, 9000000000.0, 9000000000.0, 9000000000.0, 9000000000.0, 9000000000.0]];
    CONST robtarget point_199_contact:=[[217,130,5],[0,0.707106781,0.707106781,0],[0, 0, 0, 0],[9000000000.0, 9000000000.0, 9000000000.0, 9000000000.0, 9000000000.0, 9000000000.0]];
    CONST robtarget point_199_clearance:=[[217,130,10],[0,0.707106781,0.707106781,0],[0, 0, 0, 0],[9000000000.0, 9000000000.0, 9000000000.0, 9000000000.0, 9000000000.0, 9000000000.0]];
    CONST robtarget point_200_clearance:=[[268,130,10],[0,0.707106781,0.707106781,0],[0, 0, 0, 0],[9000000000.0, 9000000000.0, 9000000000.0, 9000000000.0, 9000000000.0, 9000000000.0]];
    CONST robtarget point_200_contact:=[[268,130,5],[0,0.707106781,0.707106781,0],[0, 0, 0, 0],[9000000000.0, 9000000000.0, 9000000000.0, 9000000000.0, 9000000000.0, 9000000000.0]];
    CONST robtarget point_201_contact:=[[251,130,5],[0,0.707106781,0.707106781,0],[0, 0, 0, 0],[9000000000.0, 9000000000.0, 9000000000.0, 9000000000.0, 9000000000.0, 9000000000.0]];
    CONST robtarget point_201_clearance:=[[251,130,10],[0,0.707106781,0.707106781,0],[0, 0, 0, 0],[9000000000.0, 9000000000.0, 9000000000.0, 9000000000.0, 9000000000.0, 9000000000.0]];
    CONST robtarget point_202_clearance:=[[235,131,10],[0,0.707106781,0.707106781,0],[0, 0, 0, 0],[9000000000.0, 9000000000.0, 9000000000.0, 9000000000.0, 9000000000.0, 9000000000.0]];
    CONST robtarget point_202_contact:=[[235,131,5],[0,0.707106781,0.707106781,0],[0, 0, 0, 0],[9000000000.0, 9000000000.0, 9000000000.0, 9000000000.0, 9000000000.0, 9000000000.0]];
    CONST robtarget point_203_contact:=[[235,137,5],[0,0.707106781,0.707106781,0],[0, 0, 0, 0],[9000000000.0, 9000000000.0, 9000000000.0, 9000000000.0, 9000000000.0, 9000000000.0]];
    CONST robtarget point_203_clearance:=[[235,137,10],[0,0.707106781,0.707106781,0],[0, 0, 0, 0],[9000000000.0, 9000000000.0, 9000000000.0, 9000000000.0, 9000000000.0, 9000000000.0]];
    CONST robtarget point_204_clearance:=[[242,131,10],[0,0.707106781,0.707106781,0],[0, 0, 0, 0],[9000000000.0, 9000000000.0, 9000000000.0, 9000000000.0, 9000000000.0, 9000000000.0]];
    CONST robtarget point_204_contact:=[[242,131,5],[0,0.707106781,0.707106781,0],[0, 0, 0, 0],[9000000000.0, 9000000000.0, 9000000000.0, 9000000000.0, 9000000000.0, 9000000000.0]];
    CONST robtarget point_205_contact:=[[242,137,5],[0,0.707106781,0.707106781,0],[0, 0, 0, 0],[9000000000.0, 9000000000.0, 9000000000.0, 9000000000.0, 9000000000.0, 9000000000.0]];
    CONST robtarget point_205_clearance:=[[242,137,10],[0,0.707106781,0.707106781,0],[0, 0, 0, 0],[9000000000.0, 9000000000.0, 9000000000.0, 9000000000.0, 9000000000.0, 9000000000.0]];
    CONST robtarget point_206_clearance:=[[212,132,10],[0,0.707106781,0.707106781,0],[0, 0, 0, 0],[9000000000.0, 9000000000.0, 9000000000.0, 9000000000.0, 9000000000.0, 9000000000.0]];
    CONST robtarget point_206_contact:=[[212,132,5],[0,0.707106781,0.707106781,0],[0, 0, 0, 0],[9000000000.0, 9000000000.0, 9000000000.0, 9000000000.0, 9000000000.0, 9000000000.0]];
    CONST robtarget point_207_contact:=[[210,145,5],[0,0.707106781,0.707106781,0],[0, 0, 0, 0],[9000000000.0, 9000000000.0, 9000000000.0, 9000000000.0, 9000000000.0, 9000000000.0]];
    CONST robtarget point_207_clearance:=[[210,145,10],[0,0.707106781,0.707106781,0],[0, 0, 0, 0],[9000000000.0, 9000000000.0, 9000000000.0, 9000000000.0, 9000000000.0, 9000000000.0]];
    CONST robtarget point_208_clearance:=[[301,140,10],[0,0.707106781,0.707106781,0],[0, 0, 0, 0],[9000000000.0, 9000000000.0, 9000000000.0, 9000000000.0, 9000000000.0, 9000000000.0]];
    CONST robtarget point_208_contact:=[[301,140,5],[0,0.707106781,0.707106781,0],[0, 0, 0, 0],[9000000000.0, 9000000000.0, 9000000000.0, 9000000000.0, 9000000000.0, 9000000000.0]];
    CONST robtarget point_209_contact:=[[300,133,5],[0,0.707106781,0.707106781,0],[0, 0, 0, 0],[9000000000.0, 9000000000.0, 9000000000.0, 9000000000.0, 9000000000.0, 9000000000.0]];
    CONST robtarget point_209_clearance:=[[300,133,10],[0,0.707106781,0.707106781,0],[0, 0, 0, 0],[9000000000.0, 9000000000.0, 9000000000.0, 9000000000.0, 9000000000.0, 9000000000.0]];
    CONST robtarget point_210_clearance:=[[303,134,10],[0,0.707106781,0.707106781,0],[0, 0, 0, 0],[9000000000.0, 9000000000.0, 9000000000.0, 9000000000.0, 9000000000.0, 9000000000.0]];
    CONST robtarget point_210_contact:=[[303,134,5],[0,0.707106781,0.707106781,0],[0, 0, 0, 0],[9000000000.0, 9000000000.0, 9000000000.0, 9000000000.0, 9000000000.0, 9000000000.0]];
    CONST robtarget point_211_contact:=[[305,141,5],[0,0.707106781,0.707106781,0],[0, 0, 0, 0],[9000000000.0, 9000000000.0, 9000000000.0, 9000000000.0, 9000000000.0, 9000000000.0]];
    CONST robtarget point_211_clearance:=[[305,141,10],[0,0.707106781,0.707106781,0],[0, 0, 0, 0],[9000000000.0, 9000000000.0, 9000000000.0, 9000000000.0, 9000000000.0, 9000000000.0]];
    CONST robtarget point_212_clearance:=[[320,137,10],[0,0.707106781,0.707106781,0],[0, 0, 0, 0],[9000000000.0, 9000000000.0, 9000000000.0, 9000000000.0, 9000000000.0, 9000000000.0]];
    CONST robtarget point_212_contact:=[[320,137,5],[0,0.707106781,0.707106781,0],[0, 0, 0, 0],[9000000000.0, 9000000000.0, 9000000000.0, 9000000000.0, 9000000000.0, 9000000000.0]];
    CONST robtarget point_213_contact:=[[327,135,5],[0,0.707106781,0.707106781,0],[0, 0, 0, 0],[9000000000.0, 9000000000.0, 9000000000.0, 9000000000.0, 9000000000.0, 9000000000.0]];
    CONST robtarget point_213_clearance:=[[327,135,10],[0,0.707106781,0.707106781,0],[0, 0, 0, 0],[9000000000.0, 9000000000.0, 9000000000.0, 9000000000.0, 9000000000.0, 9000000000.0]];
    CONST robtarget point_214_clearance:=[[217,135,10],[0,0.707106781,0.707106781,0],[0, 0, 0, 0],[9000000000.0, 9000000000.0, 9000000000.0, 9000000000.0, 9000000000.0, 9000000000.0]];
    CONST robtarget point_214_contact:=[[217,135,5],[0,0.707106781,0.707106781,0],[0, 0, 0, 0],[9000000000.0, 9000000000.0, 9000000000.0, 9000000000.0, 9000000000.0, 9000000000.0]];
    CONST robtarget point_215_contact:=[[226,148,5],[0,0.707106781,0.707106781,0],[0, 0, 0, 0],[9000000000.0, 9000000000.0, 9000000000.0, 9000000000.0, 9000000000.0, 9000000000.0]];
    CONST robtarget point_215_clearance:=[[226,148,10],[0,0.707106781,0.707106781,0],[0, 0, 0, 0],[9000000000.0, 9000000000.0, 9000000000.0, 9000000000.0, 9000000000.0, 9000000000.0]];
    CONST robtarget point_216_clearance:=[[259,136,10],[0,0.707106781,0.707106781,0],[0, 0, 0, 0],[9000000000.0, 9000000000.0, 9000000000.0, 9000000000.0, 9000000000.0, 9000000000.0]];
    CONST robtarget point_216_contact:=[[259,136,5],[0,0.707106781,0.707106781,0],[0, 0, 0, 0],[9000000000.0, 9000000000.0, 9000000000.0, 9000000000.0, 9000000000.0, 9000000000.0]];
    CONST robtarget point_217_contact:=[[272,138,5],[0,0.707106781,0.707106781,0],[0, 0, 0, 0],[9000000000.0, 9000000000.0, 9000000000.0, 9000000000.0, 9000000000.0, 9000000000.0]];
    CONST robtarget point_217_clearance:=[[272,138,10],[0,0.707106781,0.707106781,0],[0, 0, 0, 0],[9000000000.0, 9000000000.0, 9000000000.0, 9000000000.0, 9000000000.0, 9000000000.0]];
    CONST robtarget point_218_clearance:=[[273,137,10],[0,0.707106781,0.707106781,0],[0, 0, 0, 0],[9000000000.0, 9000000000.0, 9000000000.0, 9000000000.0, 9000000000.0, 9000000000.0]];
    CONST robtarget point_218_contact:=[[273,137,5],[0,0.707106781,0.707106781,0],[0, 0, 0, 0],[9000000000.0, 9000000000.0, 9000000000.0, 9000000000.0, 9000000000.0, 9000000000.0]];
    CONST robtarget point_219_contact:=[[280,144,5],[0,0.707106781,0.707106781,0],[0, 0, 0, 0],[9000000000.0, 9000000000.0, 9000000000.0, 9000000000.0, 9000000000.0, 9000000000.0]];
    CONST robtarget point_219_clearance:=[[280,144,10],[0,0.707106781,0.707106781,0],[0, 0, 0, 0],[9000000000.0, 9000000000.0, 9000000000.0, 9000000000.0, 9000000000.0, 9000000000.0]];
    CONST robtarget point_220_clearance:=[[383,137,10],[0,0.707106781,0.707106781,0],[0, 0, 0, 0],[9000000000.0, 9000000000.0, 9000000000.0, 9000000000.0, 9000000000.0, 9000000000.0]];
    CONST robtarget point_220_contact:=[[383,137,5],[0,0.707106781,0.707106781,0],[0, 0, 0, 0],[9000000000.0, 9000000000.0, 9000000000.0, 9000000000.0, 9000000000.0, 9000000000.0]];
    CONST robtarget point_221_contact:=[[375,139,5],[0,0.707106781,0.707106781,0],[0, 0, 0, 0],[9000000000.0, 9000000000.0, 9000000000.0, 9000000000.0, 9000000000.0, 9000000000.0]];
    CONST robtarget point_221_clearance:=[[375,139,10],[0,0.707106781,0.707106781,0],[0, 0, 0, 0],[9000000000.0, 9000000000.0, 9000000000.0, 9000000000.0, 9000000000.0, 9000000000.0]];
    CONST robtarget point_222_clearance:=[[356,149,10],[0,0.707106781,0.707106781,0],[0, 0, 0, 0],[9000000000.0, 9000000000.0, 9000000000.0, 9000000000.0, 9000000000.0, 9000000000.0]];
    CONST robtarget point_222_contact:=[[356,149,5],[0,0.707106781,0.707106781,0],[0, 0, 0, 0],[9000000000.0, 9000000000.0, 9000000000.0, 9000000000.0, 9000000000.0, 9000000000.0]];
    CONST robtarget point_223_contact:=[[348,137,5],[0,0.707106781,0.707106781,0],[0, 0, 0, 0],[9000000000.0, 9000000000.0, 9000000000.0, 9000000000.0, 9000000000.0, 9000000000.0]];
    CONST robtarget point_223_clearance:=[[348,137,10],[0,0.707106781,0.707106781,0],[0, 0, 0, 0],[9000000000.0, 9000000000.0, 9000000000.0, 9000000000.0, 9000000000.0, 9000000000.0]];
    CONST robtarget point_224_clearance:=[[364,147,10],[0,0.707106781,0.707106781,0],[0, 0, 0, 0],[9000000000.0, 9000000000.0, 9000000000.0, 9000000000.0, 9000000000.0, 9000000000.0]];
    CONST robtarget point_224_contact:=[[364,147,5],[0,0.707106781,0.707106781,0],[0, 0, 0, 0],[9000000000.0, 9000000000.0, 9000000000.0, 9000000000.0, 9000000000.0, 9000000000.0]];
    CONST robtarget point_225_contact:=[[365,137,5],[0,0.707106781,0.707106781,0],[0, 0, 0, 0],[9000000000.0, 9000000000.0, 9000000000.0, 9000000000.0, 9000000000.0, 9000000000.0]];
    CONST robtarget point_225_clearance:=[[365,137,10],[0,0.707106781,0.707106781,0],[0, 0, 0, 0],[9000000000.0, 9000000000.0, 9000000000.0, 9000000000.0, 9000000000.0, 9000000000.0]];
    CONST robtarget point_226_clearance:=[[220,143,10],[0,0.707106781,0.707106781,0],[0, 0, 0, 0],[9000000000.0, 9000000000.0, 9000000000.0, 9000000000.0, 9000000000.0, 9000000000.0]];
    CONST robtarget point_226_contact:=[[220,143,5],[0,0.707106781,0.707106781,0],[0, 0, 0, 0],[9000000000.0, 9000000000.0, 9000000000.0, 9000000000.0, 9000000000.0, 9000000000.0]];
    CONST robtarget point_227_contact:=[[214,140,5],[0,0.707106781,0.707106781,0],[0, 0, 0, 0],[9000000000.0, 9000000000.0, 9000000000.0, 9000000000.0, 9000000000.0, 9000000000.0]];
    CONST robtarget point_227_clearance:=[[214,140,10],[0,0.707106781,0.707106781,0],[0, 0, 0, 0],[9000000000.0, 9000000000.0, 9000000000.0, 9000000000.0, 9000000000.0, 9000000000.0]];
    CONST robtarget point_228_clearance:=[[282,140,10],[0,0.707106781,0.707106781,0],[0, 0, 0, 0],[9000000000.0, 9000000000.0, 9000000000.0, 9000000000.0, 9000000000.0, 9000000000.0]];
    CONST robtarget point_228_contact:=[[282,140,5],[0,0.707106781,0.707106781,0],[0, 0, 0, 0],[9000000000.0, 9000000000.0, 9000000000.0, 9000000000.0, 9000000000.0, 9000000000.0]];
    CONST robtarget point_229_contact:=[[290,152,5],[0,0.707106781,0.707106781,0],[0, 0, 0, 0],[9000000000.0, 9000000000.0, 9000000000.0, 9000000000.0, 9000000000.0, 9000000000.0]];
    CONST robtarget point_229_clearance:=[[290,152,10],[0,0.707106781,0.707106781,0],[0, 0, 0, 0],[9000000000.0, 9000000000.0, 9000000000.0, 9000000000.0, 9000000000.0, 9000000000.0]];
    CONST robtarget point_230_clearance:=[[342,141,10],[0,0.707106781,0.707106781,0],[0, 0, 0, 0],[9000000000.0, 9000000000.0, 9000000000.0, 9000000000.0, 9000000000.0, 9000000000.0]];
    CONST robtarget point_230_contact:=[[342,141,5],[0,0.707106781,0.707106781,0],[0, 0, 0, 0],[9000000000.0, 9000000000.0, 9000000000.0, 9000000000.0, 9000000000.0, 9000000000.0]];
    CONST robtarget point_231_contact:=[[335,140,5],[0,0.707106781,0.707106781,0],[0, 0, 0, 0],[9000000000.0, 9000000000.0, 9000000000.0, 9000000000.0, 9000000000.0, 9000000000.0]];
    CONST robtarget point_231_clearance:=[[335,140,10],[0,0.707106781,0.707106781,0],[0, 0, 0, 0],[9000000000.0, 9000000000.0, 9000000000.0, 9000000000.0, 9000000000.0, 9000000000.0]];
    CONST robtarget point_232_clearance:=[[374,145,10],[0,0.707106781,0.707106781,0],[0, 0, 0, 0],[9000000000.0, 9000000000.0, 9000000000.0, 9000000000.0, 9000000000.0, 9000000000.0]];
    CONST robtarget point_232_contact:=[[374,145,5],[0,0.707106781,0.707106781,0],[0, 0, 0, 0],[9000000000.0, 9000000000.0, 9000000000.0, 9000000000.0, 9000000000.0, 9000000000.0]];
    CONST robtarget point_233_contact:=[[387,141,5],[0,0.707106781,0.707106781,0],[0, 0, 0, 0],[9000000000.0, 9000000000.0, 9000000000.0, 9000000000.0, 9000000000.0, 9000000000.0]];
    CONST robtarget point_233_clearance:=[[387,141,10],[0,0.707106781,0.707106781,0],[0, 0, 0, 0],[9000000000.0, 9000000000.0, 9000000000.0, 9000000000.0, 9000000000.0, 9000000000.0]];
    CONST robtarget point_234_clearance:=[[318,142,10],[0,0.707106781,0.707106781,0],[0, 0, 0, 0],[9000000000.0, 9000000000.0, 9000000000.0, 9000000000.0, 9000000000.0, 9000000000.0]];
    CONST robtarget point_234_contact:=[[318,142,5],[0,0.707106781,0.707106781,0],[0, 0, 0, 0],[9000000000.0, 9000000000.0, 9000000000.0, 9000000000.0, 9000000000.0, 9000000000.0]];
    CONST robtarget point_235_contact:=[[331,141,5],[0,0.707106781,0.707106781,0],[0, 0, 0, 0],[9000000000.0, 9000000000.0, 9000000000.0, 9000000000.0, 9000000000.0, 9000000000.0]];
    CONST robtarget point_235_clearance:=[[331,141,10],[0,0.707106781,0.707106781,0],[0, 0, 0, 0],[9000000000.0, 9000000000.0, 9000000000.0, 9000000000.0, 9000000000.0, 9000000000.0]];
    CONST robtarget point_236_clearance:=[[254,146,10],[0,0.707106781,0.707106781,0],[0, 0, 0, 0],[9000000000.0, 9000000000.0, 9000000000.0, 9000000000.0, 9000000000.0, 9000000000.0]];
    CONST robtarget point_236_contact:=[[254,146,5],[0,0.707106781,0.707106781,0],[0, 0, 0, 0],[9000000000.0, 9000000000.0, 9000000000.0, 9000000000.0, 9000000000.0, 9000000000.0]];
    CONST robtarget point_237_contact:=[[263,142,5],[0,0.707106781,0.707106781,0],[0, 0, 0, 0],[9000000000.0, 9000000000.0, 9000000000.0, 9000000000.0, 9000000000.0, 9000000000.0]];
    CONST robtarget point_237_clearance:=[[263,142,10],[0,0.707106781,0.707106781,0],[0, 0, 0, 0],[9000000000.0, 9000000000.0, 9000000000.0, 9000000000.0, 9000000000.0, 9000000000.0]];
    CONST robtarget point_238_clearance:=[[303,145,10],[0,0.707106781,0.707106781,0],[0, 0, 0, 0],[9000000000.0, 9000000000.0, 9000000000.0, 9000000000.0, 9000000000.0, 9000000000.0]];
    CONST robtarget point_238_contact:=[[303,145,5],[0,0.707106781,0.707106781,0],[0, 0, 0, 0],[9000000000.0, 9000000000.0, 9000000000.0, 9000000000.0, 9000000000.0, 9000000000.0]];
    CONST robtarget point_239_contact:=[[314,143,5],[0,0.707106781,0.707106781,0],[0, 0, 0, 0],[9000000000.0, 9000000000.0, 9000000000.0, 9000000000.0, 9000000000.0, 9000000000.0]];
    CONST robtarget point_239_clearance:=[[314,143,10],[0,0.707106781,0.707106781,0],[0, 0, 0, 0],[9000000000.0, 9000000000.0, 9000000000.0, 9000000000.0, 9000000000.0, 9000000000.0]];
    CONST robtarget point_240_clearance:=[[332,142,10],[0,0.707106781,0.707106781,0],[0, 0, 0, 0],[9000000000.0, 9000000000.0, 9000000000.0, 9000000000.0, 9000000000.0, 9000000000.0]];
    CONST robtarget point_240_contact:=[[332,142,5],[0,0.707106781,0.707106781,0],[0, 0, 0, 0],[9000000000.0, 9000000000.0, 9000000000.0, 9000000000.0, 9000000000.0, 9000000000.0]];
    CONST robtarget point_241_contact:=[[339,146,5],[0,0.707106781,0.707106781,0],[0, 0, 0, 0],[9000000000.0, 9000000000.0, 9000000000.0, 9000000000.0, 9000000000.0, 9000000000.0]];
    CONST robtarget point_241_clearance:=[[339,146,10],[0,0.707106781,0.707106781,0],[0, 0, 0, 0],[9000000000.0, 9000000000.0, 9000000000.0, 9000000000.0, 9000000000.0, 9000000000.0]];
    CONST robtarget point_242_clearance:=[[362,142,10],[0,0.707106781,0.707106781,0],[0, 0, 0, 0],[9000000000.0, 9000000000.0, 9000000000.0, 9000000000.0, 9000000000.0, 9000000000.0]];
    CONST robtarget point_242_contact:=[[362,142,5],[0,0.707106781,0.707106781,0],[0, 0, 0, 0],[9000000000.0, 9000000000.0, 9000000000.0, 9000000000.0, 9000000000.0, 9000000000.0]];
    CONST robtarget point_243_contact:=[[356,150,5],[0,0.707106781,0.707106781,0],[0, 0, 0, 0],[9000000000.0, 9000000000.0, 9000000000.0, 9000000000.0, 9000000000.0, 9000000000.0]];
    CONST robtarget point_243_clearance:=[[356,150,10],[0,0.707106781,0.707106781,0],[0, 0, 0, 0],[9000000000.0, 9000000000.0, 9000000000.0, 9000000000.0, 9000000000.0, 9000000000.0]];
    CONST robtarget point_244_clearance:=[[367,150,10],[0,0.707106781,0.707106781,0],[0, 0, 0, 0],[9000000000.0, 9000000000.0, 9000000000.0, 9000000000.0, 9000000000.0, 9000000000.0]];
    CONST robtarget point_244_contact:=[[367,150,5],[0,0.707106781,0.707106781,0],[0, 0, 0, 0],[9000000000.0, 9000000000.0, 9000000000.0, 9000000000.0, 9000000000.0, 9000000000.0]];
    CONST robtarget point_245_contact:=[[370,142,5],[0,0.707106781,0.707106781,0],[0, 0, 0, 0],[9000000000.0, 9000000000.0, 9000000000.0, 9000000000.0, 9000000000.0, 9000000000.0]];
    CONST robtarget point_245_clearance:=[[370,142,10],[0,0.707106781,0.707106781,0],[0, 0, 0, 0],[9000000000.0, 9000000000.0, 9000000000.0, 9000000000.0, 9000000000.0, 9000000000.0]];
    CONST robtarget point_246_clearance:=[[391,144,10],[0,0.707106781,0.707106781,0],[0, 0, 0, 0],[9000000000.0, 9000000000.0, 9000000000.0, 9000000000.0, 9000000000.0, 9000000000.0]];
    CONST robtarget point_246_contact:=[[391,144,5],[0,0.707106781,0.707106781,0],[0, 0, 0, 0],[9000000000.0, 9000000000.0, 9000000000.0, 9000000000.0, 9000000000.0, 9000000000.0]];
    CONST robtarget point_247_contact:=[[371,151,5],[0,0.707106781,0.707106781,0],[0, 0, 0, 0],[9000000000.0, 9000000000.0, 9000000000.0, 9000000000.0, 9000000000.0, 9000000000.0]];
    CONST robtarget point_247_clearance:=[[371,151,10],[0,0.707106781,0.707106781,0],[0, 0, 0, 0],[9000000000.0, 9000000000.0, 9000000000.0, 9000000000.0, 9000000000.0, 9000000000.0]];
    CONST robtarget point_248_clearance:=[[227,157,10],[0,0.707106781,0.707106781,0],[0, 0, 0, 0],[9000000000.0, 9000000000.0, 9000000000.0, 9000000000.0, 9000000000.0, 9000000000.0]];
    CONST robtarget point_248_contact:=[[227,157,5],[0,0.707106781,0.707106781,0],[0, 0, 0, 0],[9000000000.0, 9000000000.0, 9000000000.0, 9000000000.0, 9000000000.0, 9000000000.0]];
    CONST robtarget point_249_contact:=[[220,144,5],[0,0.707106781,0.707106781,0],[0, 0, 0, 0],[9000000000.0, 9000000000.0, 9000000000.0, 9000000000.0, 9000000000.0, 9000000000.0]];
    CONST robtarget point_249_clearance:=[[220,144,10],[0,0.707106781,0.707106781,0],[0, 0, 0, 0],[9000000000.0, 9000000000.0, 9000000000.0, 9000000000.0, 9000000000.0, 9000000000.0]];
    CONST robtarget point_250_clearance:=[[211,146,10],[0,0.707106781,0.707106781,0],[0, 0, 0, 0],[9000000000.0, 9000000000.0, 9000000000.0, 9000000000.0, 9000000000.0, 9000000000.0]];
    CONST robtarget point_250_contact:=[[211,146,5],[0,0.707106781,0.707106781,0],[0, 0, 0, 0],[9000000000.0, 9000000000.0, 9000000000.0, 9000000000.0, 9000000000.0, 9000000000.0]];
    CONST robtarget point_251_contact:=[[213,165,5],[0,0.707106781,0.707106781,0],[0, 0, 0, 0],[9000000000.0, 9000000000.0, 9000000000.0, 9000000000.0, 9000000000.0, 9000000000.0]];
    CONST robtarget point_251_clearance:=[[213,165,10],[0,0.707106781,0.707106781,0],[0, 0, 0, 0],[9000000000.0, 9000000000.0, 9000000000.0, 9000000000.0, 9000000000.0, 9000000000.0]];
    CONST robtarget point_252_clearance:=[[335,147,10],[0,0.707106781,0.707106781,0],[0, 0, 0, 0],[9000000000.0, 9000000000.0, 9000000000.0, 9000000000.0, 9000000000.0, 9000000000.0]];
    CONST robtarget point_252_contact:=[[335,147,5],[0,0.707106781,0.707106781,0],[0, 0, 0, 0],[9000000000.0, 9000000000.0, 9000000000.0, 9000000000.0, 9000000000.0, 9000000000.0]];
    CONST robtarget point_253_contact:=[[321,149,5],[0,0.707106781,0.707106781,0],[0, 0, 0, 0],[9000000000.0, 9000000000.0, 9000000000.0, 9000000000.0, 9000000000.0, 9000000000.0]];
    CONST robtarget point_253_clearance:=[[321,149,10],[0,0.707106781,0.707106781,0],[0, 0, 0, 0],[9000000000.0, 9000000000.0, 9000000000.0, 9000000000.0, 9000000000.0, 9000000000.0]];
    CONST robtarget point_254_clearance:=[[273,150,10],[0,0.707106781,0.707106781,0],[0, 0, 0, 0],[9000000000.0, 9000000000.0, 9000000000.0, 9000000000.0, 9000000000.0, 9000000000.0]];
    CONST robtarget point_254_contact:=[[273,150,5],[0,0.707106781,0.707106781,0],[0, 0, 0, 0],[9000000000.0, 9000000000.0, 9000000000.0, 9000000000.0, 9000000000.0, 9000000000.0]];
    CONST robtarget point_255_contact:=[[256,150,5],[0,0.707106781,0.707106781,0],[0, 0, 0, 0],[9000000000.0, 9000000000.0, 9000000000.0, 9000000000.0, 9000000000.0, 9000000000.0]];
    CONST robtarget point_255_clearance:=[[256,150,10],[0,0.707106781,0.707106781,0],[0, 0, 0, 0],[9000000000.0, 9000000000.0, 9000000000.0, 9000000000.0, 9000000000.0, 9000000000.0]];
    CONST robtarget point_256_clearance:=[[175,150,10],[0,0.707106781,0.707106781,0],[0, 0, 0, 0],[9000000000.0, 9000000000.0, 9000000000.0, 9000000000.0, 9000000000.0, 9000000000.0]];
    CONST robtarget point_256_contact:=[[175,150,5],[0,0.707106781,0.707106781,0],[0, 0, 0, 0],[9000000000.0, 9000000000.0, 9000000000.0, 9000000000.0, 9000000000.0, 9000000000.0]];
    CONST robtarget point_257_contact:=[[193,165,5],[0,0.707106781,0.707106781,0],[0, 0, 0, 0],[9000000000.0, 9000000000.0, 9000000000.0, 9000000000.0, 9000000000.0, 9000000000.0]];
    CONST robtarget point_257_clearance:=[[193,165,10],[0,0.707106781,0.707106781,0],[0, 0, 0, 0],[9000000000.0, 9000000000.0, 9000000000.0, 9000000000.0, 9000000000.0, 9000000000.0]];
    CONST robtarget point_258_clearance:=[[369,155,10],[0,0.707106781,0.707106781,0],[0, 0, 0, 0],[9000000000.0, 9000000000.0, 9000000000.0, 9000000000.0, 9000000000.0, 9000000000.0]];
    CONST robtarget point_258_contact:=[[369,155,5],[0,0.707106781,0.707106781,0],[0, 0, 0, 0],[9000000000.0, 9000000000.0, 9000000000.0, 9000000000.0, 9000000000.0, 9000000000.0]];
    CONST robtarget point_259_contact:=[[367,149,5],[0,0.707106781,0.707106781,0],[0, 0, 0, 0],[9000000000.0, 9000000000.0, 9000000000.0, 9000000000.0, 9000000000.0, 9000000000.0]];
    CONST robtarget point_259_clearance:=[[367,149,10],[0,0.707106781,0.707106781,0],[0, 0, 0, 0],[9000000000.0, 9000000000.0, 9000000000.0, 9000000000.0, 9000000000.0, 9000000000.0]];
    CONST robtarget point_260_clearance:=[[325,155,10],[0,0.707106781,0.707106781,0],[0, 0, 0, 0],[9000000000.0, 9000000000.0, 9000000000.0, 9000000000.0, 9000000000.0, 9000000000.0]];
    CONST robtarget point_260_contact:=[[325,155,5],[0,0.707106781,0.707106781,0],[0, 0, 0, 0],[9000000000.0, 9000000000.0, 9000000000.0, 9000000000.0, 9000000000.0, 9000000000.0]];
    CONST robtarget point_261_contact:=[[313,152,5],[0,0.707106781,0.707106781,0],[0, 0, 0, 0],[9000000000.0, 9000000000.0, 9000000000.0, 9000000000.0, 9000000000.0, 9000000000.0]];
    CONST robtarget point_261_clearance:=[[313,152,10],[0,0.707106781,0.707106781,0],[0, 0, 0, 0],[9000000000.0, 9000000000.0, 9000000000.0, 9000000000.0, 9000000000.0, 9000000000.0]];
    CONST robtarget point_262_clearance:=[[356,158,10],[0,0.707106781,0.707106781,0],[0, 0, 0, 0],[9000000000.0, 9000000000.0, 9000000000.0, 9000000000.0, 9000000000.0, 9000000000.0]];
    CONST robtarget point_262_contact:=[[356,158,5],[0,0.707106781,0.707106781,0],[0, 0, 0, 0],[9000000000.0, 9000000000.0, 9000000000.0, 9000000000.0, 9000000000.0, 9000000000.0]];
    CONST robtarget point_263_contact:=[[354,150,5],[0,0.707106781,0.707106781,0],[0, 0, 0, 0],[9000000000.0, 9000000000.0, 9000000000.0, 9000000000.0, 9000000000.0, 9000000000.0]];
    CONST robtarget point_263_clearance:=[[354,150,10],[0,0.707106781,0.707106781,0],[0, 0, 0, 0],[9000000000.0, 9000000000.0, 9000000000.0, 9000000000.0, 9000000000.0, 9000000000.0]];
    CONST robtarget point_264_clearance:=[[362,150,10],[0,0.707106781,0.707106781,0],[0, 0, 0, 0],[9000000000.0, 9000000000.0, 9000000000.0, 9000000000.0, 9000000000.0, 9000000000.0]];
    CONST robtarget point_264_contact:=[[362,150,5],[0,0.707106781,0.707106781,0],[0, 0, 0, 0],[9000000000.0, 9000000000.0, 9000000000.0, 9000000000.0, 9000000000.0, 9000000000.0]];
    CONST robtarget point_265_contact:=[[358,159,5],[0,0.707106781,0.707106781,0],[0, 0, 0, 0],[9000000000.0, 9000000000.0, 9000000000.0, 9000000000.0, 9000000000.0, 9000000000.0]];
    CONST robtarget point_265_clearance:=[[358,159,10],[0,0.707106781,0.707106781,0],[0, 0, 0, 0],[9000000000.0, 9000000000.0, 9000000000.0, 9000000000.0, 9000000000.0, 9000000000.0]];
    CONST robtarget point_266_clearance:=[[212,167,10],[0,0.707106781,0.707106781,0],[0, 0, 0, 0],[9000000000.0, 9000000000.0, 9000000000.0, 9000000000.0, 9000000000.0, 9000000000.0]];
    CONST robtarget point_266_contact:=[[212,167,5],[0,0.707106781,0.707106781,0],[0, 0, 0, 0],[9000000000.0, 9000000000.0, 9000000000.0, 9000000000.0, 9000000000.0, 9000000000.0]];
    CONST robtarget point_267_contact:=[[183,154,5],[0,0.707106781,0.707106781,0],[0, 0, 0, 0],[9000000000.0, 9000000000.0, 9000000000.0, 9000000000.0, 9000000000.0, 9000000000.0]];
    CONST robtarget point_267_clearance:=[[183,154,10],[0,0.707106781,0.707106781,0],[0, 0, 0, 0],[9000000000.0, 9000000000.0, 9000000000.0, 9000000000.0, 9000000000.0, 9000000000.0]];
    CONST robtarget point_268_clearance:=[[373,153,10],[0,0.707106781,0.707106781,0],[0, 0, 0, 0],[9000000000.0, 9000000000.0, 9000000000.0, 9000000000.0, 9000000000.0, 9000000000.0]];
    CONST robtarget point_268_contact:=[[373,153,5],[0,0.707106781,0.707106781,0],[0, 0, 0, 0],[9000000000.0, 9000000000.0, 9000000000.0, 9000000000.0, 9000000000.0, 9000000000.0]];
    CONST robtarget point_269_contact:=[[369,168,5],[0,0.707106781,0.707106781,0],[0, 0, 0, 0],[9000000000.0, 9000000000.0, 9000000000.0, 9000000000.0, 9000000000.0, 9000000000.0]];
    CONST robtarget point_269_clearance:=[[369,168,10],[0,0.707106781,0.707106781,0],[0, 0, 0, 0],[9000000000.0, 9000000000.0, 9000000000.0, 9000000000.0, 9000000000.0, 9000000000.0]];
    CONST robtarget point_270_clearance:=[[364,164,10],[0,0.707106781,0.707106781,0],[0, 0, 0, 0],[9000000000.0, 9000000000.0, 9000000000.0, 9000000000.0, 9000000000.0, 9000000000.0]];
    CONST robtarget point_270_contact:=[[364,164,5],[0,0.707106781,0.707106781,0],[0, 0, 0, 0],[9000000000.0, 9000000000.0, 9000000000.0, 9000000000.0, 9000000000.0, 9000000000.0]];
    CONST robtarget point_271_contact:=[[369,155,5],[0,0.707106781,0.707106781,0],[0, 0, 0, 0],[9000000000.0, 9000000000.0, 9000000000.0, 9000000000.0, 9000000000.0, 9000000000.0]];
    CONST robtarget point_271_clearance:=[[369,155,10],[0,0.707106781,0.707106781,0],[0, 0, 0, 0],[9000000000.0, 9000000000.0, 9000000000.0, 9000000000.0, 9000000000.0, 9000000000.0]];
    CONST robtarget point_272_clearance:=[[224,157,10],[0,0.707106781,0.707106781,0],[0, 0, 0, 0],[9000000000.0, 9000000000.0, 9000000000.0, 9000000000.0, 9000000000.0, 9000000000.0]];
    CONST robtarget point_272_contact:=[[224,157,5],[0,0.707106781,0.707106781,0],[0, 0, 0, 0],[9000000000.0, 9000000000.0, 9000000000.0, 9000000000.0, 9000000000.0, 9000000000.0]];
    CONST robtarget point_273_contact:=[[227,170,5],[0,0.707106781,0.707106781,0],[0, 0, 0, 0],[9000000000.0, 9000000000.0, 9000000000.0, 9000000000.0, 9000000000.0, 9000000000.0]];
