MODULE MainModule
    CONST jointtarget home:=[[0,40,10,0,40,0],[9E+09,9E+09,9E+09,9E+09,9E+09,9E+09]];
    CONST robtarget calib_1:=[[25,25,130],[0,0,1,0],[0,0,0,0],[9E+09,9E+09,9E+09,9E+09,9E+09,9E+09]];
    CONST robtarget calib_2:=[[558,25,130],[0,0,1,0],[0,0,0,0],[9E+09,9E+09,9E+09,9E+09,9E+09,9E+09]];
    CONST robtarget calib_3:=[[558,406,130],[0,0,1,0],[0,0,0,0],[9E+09,9E+09,9E+09,9E+09,9E+09,9E+09]];
    CONST robtarget calib_4:=[[25,406,130],[0,0,1,0],[0,0,0,0],[9E+09,9E+09,9E+09,9E+09,9E+09,9E+09]];
    CONST robtarget point_0_clearance:=[[193,87,130],[0,0,1,0],[0, 0, 0, 0],[9E+09,9E+09,9E+09,9E+09,9E+09,9E+09]];
    CONST robtarget point_0_contact:=[[193,87,125],[0,0,1,0],[0, 0, 0, 0],[9E+09,9E+09,9E+09,9E+09,9E+09,9E+09]];
    CONST robtarget point_1_contact:=[[126,93,125],[0,0,1,0],[0, 0, 0, 0],[9E+09,9E+09,9E+09,9E+09,9E+09,9E+09]];
    CONST robtarget point_1_clearance:=[[126,93,130],[0,0,1,0],[0, 0, 0, 0],[9E+09,9E+09,9E+09,9E+09,9E+09,9E+09]];
    CONST robtarget point_2_clearance:=[[231,91,130],[0,0,1,0],[0, 0, 0, 0],[9E+09,9E+09,9E+09,9E+09,9E+09,9E+09]];
    CONST robtarget point_2_contact:=[[231,91,125],[0,0,1,0],[0, 0, 0, 0],[9E+09,9E+09,9E+09,9E+09,9E+09,9E+09]];
    CONST robtarget point_3_contact:=[[195,88,125],[0,0,1,0],[0, 0, 0, 0],[9E+09,9E+09,9E+09,9E+09,9E+09,9E+09]];
    CONST robtarget point_3_clearance:=[[195,88,130],[0,0,1,0],[0, 0, 0, 0],[9E+09,9E+09,9E+09,9E+09,9E+09,9E+09]];
    CONST robtarget point_4_clearance:=[[282,99,130],[0,0,1,0],[0, 0, 0, 0],[9E+09,9E+09,9E+09,9E+09,9E+09,9E+09]];
    CONST robtarget point_4_contact:=[[282,99,125],[0,0,1,0],[0, 0, 0, 0],[9E+09,9E+09,9E+09,9E+09,9E+09,9E+09]];
    CONST robtarget point_5_contact:=[[229,90,125],[0,0,1,0],[0, 0, 0, 0],[9E+09,9E+09,9E+09,9E+09,9E+09,9E+09]];
    CONST robtarget point_5_clearance:=[[229,90,130],[0,0,1,0],[0, 0, 0, 0],[9E+09,9E+09,9E+09,9E+09,9E+09,9E+09]];
    CONST robtarget point_6_clearance:=[[125,95,130],[0,0,1,0],[0, 0, 0, 0],[9E+09,9E+09,9E+09,9E+09,9E+09,9E+09]];
    CONST robtarget point_6_contact:=[[125,95,125],[0,0,1,0],[0, 0, 0, 0],[9E+09,9E+09,9E+09,9E+09,9E+09,9E+09]];
    CONST robtarget point_7_contact:=[[77,107,125],[0,0,1,0],[0, 0, 0, 0],[9E+09,9E+09,9E+09,9E+09,9E+09,9E+09]];
    CONST robtarget point_7_clearance:=[[77,107,130],[0,0,1,0],[0, 0, 0, 0],[9E+09,9E+09,9E+09,9E+09,9E+09,9E+09]];
    CONST robtarget point_8_clearance:=[[77,108,130],[0,0,1,0],[0, 0, 0, 0],[9E+09,9E+09,9E+09,9E+09,9E+09,9E+09]];
    CONST robtarget point_8_contact:=[[77,108,125],[0,0,1,0],[0, 0, 0, 0],[9E+09,9E+09,9E+09,9E+09,9E+09,9E+09]];
    CONST robtarget point_9_contact:=[[22,99,125],[0,0,1,0],[0, 0, 0, 0],[9E+09,9E+09,9E+09,9E+09,9E+09,9E+09]];
    CONST robtarget point_9_clearance:=[[22,99,130],[0,0,1,0],[0, 0, 0, 0],[9E+09,9E+09,9E+09,9E+09,9E+09,9E+09]];
    CONST robtarget point_10_clearance:=[[22,98,130],[0,0,1,0],[0, 0, 0, 0],[9E+09,9E+09,9E+09,9E+09,9E+09,9E+09]];
    CONST robtarget point_10_contact:=[[22,98,125],[0,0,1,0],[0, 0, 0, 0],[9E+09,9E+09,9E+09,9E+09,9E+09,9E+09]];
    CONST robtarget point_11_contact:=[[18,103,125],[0,0,1,0],[0, 0, 0, 0],[9E+09,9E+09,9E+09,9E+09,9E+09,9E+09]];
    CONST robtarget point_11_clearance:=[[18,103,130],[0,0,1,0],[0, 0, 0, 0],[9E+09,9E+09,9E+09,9E+09,9E+09,9E+09]];
    CONST robtarget point_12_clearance:=[[140,103,130],[0,0,1,0],[0, 0, 0, 0],[9E+09,9E+09,9E+09,9E+09,9E+09,9E+09]];
    CONST robtarget point_12_contact:=[[140,103,125],[0,0,1,0],[0, 0, 0, 0],[9E+09,9E+09,9E+09,9E+09,9E+09,9E+09]];
    CONST robtarget point_13_contact:=[[200,98,125],[0,0,1,0],[0, 0, 0, 0],[9E+09,9E+09,9E+09,9E+09,9E+09,9E+09]];
    CONST robtarget point_13_clearance:=[[200,98,130],[0,0,1,0],[0, 0, 0, 0],[9E+09,9E+09,9E+09,9E+09,9E+09,9E+09]];
    CONST robtarget point_14_clearance:=[[201,98,130],[0,0,1,0],[0, 0, 0, 0],[9E+09,9E+09,9E+09,9E+09,9E+09,9E+09]];
    CONST robtarget point_14_contact:=[[201,98,125],[0,0,1,0],[0, 0, 0, 0],[9E+09,9E+09,9E+09,9E+09,9E+09,9E+09]];
    CONST robtarget point_15_contact:=[[301,113,125],[0,0,1,0],[0, 0, 0, 0],[9E+09,9E+09,9E+09,9E+09,9E+09,9E+09]];
    CONST robtarget point_15_clearance:=[[301,113,130],[0,0,1,0],[0, 0, 0, 0],[9E+09,9E+09,9E+09,9E+09,9E+09,9E+09]];
    CONST robtarget point_16_clearance:=[[365,123,130],[0,0,1,0],[0, 0, 0, 0],[9E+09,9E+09,9E+09,9E+09,9E+09,9E+09]];
    CONST robtarget point_16_contact:=[[365,123,125],[0,0,1,0],[0, 0, 0, 0],[9E+09,9E+09,9E+09,9E+09,9E+09,9E+09]];
    CONST robtarget point_17_contact:=[[283,98,125],[0,0,1,0],[0, 0, 0, 0],[9E+09,9E+09,9E+09,9E+09,9E+09,9E+09]];
    CONST robtarget point_17_clearance:=[[283,98,130],[0,0,1,0],[0, 0, 0, 0],[9E+09,9E+09,9E+09,9E+09,9E+09,9E+09]];
    CONST robtarget point_18_clearance:=[[78,118,130],[0,0,1,0],[0, 0, 0, 0],[9E+09,9E+09,9E+09,9E+09,9E+09,9E+09]];
    CONST robtarget point_18_contact:=[[78,118,125],[0,0,1,0],[0, 0, 0, 0],[9E+09,9E+09,9E+09,9E+09,9E+09,9E+09]];
    CONST robtarget point_19_contact:=[[139,104,125],[0,0,1,0],[0, 0, 0, 0],[9E+09,9E+09,9E+09,9E+09,9E+09,9E+09]];
    CONST robtarget point_19_clearance:=[[139,104,130],[0,0,1,0],[0, 0, 0, 0],[9E+09,9E+09,9E+09,9E+09,9E+09,9E+09]];
    CONST robtarget point_20_clearance:=[[18,103,130],[0,0,1,0],[0, 0, 0, 0],[9E+09,9E+09,9E+09,9E+09,9E+09,9E+09]];
    CONST robtarget point_20_contact:=[[18,103,125],[0,0,1,0],[0, 0, 0, 0],[9E+09,9E+09,9E+09,9E+09,9E+09,9E+09]];
    CONST robtarget point_21_contact:=[[46,221,125],[0,0,1,0],[0, 0, 0, 0],[9E+09,9E+09,9E+09,9E+09,9E+09,9E+09]];
    CONST robtarget point_21_clearance:=[[46,221,130],[0,0,1,0],[0, 0, 0, 0],[9E+09,9E+09,9E+09,9E+09,9E+09,9E+09]];
    CONST robtarget point_22_clearance:=[[33,112,130],[0,0,1,0],[0, 0, 0, 0],[9E+09,9E+09,9E+09,9E+09,9E+09,9E+09]];
    CONST robtarget point_22_contact:=[[33,112,125],[0,0,1,0],[0, 0, 0, 0],[9E+09,9E+09,9E+09,9E+09,9E+09,9E+09]];
    CONST robtarget point_23_contact:=[[67,118,125],[0,0,1,0],[0, 0, 0, 0],[9E+09,9E+09,9E+09,9E+09,9E+09,9E+09]];
    CONST robtarget point_23_clearance:=[[67,118,130],[0,0,1,0],[0, 0, 0, 0],[9E+09,9E+09,9E+09,9E+09,9E+09,9E+09]];
    CONST robtarget point_24_clearance:=[[56,215,130],[0,0,1,0],[0, 0, 0, 0],[9E+09,9E+09,9E+09,9E+09,9E+09,9E+09]];
    CONST robtarget point_24_contact:=[[56,215,125],[0,0,1,0],[0, 0, 0, 0],[9E+09,9E+09,9E+09,9E+09,9E+09,9E+09]];
    CONST robtarget point_25_contact:=[[32,112,125],[0,0,1,0],[0, 0, 0, 0],[9E+09,9E+09,9E+09,9E+09,9E+09,9E+09]];
    CONST robtarget point_25_clearance:=[[32,112,130],[0,0,1,0],[0, 0, 0, 0],[9E+09,9E+09,9E+09,9E+09,9E+09,9E+09]];
    CONST robtarget point_26_clearance:=[[307,115,130],[0,0,1,0],[0, 0, 0, 0],[9E+09,9E+09,9E+09,9E+09,9E+09,9E+09]];
    CONST robtarget point_26_contact:=[[307,115,125],[0,0,1,0],[0, 0, 0, 0],[9E+09,9E+09,9E+09,9E+09,9E+09,9E+09]];
    CONST robtarget point_27_contact:=[[307,116,125],[0,0,1,0],[0, 0, 0, 0],[9E+09,9E+09,9E+09,9E+09,9E+09,9E+09]];
    CONST robtarget point_27_clearance:=[[307,116,130],[0,0,1,0],[0, 0, 0, 0],[9E+09,9E+09,9E+09,9E+09,9E+09,9E+09]];
    CONST robtarget point_28_clearance:=[[308,115,130],[0,0,1,0],[0, 0, 0, 0],[9E+09,9E+09,9E+09,9E+09,9E+09,9E+09]];
    CONST robtarget point_28_contact:=[[308,115,125],[0,0,1,0],[0, 0, 0, 0],[9E+09,9E+09,9E+09,9E+09,9E+09,9E+09]];
    CONST robtarget point_29_contact:=[[408,151,125],[0,0,1,0],[0, 0, 0, 0],[9E+09,9E+09,9E+09,9E+09,9E+09,9E+09]];
    CONST robtarget point_29_clearance:=[[408,151,130],[0,0,1,0],[0, 0, 0, 0],[9E+09,9E+09,9E+09,9E+09,9E+09,9E+09]];
    CONST robtarget point_30_clearance:=[[68,117,130],[0,0,1,0],[0, 0, 0, 0],[9E+09,9E+09,9E+09,9E+09,9E+09,9E+09]];
    CONST robtarget point_30_contact:=[[68,117,125],[0,0,1,0],[0, 0, 0, 0],[9E+09,9E+09,9E+09,9E+09,9E+09,9E+09]];
    CONST robtarget point_31_contact:=[[80,117,125],[0,0,1,0],[0, 0, 0, 0],[9E+09,9E+09,9E+09,9E+09,9E+09,9E+09]];
    CONST robtarget point_31_clearance:=[[80,117,130],[0,0,1,0],[0, 0, 0, 0],[9E+09,9E+09,9E+09,9E+09,9E+09,9E+09]];
    CONST robtarget point_32_clearance:=[[301,115,130],[0,0,1,0],[0, 0, 0, 0],[9E+09,9E+09,9E+09,9E+09,9E+09,9E+09]];
    CONST robtarget point_32_contact:=[[301,115,125],[0,0,1,0],[0, 0, 0, 0],[9E+09,9E+09,9E+09,9E+09,9E+09,9E+09]];
    CONST robtarget point_33_contact:=[[293,144,125],[0,0,1,0],[0, 0, 0, 0],[9E+09,9E+09,9E+09,9E+09,9E+09,9E+09]];
    CONST robtarget point_33_clearance:=[[293,144,130],[0,0,1,0],[0, 0, 0, 0],[9E+09,9E+09,9E+09,9E+09,9E+09,9E+09]];
    CONST robtarget point_34_clearance:=[[298,144,130],[0,0,1,0],[0, 0, 0, 0],[9E+09,9E+09,9E+09,9E+09,9E+09,9E+09]];
    CONST robtarget point_34_contact:=[[298,144,125],[0,0,1,0],[0, 0, 0, 0],[9E+09,9E+09,9E+09,9E+09,9E+09,9E+09]];
    CONST robtarget point_35_contact:=[[307,116,125],[0,0,1,0],[0, 0, 0, 0],[9E+09,9E+09,9E+09,9E+09,9E+09,9E+09]];
    CONST robtarget point_35_clearance:=[[307,116,130],[0,0,1,0],[0, 0, 0, 0],[9E+09,9E+09,9E+09,9E+09,9E+09,9E+09]];
    CONST robtarget point_36_clearance:=[[495,175,130],[0,0,1,0],[0, 0, 0, 0],[9E+09,9E+09,9E+09,9E+09,9E+09,9E+09]];
    CONST robtarget point_36_contact:=[[495,175,125],[0,0,1,0],[0, 0, 0, 0],[9E+09,9E+09,9E+09,9E+09,9E+09,9E+09]];
    CONST robtarget point_37_contact:=[[365,123,125],[0,0,1,0],[0, 0, 0, 0],[9E+09,9E+09,9E+09,9E+09,9E+09,9E+09]];
    CONST robtarget point_37_clearance:=[[365,123,130],[0,0,1,0],[0, 0, 0, 0],[9E+09,9E+09,9E+09,9E+09,9E+09,9E+09]];
    CONST robtarget point_38_clearance:=[[89,131,130],[0,0,1,0],[0, 0, 0, 0],[9E+09,9E+09,9E+09,9E+09,9E+09,9E+09]];
    CONST robtarget point_38_contact:=[[89,131,125],[0,0,1,0],[0, 0, 0, 0],[9E+09,9E+09,9E+09,9E+09,9E+09,9E+09]];
    CONST robtarget point_39_contact:=[[85,153,125],[0,0,1,0],[0, 0, 0, 0],[9E+09,9E+09,9E+09,9E+09,9E+09,9E+09]];
    CONST robtarget point_39_clearance:=[[85,153,130],[0,0,1,0],[0, 0, 0, 0],[9E+09,9E+09,9E+09,9E+09,9E+09,9E+09]];
    CONST robtarget point_40_clearance:=[[102,149,130],[0,0,1,0],[0, 0, 0, 0],[9E+09,9E+09,9E+09,9E+09,9E+09,9E+09]];
    CONST robtarget point_40_contact:=[[102,149,125],[0,0,1,0],[0, 0, 0, 0],[9E+09,9E+09,9E+09,9E+09,9E+09,9E+09]];
    CONST robtarget point_41_contact:=[[90,132,125],[0,0,1,0],[0, 0, 0, 0],[9E+09,9E+09,9E+09,9E+09,9E+09,9E+09]];
    CONST robtarget point_41_clearance:=[[90,132,130],[0,0,1,0],[0, 0, 0, 0],[9E+09,9E+09,9E+09,9E+09,9E+09,9E+09]];
    CONST robtarget point_42_clearance:=[[292,143,130],[0,0,1,0],[0, 0, 0, 0],[9E+09,9E+09,9E+09,9E+09,9E+09,9E+09]];
    CONST robtarget point_42_contact:=[[292,143,125],[0,0,1,0],[0, 0, 0, 0],[9E+09,9E+09,9E+09,9E+09,9E+09,9E+09]];
    CONST robtarget point_43_contact:=[[237,144,125],[0,0,1,0],[0, 0, 0, 0],[9E+09,9E+09,9E+09,9E+09,9E+09,9E+09]];
    CONST robtarget point_43_clearance:=[[237,144,130],[0,0,1,0],[0, 0, 0, 0],[9E+09,9E+09,9E+09,9E+09,9E+09,9E+09]];
    CONST robtarget point_44_clearance:=[[127,143,130],[0,0,1,0],[0, 0, 0, 0],[9E+09,9E+09,9E+09,9E+09,9E+09,9E+09]];
    CONST robtarget point_44_contact:=[[127,143,125],[0,0,1,0],[0, 0, 0, 0],[9E+09,9E+09,9E+09,9E+09,9E+09,9E+09]];
    CONST robtarget point_45_contact:=[[103,149,125],[0,0,1,0],[0, 0, 0, 0],[9E+09,9E+09,9E+09,9E+09,9E+09,9E+09]];
    CONST robtarget point_45_clearance:=[[103,149,130],[0,0,1,0],[0, 0, 0, 0],[9E+09,9E+09,9E+09,9E+09,9E+09,9E+09]];
    CONST robtarget point_46_clearance:=[[297,147,130],[0,0,1,0],[0, 0, 0, 0],[9E+09,9E+09,9E+09,9E+09,9E+09,9E+09]];
    CONST robtarget point_46_contact:=[[297,147,125],[0,0,1,0],[0, 0, 0, 0],[9E+09,9E+09,9E+09,9E+09,9E+09,9E+09]];
    CONST robtarget point_47_contact:=[[300,145,125],[0,0,1,0],[0, 0, 0, 0],[9E+09,9E+09,9E+09,9E+09,9E+09,9E+09]];
    CONST robtarget point_47_clearance:=[[300,145,130],[0,0,1,0],[0, 0, 0, 0],[9E+09,9E+09,9E+09,9E+09,9E+09,9E+09]];
    CONST robtarget point_48_clearance:=[[374,168,130],[0,0,1,0],[0, 0, 0, 0],[9E+09,9E+09,9E+09,9E+09,9E+09,9E+09]];
    CONST robtarget point_48_contact:=[[374,168,125],[0,0,1,0],[0, 0, 0, 0],[9E+09,9E+09,9E+09,9E+09,9E+09,9E+09]];
    CONST robtarget point_49_contact:=[[299,145,125],[0,0,1,0],[0, 0, 0, 0],[9E+09,9E+09,9E+09,9E+09,9E+09,9E+09]];
    CONST robtarget point_49_clearance:=[[299,145,130],[0,0,1,0],[0, 0, 0, 0],[9E+09,9E+09,9E+09,9E+09,9E+09,9E+09]];
    CONST robtarget point_50_clearance:=[[111,162,130],[0,0,1,0],[0, 0, 0, 0],[9E+09,9E+09,9E+09,9E+09,9E+09,9E+09]];
    CONST robtarget point_50_contact:=[[111,162,125],[0,0,1,0],[0, 0, 0, 0],[9E+09,9E+09,9E+09,9E+09,9E+09,9E+09]];
    CONST robtarget point_51_contact:=[[128,145,125],[0,0,1,0],[0, 0, 0, 0],[9E+09,9E+09,9E+09,9E+09,9E+09,9E+09]];
    CONST robtarget point_51_clearance:=[[128,145,130],[0,0,1,0],[0, 0, 0, 0],[9E+09,9E+09,9E+09,9E+09,9E+09,9E+09]];
    CONST robtarget point_52_clearance:=[[236,147,130],[0,0,1,0],[0, 0, 0, 0],[9E+09,9E+09,9E+09,9E+09,9E+09,9E+09]];
    CONST robtarget point_52_contact:=[[236,147,125],[0,0,1,0],[0, 0, 0, 0],[9E+09,9E+09,9E+09,9E+09,9E+09,9E+09]];
    CONST robtarget point_53_contact:=[[288,157,125],[0,0,1,0],[0, 0, 0, 0],[9E+09,9E+09,9E+09,9E+09,9E+09,9E+09]];
    CONST robtarget point_53_clearance:=[[288,157,130],[0,0,1,0],[0, 0, 0, 0],[9E+09,9E+09,9E+09,9E+09,9E+09,9E+09]];
    CONST robtarget point_54_clearance:=[[408,152,130],[0,0,1,0],[0, 0, 0, 0],[9E+09,9E+09,9E+09,9E+09,9E+09,9E+09]];
    CONST robtarget point_54_contact:=[[408,152,125],[0,0,1,0],[0, 0, 0, 0],[9E+09,9E+09,9E+09,9E+09,9E+09,9E+09]];
    CONST robtarget point_55_contact:=[[510,191,125],[0,0,1,0],[0, 0, 0, 0],[9E+09,9E+09,9E+09,9E+09,9E+09,9E+09]];
    CONST robtarget point_55_clearance:=[[510,191,130],[0,0,1,0],[0, 0, 0, 0],[9E+09,9E+09,9E+09,9E+09,9E+09,9E+09]];
    CONST robtarget point_56_clearance:=[[84,154,130],[0,0,1,0],[0, 0, 0, 0],[9E+09,9E+09,9E+09,9E+09,9E+09,9E+09]];
    CONST robtarget point_56_contact:=[[84,154,125],[0,0,1,0],[0, 0, 0, 0],[9E+09,9E+09,9E+09,9E+09,9E+09,9E+09]];
    CONST robtarget point_57_contact:=[[60,159,125],[0,0,1,0],[0, 0, 0, 0],[9E+09,9E+09,9E+09,9E+09,9E+09,9E+09]];
    CONST robtarget point_57_clearance:=[[60,159,130],[0,0,1,0],[0, 0, 0, 0],[9E+09,9E+09,9E+09,9E+09,9E+09,9E+09]];
    CONST robtarget point_58_clearance:=[[294,159,130],[0,0,1,0],[0, 0, 0, 0],[9E+09,9E+09,9E+09,9E+09,9E+09,9E+09]];
    CONST robtarget point_58_contact:=[[294,159,125],[0,0,1,0],[0, 0, 0, 0],[9E+09,9E+09,9E+09,9E+09,9E+09,9E+09]];
    CONST robtarget point_59_contact:=[[392,197,125],[0,0,1,0],[0, 0, 0, 0],[9E+09,9E+09,9E+09,9E+09,9E+09,9E+09]];
    CONST robtarget point_59_clearance:=[[392,197,130],[0,0,1,0],[0, 0, 0, 0],[9E+09,9E+09,9E+09,9E+09,9E+09,9E+09]];
    CONST robtarget point_60_clearance:=[[289,159,130],[0,0,1,0],[0, 0, 0, 0],[9E+09,9E+09,9E+09,9E+09,9E+09,9E+09]];
    CONST robtarget point_60_contact:=[[289,159,125],[0,0,1,0],[0, 0, 0, 0],[9E+09,9E+09,9E+09,9E+09,9E+09,9E+09]];
    CONST robtarget point_61_contact:=[[282,182,125],[0,0,1,0],[0, 0, 0, 0],[9E+09,9E+09,9E+09,9E+09,9E+09,9E+09]];
    CONST robtarget point_61_clearance:=[[282,182,130],[0,0,1,0],[0, 0, 0, 0],[9E+09,9E+09,9E+09,9E+09,9E+09,9E+09]];
    CONST robtarget point_62_clearance:=[[59,160,130],[0,0,1,0],[0, 0, 0, 0],[9E+09,9E+09,9E+09,9E+09,9E+09,9E+09]];
    CONST robtarget point_62_contact:=[[59,160,125],[0,0,1,0],[0, 0, 0, 0],[9E+09,9E+09,9E+09,9E+09,9E+09,9E+09]];
    CONST robtarget point_63_contact:=[[81,168,125],[0,0,1,0],[0, 0, 0, 0],[9E+09,9E+09,9E+09,9E+09,9E+09,9E+09]];
    CONST robtarget point_63_clearance:=[[81,168,130],[0,0,1,0],[0, 0, 0, 0],[9E+09,9E+09,9E+09,9E+09,9E+09,9E+09]];
    CONST robtarget point_64_clearance:=[[285,184,130],[0,0,1,0],[0, 0, 0, 0],[9E+09,9E+09,9E+09,9E+09,9E+09,9E+09]];
    CONST robtarget point_64_contact:=[[285,184,125],[0,0,1,0],[0, 0, 0, 0],[9E+09,9E+09,9E+09,9E+09,9E+09,9E+09]];
    CONST robtarget point_65_contact:=[[293,161,125],[0,0,1,0],[0, 0, 0, 0],[9E+09,9E+09,9E+09,9E+09,9E+09,9E+09]];
    CONST robtarget point_65_clearance:=[[293,161,130],[0,0,1,0],[0, 0, 0, 0],[9E+09,9E+09,9E+09,9E+09,9E+09,9E+09]];
    CONST robtarget point_66_clearance:=[[126,184,130],[0,0,1,0],[0, 0, 0, 0],[9E+09,9E+09,9E+09,9E+09,9E+09,9E+09]];
    CONST robtarget point_66_contact:=[[126,184,125],[0,0,1,0],[0, 0, 0, 0],[9E+09,9E+09,9E+09,9E+09,9E+09,9E+09]];
    CONST robtarget point_67_contact:=[[111,161,125],[0,0,1,0],[0, 0, 0, 0],[9E+09,9E+09,9E+09,9E+09,9E+09,9E+09]];
    CONST robtarget point_67_clearance:=[[111,161,130],[0,0,1,0],[0, 0, 0, 0],[9E+09,9E+09,9E+09,9E+09,9E+09,9E+09]];
    CONST robtarget point_68_clearance:=[[450,192,130],[0,0,1,0],[0, 0, 0, 0],[9E+09,9E+09,9E+09,9E+09,9E+09,9E+09]];
    CONST robtarget point_68_contact:=[[450,192,125],[0,0,1,0],[0, 0, 0, 0],[9E+09,9E+09,9E+09,9E+09,9E+09,9E+09]];
    CONST robtarget point_69_contact:=[[374,169,125],[0,0,1,0],[0, 0, 0, 0],[9E+09,9E+09,9E+09,9E+09,9E+09,9E+09]];
    CONST robtarget point_69_clearance:=[[374,169,130],[0,0,1,0],[0, 0, 0, 0],[9E+09,9E+09,9E+09,9E+09,9E+09,9E+09]];
    CONST robtarget point_70_clearance:=[[81,169,130],[0,0,1,0],[0, 0, 0, 0],[9E+09,9E+09,9E+09,9E+09,9E+09,9E+09]];
    CONST robtarget point_70_contact:=[[81,169,125],[0,0,1,0],[0, 0, 0, 0],[9E+09,9E+09,9E+09,9E+09,9E+09,9E+09]];
    CONST robtarget point_71_contact:=[[75,195,125],[0,0,1,0],[0, 0, 0, 0],[9E+09,9E+09,9E+09,9E+09,9E+09,9E+09]];
    CONST robtarget point_71_clearance:=[[75,195,130],[0,0,1,0],[0, 0, 0, 0],[9E+09,9E+09,9E+09,9E+09,9E+09,9E+09]];
    CONST robtarget point_72_clearance:=[[76,196,130],[0,0,1,0],[0, 0, 0, 0],[9E+09,9E+09,9E+09,9E+09,9E+09,9E+09]];
    CONST robtarget point_72_contact:=[[76,196,125],[0,0,1,0],[0, 0, 0, 0],[9E+09,9E+09,9E+09,9E+09,9E+09,9E+09]];
    CONST robtarget point_73_contact:=[[98,174,125],[0,0,1,0],[0, 0, 0, 0],[9E+09,9E+09,9E+09,9E+09,9E+09,9E+09]];
    CONST robtarget point_73_clearance:=[[98,174,130],[0,0,1,0],[0, 0, 0, 0],[9E+09,9E+09,9E+09,9E+09,9E+09,9E+09]];
    CONST robtarget point_74_clearance:=[[98,174,130],[0,0,1,0],[0, 0, 0, 0],[9E+09,9E+09,9E+09,9E+09,9E+09,9E+09]];
    CONST robtarget point_74_contact:=[[98,174,125],[0,0,1,0],[0, 0, 0, 0],[9E+09,9E+09,9E+09,9E+09,9E+09,9E+09]];
    CONST robtarget point_75_contact:=[[125,185,125],[0,0,1,0],[0, 0, 0, 0],[9E+09,9E+09,9E+09,9E+09,9E+09,9E+09]];
    CONST robtarget point_75_clearance:=[[125,185,130],[0,0,1,0],[0, 0, 0, 0],[9E+09,9E+09,9E+09,9E+09,9E+09,9E+09]];
    CONST robtarget point_76_clearance:=[[558,193,130],[0,0,1,0],[0, 0, 0, 0],[9E+09,9E+09,9E+09,9E+09,9E+09,9E+09]];
    CONST robtarget point_76_contact:=[[558,193,125],[0,0,1,0],[0, 0, 0, 0],[9E+09,9E+09,9E+09,9E+09,9E+09,9E+09]];
    CONST robtarget point_77_contact:=[[496,175,125],[0,0,1,0],[0, 0, 0, 0],[9E+09,9E+09,9E+09,9E+09,9E+09,9E+09]];
    CONST robtarget point_77_clearance:=[[496,175,130],[0,0,1,0],[0, 0, 0, 0],[9E+09,9E+09,9E+09,9E+09,9E+09,9E+09]];
    CONST robtarget point_78_clearance:=[[245,178,130],[0,0,1,0],[0, 0, 0, 0],[9E+09,9E+09,9E+09,9E+09,9E+09,9E+09]];
    CONST robtarget point_78_contact:=[[245,178,125],[0,0,1,0],[0, 0, 0, 0],[9E+09,9E+09,9E+09,9E+09,9E+09,9E+09]];
    CONST robtarget point_79_contact:=[[215,182,125],[0,0,1,0],[0, 0, 0, 0],[9E+09,9E+09,9E+09,9E+09,9E+09,9E+09]];
    CONST robtarget point_79_clearance:=[[215,182,130],[0,0,1,0],[0, 0, 0, 0],[9E+09,9E+09,9E+09,9E+09,9E+09,9E+09]];
    CONST robtarget point_80_clearance:=[[281,183,130],[0,0,1,0],[0, 0, 0, 0],[9E+09,9E+09,9E+09,9E+09,9E+09,9E+09]];
    CONST robtarget point_80_contact:=[[281,183,125],[0,0,1,0],[0, 0, 0, 0],[9E+09,9E+09,9E+09,9E+09,9E+09,9E+09]];
    CONST robtarget point_81_contact:=[[246,178,125],[0,0,1,0],[0, 0, 0, 0],[9E+09,9E+09,9E+09,9E+09,9E+09,9E+09]];
    CONST robtarget point_81_clearance:=[[246,178,130],[0,0,1,0],[0, 0, 0, 0],[9E+09,9E+09,9E+09,9E+09,9E+09,9E+09]];
    CONST robtarget point_82_clearance:=[[217,182,130],[0,0,1,0],[0, 0, 0, 0],[9E+09,9E+09,9E+09,9E+09,9E+09,9E+09]];
    CONST robtarget point_82_contact:=[[217,182,125],[0,0,1,0],[0, 0, 0, 0],[9E+09,9E+09,9E+09,9E+09,9E+09,9E+09]];
    CONST robtarget point_83_contact:=[[202,186,125],[0,0,1,0],[0, 0, 0, 0],[9E+09,9E+09,9E+09,9E+09,9E+09,9E+09]];
    CONST robtarget point_83_clearance:=[[202,186,130],[0,0,1,0],[0, 0, 0, 0],[9E+09,9E+09,9E+09,9E+09,9E+09,9E+09]];
    CONST robtarget point_84_clearance:=[[284,185,130],[0,0,1,0],[0, 0, 0, 0],[9E+09,9E+09,9E+09,9E+09,9E+09,9E+09]];
    CONST robtarget point_84_contact:=[[284,185,125],[0,0,1,0],[0, 0, 0, 0],[9E+09,9E+09,9E+09,9E+09,9E+09,9E+09]];
    CONST robtarget point_85_contact:=[[287,183,125],[0,0,1,0],[0, 0, 0, 0],[9E+09,9E+09,9E+09,9E+09,9E+09,9E+09]];
    CONST robtarget point_85_clearance:=[[287,183,130],[0,0,1,0],[0, 0, 0, 0],[9E+09,9E+09,9E+09,9E+09,9E+09,9E+09]];
    CONST robtarget point_86_clearance:=[[354,201,130],[0,0,1,0],[0, 0, 0, 0],[9E+09,9E+09,9E+09,9E+09,9E+09,9E+09]];
    CONST robtarget point_86_contact:=[[354,201,125],[0,0,1,0],[0, 0, 0, 0],[9E+09,9E+09,9E+09,9E+09,9E+09,9E+09]];
    CONST robtarget point_87_contact:=[[287,185,125],[0,0,1,0],[0, 0, 0, 0],[9E+09,9E+09,9E+09,9E+09,9E+09,9E+09]];
    CONST robtarget point_87_clearance:=[[287,185,130],[0,0,1,0],[0, 0, 0, 0],[9E+09,9E+09,9E+09,9E+09,9E+09,9E+09]];
    CONST robtarget point_88_clearance:=[[205,187,130],[0,0,1,0],[0, 0, 0, 0],[9E+09,9E+09,9E+09,9E+09,9E+09,9E+09]];
    CONST robtarget point_88_contact:=[[205,187,125],[0,0,1,0],[0, 0, 0, 0],[9E+09,9E+09,9E+09,9E+09,9E+09,9E+09]];
    CONST robtarget point_89_contact:=[[247,192,125],[0,0,1,0],[0, 0, 0, 0],[9E+09,9E+09,9E+09,9E+09,9E+09,9E+09]];
    CONST robtarget point_89_clearance:=[[247,192,130],[0,0,1,0],[0, 0, 0, 0],[9E+09,9E+09,9E+09,9E+09,9E+09,9E+09]];
    CONST robtarget point_90_clearance:=[[511,191,130],[0,0,1,0],[0, 0, 0, 0],[9E+09,9E+09,9E+09,9E+09,9E+09,9E+09]];
    CONST robtarget point_90_contact:=[[511,191,125],[0,0,1,0],[0, 0, 0, 0],[9E+09,9E+09,9E+09,9E+09,9E+09,9E+09]];
    CONST robtarget point_91_contact:=[[547,201,125],[0,0,1,0],[0, 0, 0, 0],[9E+09,9E+09,9E+09,9E+09,9E+09,9E+09]];
    CONST robtarget point_91_clearance:=[[547,201,130],[0,0,1,0],[0, 0, 0, 0],[9E+09,9E+09,9E+09,9E+09,9E+09,9E+09]];
    CONST robtarget point_92_clearance:=[[512,202,130],[0,0,1,0],[0, 0, 0, 0],[9E+09,9E+09,9E+09,9E+09,9E+09,9E+09]];
    CONST robtarget point_92_contact:=[[512,202,125],[0,0,1,0],[0, 0, 0, 0],[9E+09,9E+09,9E+09,9E+09,9E+09,9E+09]];
    CONST robtarget point_93_contact:=[[451,193,125],[0,0,1,0],[0, 0, 0, 0],[9E+09,9E+09,9E+09,9E+09,9E+09,9E+09]];
    CONST robtarget point_93_clearance:=[[451,193,130],[0,0,1,0],[0, 0, 0, 0],[9E+09,9E+09,9E+09,9E+09,9E+09,9E+09]];
    CONST robtarget point_94_clearance:=[[230,192,130],[0,0,1,0],[0, 0, 0, 0],[9E+09,9E+09,9E+09,9E+09,9E+09,9E+09]];
    CONST robtarget point_94_contact:=[[230,192,125],[0,0,1,0],[0, 0, 0, 0],[9E+09,9E+09,9E+09,9E+09,9E+09,9E+09]];
    CONST robtarget point_95_contact:=[[231,192,125],[0,0,1,0],[0, 0, 0, 0],[9E+09,9E+09,9E+09,9E+09,9E+09,9E+09]];
    CONST robtarget point_95_clearance:=[[231,192,130],[0,0,1,0],[0, 0, 0, 0],[9E+09,9E+09,9E+09,9E+09,9E+09,9E+09]];
    CONST robtarget point_96_clearance:=[[232,192,130],[0,0,1,0],[0, 0, 0, 0],[9E+09,9E+09,9E+09,9E+09,9E+09,9E+09]];
    CONST robtarget point_96_contact:=[[232,192,125],[0,0,1,0],[0, 0, 0, 0],[9E+09,9E+09,9E+09,9E+09,9E+09,9E+09]];
    CONST robtarget point_97_contact:=[[237,193,125],[0,0,1,0],[0, 0, 0, 0],[9E+09,9E+09,9E+09,9E+09,9E+09,9E+09]];
    CONST robtarget point_97_clearance:=[[237,193,130],[0,0,1,0],[0, 0, 0, 0],[9E+09,9E+09,9E+09,9E+09,9E+09,9E+09]];
    CONST robtarget point_98_clearance:=[[239,190,130],[0,0,1,0],[0, 0, 0, 0],[9E+09,9E+09,9E+09,9E+09,9E+09,9E+09]];
    CONST robtarget point_98_contact:=[[239,190,125],[0,0,1,0],[0, 0, 0, 0],[9E+09,9E+09,9E+09,9E+09,9E+09,9E+09]];
    CONST robtarget point_99_contact:=[[315,215,125],[0,0,1,0],[0, 0, 0, 0],[9E+09,9E+09,9E+09,9E+09,9E+09,9E+09]];
    CONST robtarget point_99_clearance:=[[315,215,130],[0,0,1,0],[0, 0, 0, 0],[9E+09,9E+09,9E+09,9E+09,9E+09,9E+09]];
    CONST robtarget point_100_clearance:=[[562,200,130],[0,0,1,0],[0, 0, 0, 0],[9E+09,9E+09,9E+09,9E+09,9E+09,9E+09]];
    CONST robtarget point_100_contact:=[[562,200,125],[0,0,1,0],[0, 0, 0, 0],[9E+09,9E+09,9E+09,9E+09,9E+09,9E+09]];
    CONST robtarget point_101_contact:=[[558,194,125],[0,0,1,0],[0, 0, 0, 0],[9E+09,9E+09,9E+09,9E+09,9E+09,9E+09]];
    CONST robtarget point_101_clearance:=[[558,194,130],[0,0,1,0],[0, 0, 0, 0],[9E+09,9E+09,9E+09,9E+09,9E+09,9E+09]];
    CONST robtarget point_102_clearance:=[[392,197,130],[0,0,1,0],[0, 0, 0, 0],[9E+09,9E+09,9E+09,9E+09,9E+09,9E+09]];
    CONST robtarget point_102_contact:=[[392,197,125],[0,0,1,0],[0, 0, 0, 0],[9E+09,9E+09,9E+09,9E+09,9E+09,9E+09]];
    CONST robtarget point_103_contact:=[[427,204,125],[0,0,1,0],[0, 0, 0, 0],[9E+09,9E+09,9E+09,9E+09,9E+09,9E+09]];
    CONST robtarget point_103_clearance:=[[427,204,130],[0,0,1,0],[0, 0, 0, 0],[9E+09,9E+09,9E+09,9E+09,9E+09,9E+09]];
    CONST robtarget point_104_clearance:=[[427,207,130],[0,0,1,0],[0, 0, 0, 0],[9E+09,9E+09,9E+09,9E+09,9E+09,9E+09]];
    CONST robtarget point_104_contact:=[[427,207,125],[0,0,1,0],[0, 0, 0, 0],[9E+09,9E+09,9E+09,9E+09,9E+09,9E+09]];
    CONST robtarget point_105_contact:=[[354,202,125],[0,0,1,0],[0, 0, 0, 0],[9E+09,9E+09,9E+09,9E+09,9E+09,9E+09]];
    CONST robtarget point_105_clearance:=[[354,202,130],[0,0,1,0],[0, 0, 0, 0],[9E+09,9E+09,9E+09,9E+09,9E+09,9E+09]];
    CONST robtarget point_106_clearance:=[[546,202,130],[0,0,1,0],[0, 0, 0, 0],[9E+09,9E+09,9E+09,9E+09,9E+09,9E+09]];
    CONST robtarget point_106_contact:=[[546,202,125],[0,0,1,0],[0, 0, 0, 0],[9E+09,9E+09,9E+09,9E+09,9E+09,9E+09]];
    CONST robtarget point_107_contact:=[[511,201,125],[0,0,1,0],[0, 0, 0, 0],[9E+09,9E+09,9E+09,9E+09,9E+09,9E+09]];
    CONST robtarget point_107_clearance:=[[511,201,130],[0,0,1,0],[0, 0, 0, 0],[9E+09,9E+09,9E+09,9E+09,9E+09,9E+09]];
    CONST robtarget point_108_clearance:=[[444,203,130],[0,0,1,0],[0, 0, 0, 0],[9E+09,9E+09,9E+09,9E+09,9E+09,9E+09]];
    CONST robtarget point_108_contact:=[[444,203,125],[0,0,1,0],[0, 0, 0, 0],[9E+09,9E+09,9E+09,9E+09,9E+09,9E+09]];
    CONST robtarget point_109_contact:=[[522,215,125],[0,0,1,0],[0, 0, 0, 0],[9E+09,9E+09,9E+09,9E+09,9E+09,9E+09]];
    CONST robtarget point_109_clearance:=[[522,215,130],[0,0,1,0],[0, 0, 0, 0],[9E+09,9E+09,9E+09,9E+09,9E+09,9E+09]];
    CONST robtarget point_110_clearance:=[[560,207,130],[0,0,1,0],[0, 0, 0, 0],[9E+09,9E+09,9E+09,9E+09,9E+09,9E+09]];
    CONST robtarget point_110_contact:=[[560,207,125],[0,0,1,0],[0, 0, 0, 0],[9E+09,9E+09,9E+09,9E+09,9E+09,9E+09]];
    CONST robtarget point_111_contact:=[[562,200,125],[0,0,1,0],[0, 0, 0, 0],[9E+09,9E+09,9E+09,9E+09,9E+09,9E+09]];
    CONST robtarget point_111_clearance:=[[562,200,130],[0,0,1,0],[0, 0, 0, 0],[9E+09,9E+09,9E+09,9E+09,9E+09,9E+09]];
    CONST robtarget point_112_clearance:=[[444,210,130],[0,0,1,0],[0, 0, 0, 0],[9E+09,9E+09,9E+09,9E+09,9E+09,9E+09]];
    CONST robtarget point_112_contact:=[[444,210,125],[0,0,1,0],[0, 0, 0, 0],[9E+09,9E+09,9E+09,9E+09,9E+09,9E+09]];
    CONST robtarget point_113_contact:=[[443,202,125],[0,0,1,0],[0, 0, 0, 0],[9E+09,9E+09,9E+09,9E+09,9E+09,9E+09]];
    CONST robtarget point_113_clearance:=[[443,202,130],[0,0,1,0],[0, 0, 0, 0],[9E+09,9E+09,9E+09,9E+09,9E+09,9E+09]];
    CONST robtarget point_114_clearance:=[[328,208,130],[0,0,1,0],[0, 0, 0, 0],[9E+09,9E+09,9E+09,9E+09,9E+09,9E+09]];
    CONST robtarget point_114_contact:=[[328,208,125],[0,0,1,0],[0, 0, 0, 0],[9E+09,9E+09,9E+09,9E+09,9E+09,9E+09]];
    CONST robtarget point_115_contact:=[[391,217,125],[0,0,1,0],[0, 0, 0, 0],[9E+09,9E+09,9E+09,9E+09,9E+09,9E+09]];
    CONST robtarget point_115_clearance:=[[391,217,130],[0,0,1,0],[0, 0, 0, 0],[9E+09,9E+09,9E+09,9E+09,9E+09,9E+09]];
    CONST robtarget point_116_clearance:=[[550,212,130],[0,0,1,0],[0, 0, 0, 0],[9E+09,9E+09,9E+09,9E+09,9E+09,9E+09]];
    CONST robtarget point_116_contact:=[[550,212,125],[0,0,1,0],[0, 0, 0, 0],[9E+09,9E+09,9E+09,9E+09,9E+09,9E+09]];
    CONST robtarget point_117_contact:=[[560,207,125],[0,0,1,0],[0, 0, 0, 0],[9E+09,9E+09,9E+09,9E+09,9E+09,9E+09]];
    CONST robtarget point_117_clearance:=[[560,207,130],[0,0,1,0],[0, 0, 0, 0],[9E+09,9E+09,9E+09,9E+09,9E+09,9E+09]];
    CONST robtarget point_118_clearance:=[[331,216,130],[0,0,1,0],[0, 0, 0, 0],[9E+09,9E+09,9E+09,9E+09,9E+09,9E+09]];
    CONST robtarget point_118_contact:=[[331,216,125],[0,0,1,0],[0, 0, 0, 0],[9E+09,9E+09,9E+09,9E+09,9E+09,9E+09]];
    CONST robtarget point_119_contact:=[[328,208,125],[0,0,1,0],[0, 0, 0, 0],[9E+09,9E+09,9E+09,9E+09,9E+09,9E+09]];
    CONST robtarget point_119_clearance:=[[328,208,130],[0,0,1,0],[0, 0, 0, 0],[9E+09,9E+09,9E+09,9E+09,9E+09,9E+09]];
    CONST robtarget point_120_clearance:=[[414,218,130],[0,0,1,0],[0, 0, 0, 0],[9E+09,9E+09,9E+09,9E+09,9E+09,9E+09]];
    CONST robtarget point_120_contact:=[[414,218,125],[0,0,1,0],[0, 0, 0, 0],[9E+09,9E+09,9E+09,9E+09,9E+09,9E+09]];
    CONST robtarget point_121_contact:=[[445,212,125],[0,0,1,0],[0, 0, 0, 0],[9E+09,9E+09,9E+09,9E+09,9E+09,9E+09]];
    CONST robtarget point_121_clearance:=[[445,212,130],[0,0,1,0],[0, 0, 0, 0],[9E+09,9E+09,9E+09,9E+09,9E+09,9E+09]];
    CONST robtarget point_122_clearance:=[[523,213,130],[0,0,1,0],[0, 0, 0, 0],[9E+09,9E+09,9E+09,9E+09,9E+09,9E+09]];
    CONST robtarget point_122_contact:=[[523,213,125],[0,0,1,0],[0, 0, 0, 0],[9E+09,9E+09,9E+09,9E+09,9E+09,9E+09]];
    CONST robtarget point_123_contact:=[[551,212,125],[0,0,1,0],[0, 0, 0, 0],[9E+09,9E+09,9E+09,9E+09,9E+09,9E+09]];
    CONST robtarget point_123_clearance:=[[551,212,130],[0,0,1,0],[0, 0, 0, 0],[9E+09,9E+09,9E+09,9E+09,9E+09,9E+09]];
    CONST robtarget point_124_clearance:=[[157,215,130],[0,0,1,0],[0, 0, 0, 0],[9E+09,9E+09,9E+09,9E+09,9E+09,9E+09]];
    CONST robtarget point_124_contact:=[[157,215,125],[0,0,1,0],[0, 0, 0, 0],[9E+09,9E+09,9E+09,9E+09,9E+09,9E+09]];
    CONST robtarget point_125_contact:=[[120,214,125],[0,0,1,0],[0, 0, 0, 0],[9E+09,9E+09,9E+09,9E+09,9E+09,9E+09]];
    CONST robtarget point_125_clearance:=[[120,214,130],[0,0,1,0],[0, 0, 0, 0],[9E+09,9E+09,9E+09,9E+09,9E+09,9E+09]];
    CONST robtarget point_126_clearance:=[[82,229,130],[0,0,1,0],[0, 0, 0, 0],[9E+09,9E+09,9E+09,9E+09,9E+09,9E+09]];
    CONST robtarget point_126_contact:=[[82,229,125],[0,0,1,0],[0, 0, 0, 0],[9E+09,9E+09,9E+09,9E+09,9E+09,9E+09]];
    CONST robtarget point_127_contact:=[[56,214,125],[0,0,1,0],[0, 0, 0, 0],[9E+09,9E+09,9E+09,9E+09,9E+09,9E+09]];
    CONST robtarget point_127_clearance:=[[56,214,130],[0,0,1,0],[0, 0, 0, 0],[9E+09,9E+09,9E+09,9E+09,9E+09,9E+09]];
    CONST robtarget point_128_clearance:=[[169,225,130],[0,0,1,0],[0, 0, 0, 0],[9E+09,9E+09,9E+09,9E+09,9E+09,9E+09]];
    CONST robtarget point_128_contact:=[[169,225,125],[0,0,1,0],[0, 0, 0, 0],[9E+09,9E+09,9E+09,9E+09,9E+09,9E+09]];
    CONST robtarget point_129_contact:=[[153,214,125],[0,0,1,0],[0, 0, 0, 0],[9E+09,9E+09,9E+09,9E+09,9E+09,9E+09]];
    CONST robtarget point_129_clearance:=[[153,214,130],[0,0,1,0],[0, 0, 0, 0],[9E+09,9E+09,9E+09,9E+09,9E+09,9E+09]];
    CONST robtarget point_130_clearance:=[[391,216,130],[0,0,1,0],[0, 0, 0, 0],[9E+09,9E+09,9E+09,9E+09,9E+09,9E+09]];
    CONST robtarget point_130_contact:=[[391,216,125],[0,0,1,0],[0, 0, 0, 0],[9E+09,9E+09,9E+09,9E+09,9E+09,9E+09]];
    CONST robtarget point_131_contact:=[[413,217,125],[0,0,1,0],[0, 0, 0, 0],[9E+09,9E+09,9E+09,9E+09,9E+09,9E+09]];
    CONST robtarget point_131_clearance:=[[413,217,130],[0,0,1,0],[0, 0, 0, 0],[9E+09,9E+09,9E+09,9E+09,9E+09,9E+09]];
    CONST robtarget point_132_clearance:=[[105,222,130],[0,0,1,0],[0, 0, 0, 0],[9E+09,9E+09,9E+09,9E+09,9E+09,9E+09]];
    CONST robtarget point_132_contact:=[[105,222,125],[0,0,1,0],[0, 0, 0, 0],[9E+09,9E+09,9E+09,9E+09,9E+09,9E+09]];
    CONST robtarget point_133_contact:=[[95,217,125],[0,0,1,0],[0, 0, 0, 0],[9E+09,9E+09,9E+09,9E+09,9E+09,9E+09]];
    CONST robtarget point_133_clearance:=[[95,217,130],[0,0,1,0],[0, 0, 0, 0],[9E+09,9E+09,9E+09,9E+09,9E+09,9E+09]];
    CONST robtarget point_134_clearance:=[[314,215,130],[0,0,1,0],[0, 0, 0, 0],[9E+09,9E+09,9E+09,9E+09,9E+09,9E+09]];
    CONST robtarget point_134_contact:=[[314,215,125],[0,0,1,0],[0, 0, 0, 0],[9E+09,9E+09,9E+09,9E+09,9E+09,9E+09]];
    CONST robtarget point_135_contact:=[[250,229,125],[0,0,1,0],[0, 0, 0, 0],[9E+09,9E+09,9E+09,9E+09,9E+09,9E+09]];
    CONST robtarget point_135_clearance:=[[250,229,130],[0,0,1,0],[0, 0, 0, 0],[9E+09,9E+09,9E+09,9E+09,9E+09,9E+09]];
    CONST robtarget point_136_clearance:=[[328,223,130],[0,0,1,0],[0, 0, 0, 0],[9E+09,9E+09,9E+09,9E+09,9E+09,9E+09]];
    CONST robtarget point_136_contact:=[[328,223,125],[0,0,1,0],[0, 0, 0, 0],[9E+09,9E+09,9E+09,9E+09,9E+09,9E+09]];
    CONST robtarget point_137_contact:=[[331,217,125],[0,0,1,0],[0, 0, 0, 0],[9E+09,9E+09,9E+09,9E+09,9E+09,9E+09]];
    CONST robtarget point_137_clearance:=[[331,217,130],[0,0,1,0],[0, 0, 0, 0],[9E+09,9E+09,9E+09,9E+09,9E+09,9E+09]];
    CONST robtarget point_138_clearance:=[[94,218,130],[0,0,1,0],[0, 0, 0, 0],[9E+09,9E+09,9E+09,9E+09,9E+09,9E+09]];
    CONST robtarget point_138_contact:=[[94,218,125],[0,0,1,0],[0, 0, 0, 0],[9E+09,9E+09,9E+09,9E+09,9E+09,9E+09]];
    CONST robtarget point_139_contact:=[[83,259,125],[0,0,1,0],[0, 0, 0, 0],[9E+09,9E+09,9E+09,9E+09,9E+09,9E+09]];
    CONST robtarget point_139_clearance:=[[83,259,130],[0,0,1,0],[0, 0, 0, 0],[9E+09,9E+09,9E+09,9E+09,9E+09,9E+09]];
    CONST robtarget point_140_clearance:=[[120,218,130],[0,0,1,0],[0, 0, 0, 0],[9E+09,9E+09,9E+09,9E+09,9E+09,9E+09]];
    CONST robtarget point_140_contact:=[[120,218,125],[0,0,1,0],[0, 0, 0, 0],[9E+09,9E+09,9E+09,9E+09,9E+09,9E+09]];
    CONST robtarget point_141_contact:=[[138,224,125],[0,0,1,0],[0, 0, 0, 0],[9E+09,9E+09,9E+09,9E+09,9E+09,9E+09]];
    CONST robtarget point_141_clearance:=[[138,224,130],[0,0,1,0],[0, 0, 0, 0],[9E+09,9E+09,9E+09,9E+09,9E+09,9E+09]];
    CONST robtarget point_142_clearance:=[[46,221,130],[0,0,1,0],[0, 0, 0, 0],[9E+09,9E+09,9E+09,9E+09,9E+09,9E+09]];
    CONST robtarget point_142_contact:=[[46,221,125],[0,0,1,0],[0, 0, 0, 0],[9E+09,9E+09,9E+09,9E+09,9E+09,9E+09]];
    CONST robtarget point_143_contact:=[[69,235,125],[0,0,1,0],[0, 0, 0, 0],[9E+09,9E+09,9E+09,9E+09,9E+09,9E+09]];
    CONST robtarget point_143_clearance:=[[69,235,130],[0,0,1,0],[0, 0, 0, 0],[9E+09,9E+09,9E+09,9E+09,9E+09,9E+09]];
    CONST robtarget point_144_clearance:=[[109,234,130],[0,0,1,0],[0, 0, 0, 0],[9E+09,9E+09,9E+09,9E+09,9E+09,9E+09]];
    CONST robtarget point_144_contact:=[[109,234,125],[0,0,1,0],[0, 0, 0, 0],[9E+09,9E+09,9E+09,9E+09,9E+09,9E+09]];
    CONST robtarget point_145_contact:=[[105,221,125],[0,0,1,0],[0, 0, 0, 0],[9E+09,9E+09,9E+09,9E+09,9E+09,9E+09]];
    CONST robtarget point_145_clearance:=[[105,221,130],[0,0,1,0],[0, 0, 0, 0],[9E+09,9E+09,9E+09,9E+09,9E+09,9E+09]];
    CONST robtarget point_146_clearance:=[[259,238,130],[0,0,1,0],[0, 0, 0, 0],[9E+09,9E+09,9E+09,9E+09,9E+09,9E+09]];
    CONST robtarget point_146_contact:=[[259,238,125],[0,0,1,0],[0, 0, 0, 0],[9E+09,9E+09,9E+09,9E+09,9E+09,9E+09]];
    CONST robtarget point_147_contact:=[[327,223,125],[0,0,1,0],[0, 0, 0, 0],[9E+09,9E+09,9E+09,9E+09,9E+09,9E+09]];
    CONST robtarget point_147_clearance:=[[327,223,130],[0,0,1,0],[0, 0, 0, 0],[9E+09,9E+09,9E+09,9E+09,9E+09,9E+09]];
    CONST robtarget point_148_clearance:=[[138,225,130],[0,0,1,0],[0, 0, 0, 0],[9E+09,9E+09,9E+09,9E+09,9E+09,9E+09]];
    CONST robtarget point_148_contact:=[[138,225,125],[0,0,1,0],[0, 0, 0, 0],[9E+09,9E+09,9E+09,9E+09,9E+09,9E+09]];
    CONST robtarget point_149_contact:=[[144,235,125],[0,0,1,0],[0, 0, 0, 0],[9E+09,9E+09,9E+09,9E+09,9E+09,9E+09]];
    CONST robtarget point_149_clearance:=[[144,235,130],[0,0,1,0],[0, 0, 0, 0],[9E+09,9E+09,9E+09,9E+09,9E+09,9E+09]];
    CONST robtarget point_150_clearance:=[[250,230,130],[0,0,1,0],[0, 0, 0, 0],[9E+09,9E+09,9E+09,9E+09,9E+09,9E+09]];
    CONST robtarget point_150_contact:=[[250,230,125],[0,0,1,0],[0, 0, 0, 0],[9E+09,9E+09,9E+09,9E+09,9E+09,9E+09]];
    CONST robtarget point_151_contact:=[[203,249,125],[0,0,1,0],[0, 0, 0, 0],[9E+09,9E+09,9E+09,9E+09,9E+09,9E+09]];
    CONST robtarget point_151_clearance:=[[203,249,130],[0,0,1,0],[0, 0, 0, 0],[9E+09,9E+09,9E+09,9E+09,9E+09,9E+09]];
    CONST robtarget point_152_clearance:=[[73,264,130],[0,0,1,0],[0, 0, 0, 0],[9E+09,9E+09,9E+09,9E+09,9E+09,9E+09]];
    CONST robtarget point_152_contact:=[[73,264,125],[0,0,1,0],[0, 0, 0, 0],[9E+09,9E+09,9E+09,9E+09,9E+09,9E+09]];
    CONST robtarget point_153_contact:=[[82,231,125],[0,0,1,0],[0, 0, 0, 0],[9E+09,9E+09,9E+09,9E+09,9E+09,9E+09]];
    CONST robtarget point_153_clearance:=[[82,231,130],[0,0,1,0],[0, 0, 0, 0],[9E+09,9E+09,9E+09,9E+09,9E+09,9E+09]];
    CONST robtarget point_154_clearance:=[[136,252,130],[0,0,1,0],[0, 0, 0, 0],[9E+09,9E+09,9E+09,9E+09,9E+09,9E+09]];
    CONST robtarget point_154_contact:=[[136,252,125],[0,0,1,0],[0, 0, 0, 0],[9E+09,9E+09,9E+09,9E+09,9E+09,9E+09]];
    CONST robtarget point_155_contact:=[[170,231,125],[0,0,1,0],[0, 0, 0, 0],[9E+09,9E+09,9E+09,9E+09,9E+09,9E+09]];
    CONST robtarget point_155_clearance:=[[170,231,130],[0,0,1,0],[0, 0, 0, 0],[9E+09,9E+09,9E+09,9E+09,9E+09,9E+09]];
    CONST robtarget point_156_clearance:=[[142,236,130],[0,0,1,0],[0, 0, 0, 0],[9E+09,9E+09,9E+09,9E+09,9E+09,9E+09]];
    CONST robtarget point_156_contact:=[[142,236,125],[0,0,1,0],[0, 0, 0, 0],[9E+09,9E+09,9E+09,9E+09,9E+09,9E+09]];
    CONST robtarget point_157_contact:=[[110,234,125],[0,0,1,0],[0, 0, 0, 0],[9E+09,9E+09,9E+09,9E+09,9E+09,9E+09]];
    CONST robtarget point_157_clearance:=[[110,234,130],[0,0,1,0],[0, 0, 0, 0],[9E+09,9E+09,9E+09,9E+09,9E+09,9E+09]];
    CONST robtarget point_158_clearance:=[[69,236,130],[0,0,1,0],[0, 0, 0, 0],[9E+09,9E+09,9E+09,9E+09,9E+09,9E+09]];
    CONST robtarget point_158_contact:=[[69,236,125],[0,0,1,0],[0, 0, 0, 0],[9E+09,9E+09,9E+09,9E+09,9E+09,9E+09]];
    CONST robtarget point_159_contact:=[[60,269,125],[0,0,1,0],[0, 0, 0, 0],[9E+09,9E+09,9E+09,9E+09,9E+09,9E+09]];
    CONST robtarget point_159_clearance:=[[60,269,130],[0,0,1,0],[0, 0, 0, 0],[9E+09,9E+09,9E+09,9E+09,9E+09,9E+09]];
    CONST robtarget point_160_clearance:=[[202,262,130],[0,0,1,0],[0, 0, 0, 0],[9E+09,9E+09,9E+09,9E+09,9E+09,9E+09]];
    CONST robtarget point_160_contact:=[[202,262,125],[0,0,1,0],[0, 0, 0, 0],[9E+09,9E+09,9E+09,9E+09,9E+09,9E+09]];
    CONST robtarget point_161_contact:=[[259,238,125],[0,0,1,0],[0, 0, 0, 0],[9E+09,9E+09,9E+09,9E+09,9E+09,9E+09]];
    CONST robtarget point_161_clearance:=[[259,238,130],[0,0,1,0],[0, 0, 0, 0],[9E+09,9E+09,9E+09,9E+09,9E+09,9E+09]];
    CONST robtarget point_162_clearance:=[[166,247,130],[0,0,1,0],[0, 0, 0, 0],[9E+09,9E+09,9E+09,9E+09,9E+09,9E+09]];
    CONST robtarget point_162_contact:=[[166,247,125],[0,0,1,0],[0, 0, 0, 0],[9E+09,9E+09,9E+09,9E+09,9E+09,9E+09]];
    CONST robtarget point_163_contact:=[[143,257,125],[0,0,1,0],[0, 0, 0, 0],[9E+09,9E+09,9E+09,9E+09,9E+09,9E+09]];
    CONST robtarget point_163_clearance:=[[143,257,130],[0,0,1,0],[0, 0, 0, 0],[9E+09,9E+09,9E+09,9E+09,9E+09,9E+09]];
    CONST robtarget point_164_clearance:=[[177,253,130],[0,0,1,0],[0, 0, 0, 0],[9E+09,9E+09,9E+09,9E+09,9E+09,9E+09]];
    CONST robtarget point_164_contact:=[[177,253,125],[0,0,1,0],[0, 0, 0, 0],[9E+09,9E+09,9E+09,9E+09,9E+09,9E+09]];
    CONST robtarget point_165_contact:=[[167,248,125],[0,0,1,0],[0, 0, 0, 0],[9E+09,9E+09,9E+09,9E+09,9E+09,9E+09]];
    CONST robtarget point_165_clearance:=[[167,248,130],[0,0,1,0],[0, 0, 0, 0],[9E+09,9E+09,9E+09,9E+09,9E+09,9E+09]];
    CONST robtarget point_166_clearance:=[[203,249,130],[0,0,1,0],[0, 0, 0, 0],[9E+09,9E+09,9E+09,9E+09,9E+09,9E+09]];
    CONST robtarget point_166_contact:=[[203,249,125],[0,0,1,0],[0, 0, 0, 0],[9E+09,9E+09,9E+09,9E+09,9E+09,9E+09]];
    CONST robtarget point_167_contact:=[[157,279,125],[0,0,1,0],[0, 0, 0, 0],[9E+09,9E+09,9E+09,9E+09,9E+09,9E+09]];
    CONST robtarget point_167_clearance:=[[157,279,130],[0,0,1,0],[0, 0, 0, 0],[9E+09,9E+09,9E+09,9E+09,9E+09,9E+09]];
    CONST robtarget point_168_clearance:=[[131,271,130],[0,0,1,0],[0, 0, 0, 0],[9E+09,9E+09,9E+09,9E+09,9E+09,9E+09]];
    CONST robtarget point_168_contact:=[[131,271,125],[0,0,1,0],[0, 0, 0, 0],[9E+09,9E+09,9E+09,9E+09,9E+09,9E+09]];
    CONST robtarget point_169_contact:=[[137,252,125],[0,0,1,0],[0, 0, 0, 0],[9E+09,9E+09,9E+09,9E+09,9E+09,9E+09]];
    CONST robtarget point_169_clearance:=[[137,252,130],[0,0,1,0],[0, 0, 0, 0],[9E+09,9E+09,9E+09,9E+09,9E+09,9E+09]];
    CONST robtarget point_170_clearance:=[[135,283,130],[0,0,1,0],[0, 0, 0, 0],[9E+09,9E+09,9E+09,9E+09,9E+09,9E+09]];
    CONST robtarget point_170_contact:=[[135,283,125],[0,0,1,0],[0, 0, 0, 0],[9E+09,9E+09,9E+09,9E+09,9E+09,9E+09]];
    CONST robtarget point_171_contact:=[[175,256,125],[0,0,1,0],[0, 0, 0, 0],[9E+09,9E+09,9E+09,9E+09,9E+09,9E+09]];
    CONST robtarget point_171_clearance:=[[175,256,130],[0,0,1,0],[0, 0, 0, 0],[9E+09,9E+09,9E+09,9E+09,9E+09,9E+09]];
    CONST robtarget point_172_clearance:=[[144,258,130],[0,0,1,0],[0, 0, 0, 0],[9E+09,9E+09,9E+09,9E+09,9E+09,9E+09]];
    CONST robtarget point_172_contact:=[[144,258,125],[0,0,1,0],[0, 0, 0, 0],[9E+09,9E+09,9E+09,9E+09,9E+09,9E+09]];
    CONST robtarget point_173_contact:=[[131,274,125],[0,0,1,0],[0, 0, 0, 0],[9E+09,9E+09,9E+09,9E+09,9E+09,9E+09]];
    CONST robtarget point_173_clearance:=[[131,274,130],[0,0,1,0],[0, 0, 0, 0],[9E+09,9E+09,9E+09,9E+09,9E+09,9E+09]];
    CONST robtarget point_174_clearance:=[[83,260,130],[0,0,1,0],[0, 0, 0, 0],[9E+09,9E+09,9E+09,9E+09,9E+09,9E+09]];
    CONST robtarget point_174_contact:=[[83,260,125],[0,0,1,0],[0, 0, 0, 0],[9E+09,9E+09,9E+09,9E+09,9E+09,9E+09]];
    CONST robtarget point_175_contact:=[[102,261,125],[0,0,1,0],[0, 0, 0, 0],[9E+09,9E+09,9E+09,9E+09,9E+09,9E+09]];
    CONST robtarget point_175_clearance:=[[102,261,130],[0,0,1,0],[0, 0, 0, 0],[9E+09,9E+09,9E+09,9E+09,9E+09,9E+09]];
    CONST robtarget point_176_clearance:=[[144,304,130],[0,0,1,0],[0, 0, 0, 0],[9E+09,9E+09,9E+09,9E+09,9E+09,9E+09]];
    CONST robtarget point_176_contact:=[[144,304,125],[0,0,1,0],[0, 0, 0, 0],[9E+09,9E+09,9E+09,9E+09,9E+09,9E+09]];
    CONST robtarget point_177_contact:=[[201,262,125],[0,0,1,0],[0, 0, 0, 0],[9E+09,9E+09,9E+09,9E+09,9E+09,9E+09]];
    CONST robtarget point_177_clearance:=[[201,262,130],[0,0,1,0],[0, 0, 0, 0],[9E+09,9E+09,9E+09,9E+09,9E+09,9E+09]];
    CONST robtarget point_178_clearance:=[[87,274,130],[0,0,1,0],[0, 0, 0, 0],[9E+09,9E+09,9E+09,9E+09,9E+09,9E+09]];
    CONST robtarget point_178_contact:=[[87,274,125],[0,0,1,0],[0, 0, 0, 0],[9E+09,9E+09,9E+09,9E+09,9E+09,9E+09]];
    CONST robtarget point_179_contact:=[[72,264,125],[0,0,1,0],[0, 0, 0, 0],[9E+09,9E+09,9E+09,9E+09,9E+09,9E+09]];
    CONST robtarget point_179_clearance:=[[72,264,130],[0,0,1,0],[0, 0, 0, 0],[9E+09,9E+09,9E+09,9E+09,9E+09,9E+09]];
    CONST robtarget point_180_clearance:=[[106,266,130],[0,0,1,0],[0, 0, 0, 0],[9E+09,9E+09,9E+09,9E+09,9E+09,9E+09]];
    CONST robtarget point_180_contact:=[[106,266,125],[0,0,1,0],[0, 0, 0, 0],[9E+09,9E+09,9E+09,9E+09,9E+09,9E+09]];
    CONST robtarget point_181_contact:=[[95,269,125],[0,0,1,0],[0, 0, 0, 0],[9E+09,9E+09,9E+09,9E+09,9E+09,9E+09]];
    CONST robtarget point_181_clearance:=[[95,269,130],[0,0,1,0],[0, 0, 0, 0],[9E+09,9E+09,9E+09,9E+09,9E+09,9E+09]];
    CONST robtarget point_182_clearance:=[[94,268,130],[0,0,1,0],[0, 0, 0, 0],[9E+09,9E+09,9E+09,9E+09,9E+09,9E+09]];
    CONST robtarget point_182_contact:=[[94,268,125],[0,0,1,0],[0, 0, 0, 0],[9E+09,9E+09,9E+09,9E+09,9E+09,9E+09]];
    CONST robtarget point_183_contact:=[[94,273,125],[0,0,1,0],[0, 0, 0, 0],[9E+09,9E+09,9E+09,9E+09,9E+09,9E+09]];
    CONST robtarget point_183_clearance:=[[94,273,130],[0,0,1,0],[0, 0, 0, 0],[9E+09,9E+09,9E+09,9E+09,9E+09,9E+09]];
    CONST robtarget point_184_clearance:=[[61,271,130],[0,0,1,0],[0, 0, 0, 0],[9E+09,9E+09,9E+09,9E+09,9E+09,9E+09]];
    CONST robtarget point_184_contact:=[[61,271,125],[0,0,1,0],[0, 0, 0, 0],[9E+09,9E+09,9E+09,9E+09,9E+09,9E+09]];
    CONST robtarget point_185_contact:=[[75,279,125],[0,0,1,0],[0, 0, 0, 0],[9E+09,9E+09,9E+09,9E+09,9E+09,9E+09]];
    CONST robtarget point_185_clearance:=[[75,279,130],[0,0,1,0],[0, 0, 0, 0],[9E+09,9E+09,9E+09,9E+09,9E+09,9E+09]];
    CONST robtarget point_186_clearance:=[[89,293,130],[0,0,1,0],[0, 0, 0, 0],[9E+09,9E+09,9E+09,9E+09,9E+09,9E+09]];
    CONST robtarget point_186_contact:=[[89,293,125],[0,0,1,0],[0, 0, 0, 0],[9E+09,9E+09,9E+09,9E+09,9E+09,9E+09]];
    CONST robtarget point_187_contact:=[[86,274,125],[0,0,1,0],[0, 0, 0, 0],[9E+09,9E+09,9E+09,9E+09,9E+09,9E+09]];
    CONST robtarget point_187_clearance:=[[86,274,130],[0,0,1,0],[0, 0, 0, 0],[9E+09,9E+09,9E+09,9E+09,9E+09,9E+09]];
    CONST robtarget point_188_clearance:=[[95,275,130],[0,0,1,0],[0, 0, 0, 0],[9E+09,9E+09,9E+09,9E+09,9E+09,9E+09]];
    CONST robtarget point_188_contact:=[[95,275,125],[0,0,1,0],[0, 0, 0, 0],[9E+09,9E+09,9E+09,9E+09,9E+09,9E+09]];
    CONST robtarget point_189_contact:=[[103,276,125],[0,0,1,0],[0, 0, 0, 0],[9E+09,9E+09,9E+09,9E+09,9E+09,9E+09]];
    CONST robtarget point_189_clearance:=[[103,276,130],[0,0,1,0],[0, 0, 0, 0],[9E+09,9E+09,9E+09,9E+09,9E+09,9E+09]];
    CONST robtarget point_190_clearance:=[[104,276,130],[0,0,1,0],[0, 0, 0, 0],[9E+09,9E+09,9E+09,9E+09,9E+09,9E+09]];
    CONST robtarget point_190_contact:=[[104,276,125],[0,0,1,0],[0, 0, 0, 0],[9E+09,9E+09,9E+09,9E+09,9E+09,9E+09]];
    CONST robtarget point_191_contact:=[[116,286,125],[0,0,1,0],[0, 0, 0, 0],[9E+09,9E+09,9E+09,9E+09,9E+09,9E+09]];
    CONST robtarget point_191_clearance:=[[116,286,130],[0,0,1,0],[0, 0, 0, 0],[9E+09,9E+09,9E+09,9E+09,9E+09,9E+09]];
    CONST robtarget point_192_clearance:=[[156,279,130],[0,0,1,0],[0, 0, 0, 0],[9E+09,9E+09,9E+09,9E+09,9E+09,9E+09]];
    CONST robtarget point_192_contact:=[[156,279,125],[0,0,1,0],[0, 0, 0, 0],[9E+09,9E+09,9E+09,9E+09,9E+09,9E+09]];
    CONST robtarget point_193_contact:=[[103,329,125],[0,0,1,0],[0, 0, 0, 0],[9E+09,9E+09,9E+09,9E+09,9E+09,9E+09]];
    CONST robtarget point_193_clearance:=[[103,329,130],[0,0,1,0],[0, 0, 0, 0],[9E+09,9E+09,9E+09,9E+09,9E+09,9E+09]];
    CONST robtarget point_194_clearance:=[[75,280,130],[0,0,1,0],[0, 0, 0, 0],[9E+09,9E+09,9E+09,9E+09,9E+09,9E+09]];
    CONST robtarget point_194_contact:=[[75,280,125],[0,0,1,0],[0, 0, 0, 0],[9E+09,9E+09,9E+09,9E+09,9E+09,9E+09]];
    CONST robtarget point_195_contact:=[[78,290,125],[0,0,1,0],[0, 0, 0, 0],[9E+09,9E+09,9E+09,9E+09,9E+09,9E+09]];
    CONST robtarget point_195_clearance:=[[78,290,130],[0,0,1,0],[0, 0, 0, 0],[9E+09,9E+09,9E+09,9E+09,9E+09,9E+09]];
    CONST robtarget point_196_clearance:=[[115,286,130],[0,0,1,0],[0, 0, 0, 0],[9E+09,9E+09,9E+09,9E+09,9E+09,9E+09]];
    CONST robtarget point_196_contact:=[[115,286,125],[0,0,1,0],[0, 0, 0, 0],[9E+09,9E+09,9E+09,9E+09,9E+09,9E+09]];
    CONST robtarget point_197_contact:=[[93,281,125],[0,0,1,0],[0, 0, 0, 0],[9E+09,9E+09,9E+09,9E+09,9E+09,9E+09]];
    CONST robtarget point_197_clearance:=[[93,281,130],[0,0,1,0],[0, 0, 0, 0],[9E+09,9E+09,9E+09,9E+09,9E+09,9E+09]];
    CONST robtarget point_198_clearance:=[[92,283,130],[0,0,1,0],[0, 0, 0, 0],[9E+09,9E+09,9E+09,9E+09,9E+09,9E+09]];
    CONST robtarget point_198_contact:=[[92,283,125],[0,0,1,0],[0, 0, 0, 0],[9E+09,9E+09,9E+09,9E+09,9E+09,9E+09]];
    CONST robtarget point_199_contact:=[[95,290,125],[0,0,1,0],[0, 0, 0, 0],[9E+09,9E+09,9E+09,9E+09,9E+09,9E+09]];
    CONST robtarget point_199_clearance:=[[95,290,130],[0,0,1,0],[0, 0, 0, 0],[9E+09,9E+09,9E+09,9E+09,9E+09,9E+09]];
    CONST robtarget point_200_clearance:=[[102,317,130],[0,0,1,0],[0, 0, 0, 0],[9E+09,9E+09,9E+09,9E+09,9E+09,9E+09]];
    CONST robtarget point_200_contact:=[[102,317,125],[0,0,1,0],[0, 0, 0, 0],[9E+09,9E+09,9E+09,9E+09,9E+09,9E+09]];
    CONST robtarget point_201_contact:=[[135,284,125],[0,0,1,0],[0, 0, 0, 0],[9E+09,9E+09,9E+09,9E+09,9E+09,9E+09]];
    CONST robtarget point_201_clearance:=[[135,284,130],[0,0,1,0],[0, 0, 0, 0],[9E+09,9E+09,9E+09,9E+09,9E+09,9E+09]];
    CONST robtarget point_202_clearance:=[[96,290,130],[0,0,1,0],[0, 0, 0, 0],[9E+09,9E+09,9E+09,9E+09,9E+09,9E+09]];
    CONST robtarget point_202_contact:=[[96,290,125],[0,0,1,0],[0, 0, 0, 0],[9E+09,9E+09,9E+09,9E+09,9E+09,9E+09]];
    CONST robtarget point_203_contact:=[[103,290,125],[0,0,1,0],[0, 0, 0, 0],[9E+09,9E+09,9E+09,9E+09,9E+09,9E+09]];
    CONST robtarget point_203_clearance:=[[103,290,130],[0,0,1,0],[0, 0, 0, 0],[9E+09,9E+09,9E+09,9E+09,9E+09,9E+09]];
    CONST robtarget point_204_clearance:=[[78,290,130],[0,0,1,0],[0, 0, 0, 0],[9E+09,9E+09,9E+09,9E+09,9E+09,9E+09]];
    CONST robtarget point_204_contact:=[[78,290,125],[0,0,1,0],[0, 0, 0, 0],[9E+09,9E+09,9E+09,9E+09,9E+09,9E+09]];
    CONST robtarget point_205_contact:=[[73,301,125],[0,0,1,0],[0, 0, 0, 0],[9E+09,9E+09,9E+09,9E+09,9E+09,9E+09]];
    CONST robtarget point_205_clearance:=[[73,301,130],[0,0,1,0],[0, 0, 0, 0],[9E+09,9E+09,9E+09,9E+09,9E+09,9E+09]];
    CONST robtarget point_206_clearance:=[[104,291,130],[0,0,1,0],[0, 0, 0, 0],[9E+09,9E+09,9E+09,9E+09,9E+09,9E+09]];
    CONST robtarget point_206_contact:=[[104,291,125],[0,0,1,0],[0, 0, 0, 0],[9E+09,9E+09,9E+09,9E+09,9E+09,9E+09]];
    CONST robtarget point_207_contact:=[[93,302,125],[0,0,1,0],[0, 0, 0, 0],[9E+09,9E+09,9E+09,9E+09,9E+09,9E+09]];
    CONST robtarget point_207_clearance:=[[93,302,130],[0,0,1,0],[0, 0, 0, 0],[9E+09,9E+09,9E+09,9E+09,9E+09,9E+09]];
    CONST robtarget point_208_clearance:=[[86,307,130],[0,0,1,0],[0, 0, 0, 0],[9E+09,9E+09,9E+09,9E+09,9E+09,9E+09]];
    CONST robtarget point_208_contact:=[[86,307,125],[0,0,1,0],[0, 0, 0, 0],[9E+09,9E+09,9E+09,9E+09,9E+09,9E+09]];
    CONST robtarget point_209_contact:=[[89,293,125],[0,0,1,0],[0, 0, 0, 0],[9E+09,9E+09,9E+09,9E+09,9E+09,9E+09]];
    CONST robtarget point_209_clearance:=[[89,293,130],[0,0,1,0],[0, 0, 0, 0],[9E+09,9E+09,9E+09,9E+09,9E+09,9E+09]];
    CONST robtarget point_210_clearance:=[[74,301,130],[0,0,1,0],[0, 0, 0, 0],[9E+09,9E+09,9E+09,9E+09,9E+09,9E+09]];
    CONST robtarget point_210_contact:=[[74,301,125],[0,0,1,0],[0, 0, 0, 0],[9E+09,9E+09,9E+09,9E+09,9E+09,9E+09]];
    CONST robtarget point_211_contact:=[[75,308,125],[0,0,1,0],[0, 0, 0, 0],[9E+09,9E+09,9E+09,9E+09,9E+09,9E+09]];
    CONST robtarget point_211_clearance:=[[75,308,130],[0,0,1,0],[0, 0, 0, 0],[9E+09,9E+09,9E+09,9E+09,9E+09,9E+09]];
    CONST robtarget point_212_clearance:=[[93,302,130],[0,0,1,0],[0, 0, 0, 0],[9E+09,9E+09,9E+09,9E+09,9E+09,9E+09]];
    CONST robtarget point_212_contact:=[[93,302,125],[0,0,1,0],[0, 0, 0, 0],[9E+09,9E+09,9E+09,9E+09,9E+09,9E+09]];
    CONST robtarget point_213_contact:=[[95,312,125],[0,0,1,0],[0, 0, 0, 0],[9E+09,9E+09,9E+09,9E+09,9E+09,9E+09]];
    CONST robtarget point_213_clearance:=[[95,312,130],[0,0,1,0],[0, 0, 0, 0],[9E+09,9E+09,9E+09,9E+09,9E+09,9E+09]];
    CONST robtarget point_214_clearance:=[[104,343,130],[0,0,1,0],[0, 0, 0, 0],[9E+09,9E+09,9E+09,9E+09,9E+09,9E+09]];
    CONST robtarget point_214_contact:=[[104,343,125],[0,0,1,0],[0, 0, 0, 0],[9E+09,9E+09,9E+09,9E+09,9E+09,9E+09]];
    CONST robtarget point_215_contact:=[[144,304,125],[0,0,1,0],[0, 0, 0, 0],[9E+09,9E+09,9E+09,9E+09,9E+09,9E+09]];
    CONST robtarget point_215_clearance:=[[144,304,130],[0,0,1,0],[0, 0, 0, 0],[9E+09,9E+09,9E+09,9E+09,9E+09,9E+09]];
    CONST robtarget point_216_clearance:=[[74,307,130],[0,0,1,0],[0, 0, 0, 0],[9E+09,9E+09,9E+09,9E+09,9E+09,9E+09]];
    CONST robtarget point_216_contact:=[[74,307,125],[0,0,1,0],[0, 0, 0, 0],[9E+09,9E+09,9E+09,9E+09,9E+09,9E+09]];
    CONST robtarget point_217_contact:=[[77,318,125],[0,0,1,0],[0, 0, 0, 0],[9E+09,9E+09,9E+09,9E+09,9E+09,9E+09]];
    CONST robtarget point_217_clearance:=[[77,318,130],[0,0,1,0],[0, 0, 0, 0],[9E+09,9E+09,9E+09,9E+09,9E+09,9E+09]];
    CONST robtarget point_218_clearance:=[[89,316,130],[0,0,1,0],[0, 0, 0, 0],[9E+09,9E+09,9E+09,9E+09,9E+09,9E+09]];
    CONST robtarget point_218_contact:=[[89,316,125],[0,0,1,0],[0, 0, 0, 0],[9E+09,9E+09,9E+09,9E+09,9E+09,9E+09]];
    CONST robtarget point_219_contact:=[[86,307,125],[0,0,1,0],[0, 0, 0, 0],[9E+09,9E+09,9E+09,9E+09,9E+09,9E+09]];
    CONST robtarget point_219_clearance:=[[86,307,130],[0,0,1,0],[0, 0, 0, 0],[9E+09,9E+09,9E+09,9E+09,9E+09,9E+09]];
    CONST robtarget point_220_clearance:=[[95,311,130],[0,0,1,0],[0, 0, 0, 0],[9E+09,9E+09,9E+09,9E+09,9E+09,9E+09]];
    CONST robtarget point_220_contact:=[[95,311,125],[0,0,1,0],[0, 0, 0, 0],[9E+09,9E+09,9E+09,9E+09,9E+09,9E+09]];
    CONST robtarget point_221_contact:=[[100,318,125],[0,0,1,0],[0, 0, 0, 0],[9E+09,9E+09,9E+09,9E+09,9E+09,9E+09]];
    CONST robtarget point_221_clearance:=[[100,318,130],[0,0,1,0],[0, 0, 0, 0],[9E+09,9E+09,9E+09,9E+09,9E+09,9E+09]];
    CONST robtarget point_222_clearance:=[[77,315,130],[0,0,1,0],[0, 0, 0, 0],[9E+09,9E+09,9E+09,9E+09,9E+09,9E+09]];
    CONST robtarget point_222_contact:=[[77,315,125],[0,0,1,0],[0, 0, 0, 0],[9E+09,9E+09,9E+09,9E+09,9E+09,9E+09]];
    CONST robtarget point_223_contact:=[[81,325,125],[0,0,1,0],[0, 0, 0, 0],[9E+09,9E+09,9E+09,9E+09,9E+09,9E+09]];
    CONST robtarget point_223_clearance:=[[81,325,130],[0,0,1,0],[0, 0, 0, 0],[9E+09,9E+09,9E+09,9E+09,9E+09,9E+09]];
    CONST robtarget point_224_clearance:=[[101,329,130],[0,0,1,0],[0, 0, 0, 0],[9E+09,9E+09,9E+09,9E+09,9E+09,9E+09]];
    CONST robtarget point_224_contact:=[[101,329,125],[0,0,1,0],[0, 0, 0, 0],[9E+09,9E+09,9E+09,9E+09,9E+09,9E+09]];
    CONST robtarget point_225_contact:=[[88,315,125],[0,0,1,0],[0, 0, 0, 0],[9E+09,9E+09,9E+09,9E+09,9E+09,9E+09]];
    CONST robtarget point_225_clearance:=[[88,315,130],[0,0,1,0],[0, 0, 0, 0],[9E+09,9E+09,9E+09,9E+09,9E+09,9E+09]];
    CONST robtarget point_226_clearance:=[[78,324,130],[0,0,1,0],[0, 0, 0, 0],[9E+09,9E+09,9E+09,9E+09,9E+09,9E+09]];
    CONST robtarget point_226_contact:=[[78,324,125],[0,0,1,0],[0, 0, 0, 0],[9E+09,9E+09,9E+09,9E+09,9E+09,9E+09]];
    CONST robtarget point_227_contact:=[[103,345,125],[0,0,1,0],[0, 0, 0, 0],[9E+09,9E+09,9E+09,9E+09,9E+09,9E+09]];
    CONST robtarget point_227_clearance:=[[103,345,130],[0,0,1,0],[0, 0, 0, 0],[9E+09,9E+09,9E+09,9E+09,9E+09,9E+09]];



    PROC main()
        Path_Calib;
        Path_Draw;
    ENDPROC
    LOCAL PROC Path_Calib()
        MoveAbsJ home,v500,fine,GS25_ParallelGripper\WObj:=Workobject_1;
        MoveL calib_1,v500,fine,GS25_ParallelGripper\WObj:=Workobject_1;
        MoveL calib_2,v500,fine,GS25_ParallelGripper\WObj:=Workobject_1;
        MoveL calib_3,v500,fine,GS25_ParallelGripper\WObj:=Workobject_1;
        MoveL calib_4,v500,fine,GS25_ParallelGripper\WObj:=Workobject_1;
        MoveL calib_1,v500,fine,GS25_ParallelGripper\WObj:=Workobject_1;
    ENDPROC

    LOCAL PROC Path_Draw()
        MoveL point_0_clearance,v500,fine,GS25_ParallelGripper\WObj:=Workobject_1;
        MoveL point_0_contact,v500,fine,GS25_ParallelGripper\WObj:=Workobject_1;
        MoveL point_1_contact,v500,fine,GS25_ParallelGripper\WObj:=Workobject_1;
        MoveL point_1_clearance,v500,fine,GS25_ParallelGripper\WObj:=Workobject_1;
        MoveL point_2_clearance,v500,fine,GS25_ParallelGripper\WObj:=Workobject_1;
        MoveL point_2_contact,v500,fine,GS25_ParallelGripper\WObj:=Workobject_1;
        MoveL point_3_contact,v500,fine,GS25_ParallelGripper\WObj:=Workobject_1;
        MoveL point_3_clearance,v500,fine,GS25_ParallelGripper\WObj:=Workobject_1;
        MoveL point_4_clearance,v500,fine,GS25_ParallelGripper\WObj:=Workobject_1;
        MoveL point_4_contact,v500,fine,GS25_ParallelGripper\WObj:=Workobject_1;
        MoveL point_5_contact,v500,fine,GS25_ParallelGripper\WObj:=Workobject_1;
        MoveL point_5_clearance,v500,fine,GS25_ParallelGripper\WObj:=Workobject_1;
        MoveL point_6_clearance,v500,fine,GS25_ParallelGripper\WObj:=Workobject_1;
        MoveL point_6_contact,v500,fine,GS25_ParallelGripper\WObj:=Workobject_1;
        MoveL point_7_contact,v500,fine,GS25_ParallelGripper\WObj:=Workobject_1;
        MoveL point_7_clearance,v500,fine,GS25_ParallelGripper\WObj:=Workobject_1;
        MoveL point_8_clearance,v500,fine,GS25_ParallelGripper\WObj:=Workobject_1;
        MoveL point_8_contact,v500,fine,GS25_ParallelGripper\WObj:=Workobject_1;
        MoveL point_9_contact,v500,fine,GS25_ParallelGripper\WObj:=Workobject_1;
        MoveL point_9_clearance,v500,fine,GS25_ParallelGripper\WObj:=Workobject_1;
        MoveL point_10_clearance,v500,fine,GS25_ParallelGripper\WObj:=Workobject_1;
        MoveL point_10_contact,v500,fine,GS25_ParallelGripper\WObj:=Workobject_1;
        MoveL point_11_contact,v500,fine,GS25_ParallelGripper\WObj:=Workobject_1;
        MoveL point_11_clearance,v500,fine,GS25_ParallelGripper\WObj:=Workobject_1;
        MoveL point_12_clearance,v500,fine,GS25_ParallelGripper\WObj:=Workobject_1;
        MoveL point_12_contact,v500,fine,GS25_ParallelGripper\WObj:=Workobject_1;
        MoveL point_13_contact,v500,fine,GS25_ParallelGripper\WObj:=Workobject_1;
        MoveL point_13_clearance,v500,fine,GS25_ParallelGripper\WObj:=Workobject_1;
        MoveL point_14_clearance,v500,fine,GS25_ParallelGripper\WObj:=Workobject_1;
        MoveL point_14_contact,v500,fine,GS25_ParallelGripper\WObj:=Workobject_1;
        MoveL point_15_contact,v500,fine,GS25_ParallelGripper\WObj:=Workobject_1;
        MoveL point_15_clearance,v500,fine,GS25_ParallelGripper\WObj:=Workobject_1;
        MoveL point_16_clearance,v500,fine,GS25_ParallelGripper\WObj:=Workobject_1;
        MoveL point_16_contact,v500,fine,GS25_ParallelGripper\WObj:=Workobject_1;
        MoveL point_17_contact,v500,fine,GS25_ParallelGripper\WObj:=Workobject_1;
        MoveL point_17_clearance,v500,fine,GS25_ParallelGripper\WObj:=Workobject_1;
        MoveL point_18_clearance,v500,fine,GS25_ParallelGripper\WObj:=Workobject_1;
        MoveL point_18_contact,v500,fine,GS25_ParallelGripper\WObj:=Workobject_1;
        MoveL point_19_contact,v500,fine,GS25_ParallelGripper\WObj:=Workobject_1;
        MoveL point_19_clearance,v500,fine,GS25_ParallelGripper\WObj:=Workobject_1;
        MoveL point_20_clearance,v500,fine,GS25_ParallelGripper\WObj:=Workobject_1;
        MoveL point_20_contact,v500,fine,GS25_ParallelGripper\WObj:=Workobject_1;
        MoveL point_21_contact,v500,fine,GS25_ParallelGripper\WObj:=Workobject_1;
        MoveL point_21_clearance,v500,fine,GS25_ParallelGripper\WObj:=Workobject_1;
        MoveL point_22_clearance,v500,fine,GS25_ParallelGripper\WObj:=Workobject_1;
        MoveL point_22_contact,v500,fine,GS25_ParallelGripper\WObj:=Workobject_1;
        MoveL point_23_contact,v500,fine,GS25_ParallelGripper\WObj:=Workobject_1;
        MoveL point_23_clearance,v500,fine,GS25_ParallelGripper\WObj:=Workobject_1;
        MoveL point_24_clearance,v500,fine,GS25_ParallelGripper\WObj:=Workobject_1;
        MoveL point_24_contact,v500,fine,GS25_ParallelGripper\WObj:=Workobject_1;
        MoveL point_25_contact,v500,fine,GS25_ParallelGripper\WObj:=Workobject_1;
        MoveL point_25_clearance,v500,fine,GS25_ParallelGripper\WObj:=Workobject_1;
        MoveL point_26_clearance,v500,fine,GS25_ParallelGripper\WObj:=Workobject_1;
        MoveL point_26_contact,v500,fine,GS25_ParallelGripper\WObj:=Workobject_1;
        MoveL point_27_contact,v500,fine,GS25_ParallelGripper\WObj:=Workobject_1;
        MoveL point_27_clearance,v500,fine,GS25_ParallelGripper\WObj:=Workobject_1;
        MoveL point_28_clearance,v500,fine,GS25_ParallelGripper\WObj:=Workobject_1;
        MoveL point_28_contact,v500,fine,GS25_ParallelGripper\WObj:=Workobject_1;
        MoveL point_29_contact,v500,fine,GS25_ParallelGripper\WObj:=Workobject_1;
        MoveL point_29_clearance,v500,fine,GS25_ParallelGripper\WObj:=Workobject_1;
        MoveL point_30_clearance,v500,fine,GS25_ParallelGripper\WObj:=Workobject_1;
        MoveL point_30_contact,v500,fine,GS25_ParallelGripper\WObj:=Workobject_1;
        MoveL point_31_contact,v500,fine,GS25_ParallelGripper\WObj:=Workobject_1;
        MoveL point_31_clearance,v500,fine,GS25_ParallelGripper\WObj:=Workobject_1;
        MoveL point_32_clearance,v500,fine,GS25_ParallelGripper\WObj:=Workobject_1;
        MoveL point_32_contact,v500,fine,GS25_ParallelGripper\WObj:=Workobject_1;
        MoveL point_33_contact,v500,fine,GS25_ParallelGripper\WObj:=Workobject_1;
        MoveL point_33_clearance,v500,fine,GS25_ParallelGripper\WObj:=Workobject_1;
        MoveL point_34_clearance,v500,fine,GS25_ParallelGripper\WObj:=Workobject_1;
        MoveL point_34_contact,v500,fine,GS25_ParallelGripper\WObj:=Workobject_1;
        MoveL point_35_contact,v500,fine,GS25_ParallelGripper\WObj:=Workobject_1;
        MoveL point_35_clearance,v500,fine,GS25_ParallelGripper\WObj:=Workobject_1;
        MoveL point_36_clearance,v500,fine,GS25_ParallelGripper\WObj:=Workobject_1;
        MoveL point_36_contact,v500,fine,GS25_ParallelGripper\WObj:=Workobject_1;
        MoveL point_37_contact,v500,fine,GS25_ParallelGripper\WObj:=Workobject_1;
        MoveL point_37_clearance,v500,fine,GS25_ParallelGripper\WObj:=Workobject_1;
        MoveL point_38_clearance,v500,fine,GS25_ParallelGripper\WObj:=Workobject_1;
        MoveL point_38_contact,v500,fine,GS25_ParallelGripper\WObj:=Workobject_1;
        MoveL point_39_contact,v500,fine,GS25_ParallelGripper\WObj:=Workobject_1;
        MoveL point_39_clearance,v500,fine,GS25_ParallelGripper\WObj:=Workobject_1;
        MoveL point_40_clearance,v500,fine,GS25_ParallelGripper\WObj:=Workobject_1;
        MoveL point_40_contact,v500,fine,GS25_ParallelGripper\WObj:=Workobject_1;
        MoveL point_41_contact,v500,fine,GS25_ParallelGripper\WObj:=Workobject_1;
        MoveL point_41_clearance,v500,fine,GS25_ParallelGripper\WObj:=Workobject_1;
        MoveL point_42_clearance,v500,fine,GS25_ParallelGripper\WObj:=Workobject_1;
        MoveL point_42_contact,v500,fine,GS25_ParallelGripper\WObj:=Workobject_1;
        MoveL point_43_contact,v500,fine,GS25_ParallelGripper\WObj:=Workobject_1;
        MoveL point_43_clearance,v500,fine,GS25_ParallelGripper\WObj:=Workobject_1;
        MoveL point_44_clearance,v500,fine,GS25_ParallelGripper\WObj:=Workobject_1;
        MoveL point_44_contact,v500,fine,GS25_ParallelGripper\WObj:=Workobject_1;
        MoveL point_45_contact,v500,fine,GS25_ParallelGripper\WObj:=Workobject_1;
        MoveL point_45_clearance,v500,fine,GS25_ParallelGripper\WObj:=Workobject_1;
        MoveL point_46_clearance,v500,fine,GS25_ParallelGripper\WObj:=Workobject_1;
        MoveL point_46_contact,v500,fine,GS25_ParallelGripper\WObj:=Workobject_1;
        MoveL point_47_contact,v500,fine,GS25_ParallelGripper\WObj:=Workobject_1;
        MoveL point_47_clearance,v500,fine,GS25_ParallelGripper\WObj:=Workobject_1;
        MoveL point_48_clearance,v500,fine,GS25_ParallelGripper\WObj:=Workobject_1;
        MoveL point_48_contact,v500,fine,GS25_ParallelGripper\WObj:=Workobject_1;
        MoveL point_49_contact,v500,fine,GS25_ParallelGripper\WObj:=Workobject_1;
        MoveL point_49_clearance,v500,fine,GS25_ParallelGripper\WObj:=Workobject_1;
        MoveL point_50_clearance,v500,fine,GS25_ParallelGripper\WObj:=Workobject_1;
        MoveL point_50_contact,v500,fine,GS25_ParallelGripper\WObj:=Workobject_1;
        MoveL point_51_contact,v500,fine,GS25_ParallelGripper\WObj:=Workobject_1;
        MoveL point_51_clearance,v500,fine,GS25_ParallelGripper\WObj:=Workobject_1;
        MoveL point_52_clearance,v500,fine,GS25_ParallelGripper\WObj:=Workobject_1;
        MoveL point_52_contact,v500,fine,GS25_ParallelGripper\WObj:=Workobject_1;
        MoveL point_53_contact,v500,fine,GS25_ParallelGripper\WObj:=Workobject_1;
        MoveL point_53_clearance,v500,fine,GS25_ParallelGripper\WObj:=Workobject_1;
        MoveL point_54_clearance,v500,fine,GS25_ParallelGripper\WObj:=Workobject_1;
        MoveL point_54_contact,v500,fine,GS25_ParallelGripper\WObj:=Workobject_1;
        MoveL point_55_contact,v500,fine,GS25_ParallelGripper\WObj:=Workobject_1;
        MoveL point_55_clearance,v500,fine,GS25_ParallelGripper\WObj:=Workobject_1;
        MoveL point_56_clearance,v500,fine,GS25_ParallelGripper\WObj:=Workobject_1;
        MoveL point_56_contact,v500,fine,GS25_ParallelGripper\WObj:=Workobject_1;
        MoveL point_57_contact,v500,fine,GS25_ParallelGripper\WObj:=Workobject_1;
        MoveL point_57_clearance,v500,fine,GS25_ParallelGripper\WObj:=Workobject_1;
        MoveL point_58_clearance,v500,fine,GS25_ParallelGripper\WObj:=Workobject_1;
        MoveL point_58_contact,v500,fine,GS25_ParallelGripper\WObj:=Workobject_1;
        MoveL point_59_contact,v500,fine,GS25_ParallelGripper\WObj:=Workobject_1;
        MoveL point_59_clearance,v500,fine,GS25_ParallelGripper\WObj:=Workobject_1;
        MoveL point_60_clearance,v500,fine,GS25_ParallelGripper\WObj:=Workobject_1;
        MoveL point_60_contact,v500,fine,GS25_ParallelGripper\WObj:=Workobject_1;
        MoveL point_61_contact,v500,fine,GS25_ParallelGripper\WObj:=Workobject_1;
        MoveL point_61_clearance,v500,fine,GS25_ParallelGripper\WObj:=Workobject_1;
        MoveL point_62_clearance,v500,fine,GS25_ParallelGripper\WObj:=Workobject_1;
        MoveL point_62_contact,v500,fine,GS25_ParallelGripper\WObj:=Workobject_1;
        MoveL point_63_contact,v500,fine,GS25_ParallelGripper\WObj:=Workobject_1;
        MoveL point_63_clearance,v500,fine,GS25_ParallelGripper\WObj:=Workobject_1;
        MoveL point_64_clearance,v500,fine,GS25_ParallelGripper\WObj:=Workobject_1;
        MoveL point_64_contact,v500,fine,GS25_ParallelGripper\WObj:=Workobject_1;
        MoveL point_65_contact,v500,fine,GS25_ParallelGripper\WObj:=Workobject_1;
        MoveL point_65_clearance,v500,fine,GS25_ParallelGripper\WObj:=Workobject_1;
        MoveL point_66_clearance,v500,fine,GS25_ParallelGripper\WObj:=Workobject_1;
        MoveL point_66_contact,v500,fine,GS25_ParallelGripper\WObj:=Workobject_1;
        MoveL point_67_contact,v500,fine,GS25_ParallelGripper\WObj:=Workobject_1;
        MoveL point_67_clearance,v500,fine,GS25_ParallelGripper\WObj:=Workobject_1;
        MoveL point_68_clearance,v500,fine,GS25_ParallelGripper\WObj:=Workobject_1;
        MoveL point_68_contact,v500,fine,GS25_ParallelGripper\WObj:=Workobject_1;
        MoveL point_69_contact,v500,fine,GS25_ParallelGripper\WObj:=Workobject_1;
        MoveL point_69_clearance,v500,fine,GS25_ParallelGripper\WObj:=Workobject_1;
        MoveL point_70_clearance,v500,fine,GS25_ParallelGripper\WObj:=Workobject_1;
        MoveL point_70_contact,v500,fine,GS25_ParallelGripper\WObj:=Workobject_1;
        MoveL point_71_contact,v500,fine,GS25_ParallelGripper\WObj:=Workobject_1;
        MoveL point_71_clearance,v500,fine,GS25_ParallelGripper\WObj:=Workobject_1;
        MoveL point_72_clearance,v500,fine,GS25_ParallelGripper\WObj:=Workobject_1;
        MoveL point_72_contact,v500,fine,GS25_ParallelGripper\WObj:=Workobject_1;
        MoveL point_73_contact,v500,fine,GS25_ParallelGripper\WObj:=Workobject_1;
        MoveL point_73_clearance,v500,fine,GS25_ParallelGripper\WObj:=Workobject_1;
        MoveL point_74_clearance,v500,fine,GS25_ParallelGripper\WObj:=Workobject_1;
        MoveL point_74_contact,v500,fine,GS25_ParallelGripper\WObj:=Workobject_1;
        MoveL point_75_contact,v500,fine,GS25_ParallelGripper\WObj:=Workobject_1;
        MoveL point_75_clearance,v500,fine,GS25_ParallelGripper\WObj:=Workobject_1;
        MoveL point_76_clearance,v500,fine,GS25_ParallelGripper\WObj:=Workobject_1;
        MoveL point_76_contact,v500,fine,GS25_ParallelGripper\WObj:=Workobject_1;
        MoveL point_77_contact,v500,fine,GS25_ParallelGripper\WObj:=Workobject_1;
        MoveL point_77_clearance,v500,fine,GS25_ParallelGripper\WObj:=Workobject_1;
        MoveL point_78_clearance,v500,fine,GS25_ParallelGripper\WObj:=Workobject_1;
        MoveL point_78_contact,v500,fine,GS25_ParallelGripper\WObj:=Workobject_1;
        MoveL point_79_contact,v500,fine,GS25_ParallelGripper\WObj:=Workobject_1;
        MoveL point_79_clearance,v500,fine,GS25_ParallelGripper\WObj:=Workobject_1;
        MoveL point_80_clearance,v500,fine,GS25_ParallelGripper\WObj:=Workobject_1;
        MoveL point_80_contact,v500,fine,GS25_ParallelGripper\WObj:=Workobject_1;
        MoveL point_81_contact,v500,fine,GS25_ParallelGripper\WObj:=Workobject_1;
        MoveL point_81_clearance,v500,fine,GS25_ParallelGripper\WObj:=Workobject_1;
        MoveL point_82_clearance,v500,fine,GS25_ParallelGripper\WObj:=Workobject_1;
        MoveL point_82_contact,v500,fine,GS25_ParallelGripper\WObj:=Workobject_1;
        MoveL point_83_contact,v500,fine,GS25_ParallelGripper\WObj:=Workobject_1;
        MoveL point_83_clearance,v500,fine,GS25_ParallelGripper\WObj:=Workobject_1;
        MoveL point_84_clearance,v500,fine,GS25_ParallelGripper\WObj:=Workobject_1;
        MoveL point_84_contact,v500,fine,GS25_ParallelGripper\WObj:=Workobject_1;
        MoveL point_85_contact,v500,fine,GS25_ParallelGripper\WObj:=Workobject_1;
        MoveL point_85_clearance,v500,fine,GS25_ParallelGripper\WObj:=Workobject_1;
        MoveL point_86_clearance,v500,fine,GS25_ParallelGripper\WObj:=Workobject_1;
        MoveL point_86_contact,v500,fine,GS25_ParallelGripper\WObj:=Workobject_1;
        MoveL point_87_contact,v500,fine,GS25_ParallelGripper\WObj:=Workobject_1;
        MoveL point_87_clearance,v500,fine,GS25_ParallelGripper\WObj:=Workobject_1;
        MoveL point_88_clearance,v500,fine,GS25_ParallelGripper\WObj:=Workobject_1;
        MoveL point_88_contact,v500,fine,GS25_ParallelGripper\WObj:=Workobject_1;
        MoveL point_89_contact,v500,fine,GS25_ParallelGripper\WObj:=Workobject_1;
        MoveL point_89_clearance,v500,fine,GS25_ParallelGripper\WObj:=Workobject_1;
        MoveL point_90_clearance,v500,fine,GS25_ParallelGripper\WObj:=Workobject_1;
        MoveL point_90_contact,v500,fine,GS25_ParallelGripper\WObj:=Workobject_1;
        MoveL point_91_contact,v500,fine,GS25_ParallelGripper\WObj:=Workobject_1;
        MoveL point_91_clearance,v500,fine,GS25_ParallelGripper\WObj:=Workobject_1;
        MoveL point_92_clearance,v500,fine,GS25_ParallelGripper\WObj:=Workobject_1;
        MoveL point_92_contact,v500,fine,GS25_ParallelGripper\WObj:=Workobject_1;
        MoveL point_93_contact,v500,fine,GS25_ParallelGripper\WObj:=Workobject_1;
        MoveL point_93_clearance,v500,fine,GS25_ParallelGripper\WObj:=Workobject_1;
        MoveL point_94_clearance,v500,fine,GS25_ParallelGripper\WObj:=Workobject_1;
        MoveL point_94_contact,v500,fine,GS25_ParallelGripper\WObj:=Workobject_1;
        MoveL point_95_contact,v500,fine,GS25_ParallelGripper\WObj:=Workobject_1;
        MoveL point_95_clearance,v500,fine,GS25_ParallelGripper\WObj:=Workobject_1;
        MoveL point_96_clearance,v500,fine,GS25_ParallelGripper\WObj:=Workobject_1;
        MoveL point_96_contact,v500,fine,GS25_ParallelGripper\WObj:=Workobject_1;
        MoveL point_97_contact,v500,fine,GS25_ParallelGripper\WObj:=Workobject_1;
        MoveL point_97_clearance,v500,fine,GS25_ParallelGripper\WObj:=Workobject_1;
        MoveL point_98_clearance,v500,fine,GS25_ParallelGripper\WObj:=Workobject_1;
        MoveL point_98_contact,v500,fine,GS25_ParallelGripper\WObj:=Workobject_1;
        MoveL point_99_contact,v500,fine,GS25_ParallelGripper\WObj:=Workobject_1;
        MoveL point_99_clearance,v500,fine,GS25_ParallelGripper\WObj:=Workobject_1;
        MoveL point_100_clearance,v500,fine,GS25_ParallelGripper\WObj:=Workobject_1;
        MoveL point_100_contact,v500,fine,GS25_ParallelGripper\WObj:=Workobject_1;
        MoveL point_101_contact,v500,fine,GS25_ParallelGripper\WObj:=Workobject_1;
        MoveL point_101_clearance,v500,fine,GS25_ParallelGripper\WObj:=Workobject_1;
        MoveL point_102_clearance,v500,fine,GS25_ParallelGripper\WObj:=Workobject_1;
        MoveL point_102_contact,v500,fine,GS25_ParallelGripper\WObj:=Workobject_1;
        MoveL point_103_contact,v500,fine,GS25_ParallelGripper\WObj:=Workobject_1;
        MoveL point_103_clearance,v500,fine,GS25_ParallelGripper\WObj:=Workobject_1;
        MoveL point_104_clearance,v500,fine,GS25_ParallelGripper\WObj:=Workobject_1;
        MoveL point_104_contact,v500,fine,GS25_ParallelGripper\WObj:=Workobject_1;
        MoveL point_105_contact,v500,fine,GS25_ParallelGripper\WObj:=Workobject_1;
        MoveL point_105_clearance,v500,fine,GS25_ParallelGripper\WObj:=Workobject_1;
        MoveL point_106_clearance,v500,fine,GS25_ParallelGripper\WObj:=Workobject_1;
        MoveL point_106_contact,v500,fine,GS25_ParallelGripper\WObj:=Workobject_1;
        MoveL point_107_contact,v500,fine,GS25_ParallelGripper\WObj:=Workobject_1;
        MoveL point_107_clearance,v500,fine,GS25_ParallelGripper\WObj:=Workobject_1;
        MoveL point_108_clearance,v500,fine,GS25_ParallelGripper\WObj:=Workobject_1;
        MoveL point_108_contact,v500,fine,GS25_ParallelGripper\WObj:=Workobject_1;
        MoveL point_109_contact,v500,fine,GS25_ParallelGripper\WObj:=Workobject_1;
        MoveL point_109_clearance,v500,fine,GS25_ParallelGripper\WObj:=Workobject_1;
        MoveL point_110_clearance,v500,fine,GS25_ParallelGripper\WObj:=Workobject_1;
        MoveL point_110_contact,v500,fine,GS25_ParallelGripper\WObj:=Workobject_1;
        MoveL point_111_contact,v500,fine,GS25_ParallelGripper\WObj:=Workobject_1;
        MoveL point_111_clearance,v500,fine,GS25_ParallelGripper\WObj:=Workobject_1;
        MoveL point_112_clearance,v500,fine,GS25_ParallelGripper\WObj:=Workobject_1;
        MoveL point_112_contact,v500,fine,GS25_ParallelGripper\WObj:=Workobject_1;
        MoveL point_113_contact,v500,fine,GS25_ParallelGripper\WObj:=Workobject_1;
        MoveL point_113_clearance,v500,fine,GS25_ParallelGripper\WObj:=Workobject_1;
        MoveL point_114_clearance,v500,fine,GS25_ParallelGripper\WObj:=Workobject_1;
        MoveL point_114_contact,v500,fine,GS25_ParallelGripper\WObj:=Workobject_1;
        MoveL point_115_contact,v500,fine,GS25_ParallelGripper\WObj:=Workobject_1;
        MoveL point_115_clearance,v500,fine,GS25_ParallelGripper\WObj:=Workobject_1;
        MoveL point_116_clearance,v500,fine,GS25_ParallelGripper\WObj:=Workobject_1;
        MoveL point_116_contact,v500,fine,GS25_ParallelGripper\WObj:=Workobject_1;
        MoveL point_117_contact,v500,fine,GS25_ParallelGripper\WObj:=Workobject_1;
        MoveL point_117_clearance,v500,fine,GS25_ParallelGripper\WObj:=Workobject_1;
        MoveL point_118_clearance,v500,fine,GS25_ParallelGripper\WObj:=Workobject_1;
        MoveL point_118_contact,v500,fine,GS25_ParallelGripper\WObj:=Workobject_1;
        MoveL point_119_contact,v500,fine,GS25_ParallelGripper\WObj:=Workobject_1;
        MoveL point_119_clearance,v500,fine,GS25_ParallelGripper\WObj:=Workobject_1;
        MoveL point_120_clearance,v500,fine,GS25_ParallelGripper\WObj:=Workobject_1;
        MoveL point_120_contact,v500,fine,GS25_ParallelGripper\WObj:=Workobject_1;
        MoveL point_121_contact,v500,fine,GS25_ParallelGripper\WObj:=Workobject_1;
        MoveL point_121_clearance,v500,fine,GS25_ParallelGripper\WObj:=Workobject_1;
        MoveL point_122_clearance,v500,fine,GS25_ParallelGripper\WObj:=Workobject_1;
        MoveL point_122_contact,v500,fine,GS25_ParallelGripper\WObj:=Workobject_1;
        MoveL point_123_contact,v500,fine,GS25_ParallelGripper\WObj:=Workobject_1;
        MoveL point_123_clearance,v500,fine,GS25_ParallelGripper\WObj:=Workobject_1;
        MoveL point_124_clearance,v500,fine,GS25_ParallelGripper\WObj:=Workobject_1;
        MoveL point_124_contact,v500,fine,GS25_ParallelGripper\WObj:=Workobject_1;
        MoveL point_125_contact,v500,fine,GS25_ParallelGripper\WObj:=Workobject_1;
        MoveL point_125_clearance,v500,fine,GS25_ParallelGripper\WObj:=Workobject_1;
        MoveL point_126_clearance,v500,fine,GS25_ParallelGripper\WObj:=Workobject_1;
        MoveL point_126_contact,v500,fine,GS25_ParallelGripper\WObj:=Workobject_1;
        MoveL point_127_contact,v500,fine,GS25_ParallelGripper\WObj:=Workobject_1;
        MoveL point_127_clearance,v500,fine,GS25_ParallelGripper\WObj:=Workobject_1;
        MoveL point_128_clearance,v500,fine,GS25_ParallelGripper\WObj:=Workobject_1;
        MoveL point_128_contact,v500,fine,GS25_ParallelGripper\WObj:=Workobject_1;
        MoveL point_129_contact,v500,fine,GS25_ParallelGripper\WObj:=Workobject_1;
        MoveL point_129_clearance,v500,fine,GS25_ParallelGripper\WObj:=Workobject_1;
        MoveL point_130_clearance,v500,fine,GS25_ParallelGripper\WObj:=Workobject_1;
        MoveL point_130_contact,v500,fine,GS25_ParallelGripper\WObj:=Workobject_1;
        MoveL point_131_contact,v500,fine,GS25_ParallelGripper\WObj:=Workobject_1;
        MoveL point_131_clearance,v500,fine,GS25_ParallelGripper\WObj:=Workobject_1;
        MoveL point_132_clearance,v500,fine,GS25_ParallelGripper\WObj:=Workobject_1;
        MoveL point_132_contact,v500,fine,GS25_ParallelGripper\WObj:=Workobject_1;
        MoveL point_133_contact,v500,fine,GS25_ParallelGripper\WObj:=Workobject_1;
        MoveL point_133_clearance,v500,fine,GS25_ParallelGripper\WObj:=Workobject_1;
        MoveL point_134_clearance,v500,fine,GS25_ParallelGripper\WObj:=Workobject_1;
        MoveL point_134_contact,v500,fine,GS25_ParallelGripper\WObj:=Workobject_1;
        MoveL point_135_contact,v500,fine,GS25_ParallelGripper\WObj:=Workobject_1;
        MoveL point_135_clearance,v500,fine,GS25_ParallelGripper\WObj:=Workobject_1;
        MoveL point_136_clearance,v500,fine,GS25_ParallelGripper\WObj:=Workobject_1;
        MoveL point_136_contact,v500,fine,GS25_ParallelGripper\WObj:=Workobject_1;
        MoveL point_137_contact,v500,fine,GS25_ParallelGripper\WObj:=Workobject_1;
        MoveL point_137_clearance,v500,fine,GS25_ParallelGripper\WObj:=Workobject_1;
        MoveL point_138_clearance,v500,fine,GS25_ParallelGripper\WObj:=Workobject_1;
        MoveL point_138_contact,v500,fine,GS25_ParallelGripper\WObj:=Workobject_1;
        MoveL point_139_contact,v500,fine,GS25_ParallelGripper\WObj:=Workobject_1;
        MoveL point_139_clearance,v500,fine,GS25_ParallelGripper\WObj:=Workobject_1;
        MoveL point_140_clearance,v500,fine,GS25_ParallelGripper\WObj:=Workobject_1;
        MoveL point_140_contact,v500,fine,GS25_ParallelGripper\WObj:=Workobject_1;
        MoveL point_141_contact,v500,fine,GS25_ParallelGripper\WObj:=Workobject_1;
        MoveL point_141_clearance,v500,fine,GS25_ParallelGripper\WObj:=Workobject_1;
        MoveL point_142_clearance,v500,fine,GS25_ParallelGripper\WObj:=Workobject_1;
        MoveL point_142_contact,v500,fine,GS25_ParallelGripper\WObj:=Workobject_1;
        MoveL point_143_contact,v500,fine,GS25_ParallelGripper\WObj:=Workobject_1;
        MoveL point_143_clearance,v500,fine,GS25_ParallelGripper\WObj:=Workobject_1;
        MoveL point_144_clearance,v500,fine,GS25_ParallelGripper\WObj:=Workobject_1;
        MoveL point_144_contact,v500,fine,GS25_ParallelGripper\WObj:=Workobject_1;
        MoveL point_145_contact,v500,fine,GS25_ParallelGripper\WObj:=Workobject_1;
        MoveL point_145_clearance,v500,fine,GS25_ParallelGripper\WObj:=Workobject_1;
        MoveL point_146_clearance,v500,fine,GS25_ParallelGripper\WObj:=Workobject_1;
        MoveL point_146_contact,v500,fine,GS25_ParallelGripper\WObj:=Workobject_1;
        MoveL point_147_contact,v500,fine,GS25_ParallelGripper\WObj:=Workobject_1;
        MoveL point_147_clearance,v500,fine,GS25_ParallelGripper\WObj:=Workobject_1;
        MoveL point_148_clearance,v500,fine,GS25_ParallelGripper\WObj:=Workobject_1;
        MoveL point_148_contact,v500,fine,GS25_ParallelGripper\WObj:=Workobject_1;
        MoveL point_149_contact,v500,fine,GS25_ParallelGripper\WObj:=Workobject_1;
        MoveL point_149_clearance,v500,fine,GS25_ParallelGripper\WObj:=Workobject_1;
        MoveL point_150_clearance,v500,fine,GS25_ParallelGripper\WObj:=Workobject_1;
        MoveL point_150_contact,v500,fine,GS25_ParallelGripper\WObj:=Workobject_1;
        MoveL point_151_contact,v500,fine,GS25_ParallelGripper\WObj:=Workobject_1;
        MoveL point_151_clearance,v500,fine,GS25_ParallelGripper\WObj:=Workobject_1;
        MoveL point_152_clearance,v500,fine,GS25_ParallelGripper\WObj:=Workobject_1;
        MoveL point_152_contact,v500,fine,GS25_ParallelGripper\WObj:=Workobject_1;
        MoveL point_153_contact,v500,fine,GS25_ParallelGripper\WObj:=Workobject_1;
        MoveL point_153_clearance,v500,fine,GS25_ParallelGripper\WObj:=Workobject_1;
        MoveL point_154_clearance,v500,fine,GS25_ParallelGripper\WObj:=Workobject_1;
        MoveL point_154_contact,v500,fine,GS25_ParallelGripper\WObj:=Workobject_1;
        MoveL point_155_contact,v500,fine,GS25_ParallelGripper\WObj:=Workobject_1;
        MoveL point_155_clearance,v500,fine,GS25_ParallelGripper\WObj:=Workobject_1;
        MoveL point_156_clearance,v500,fine,GS25_ParallelGripper\WObj:=Workobject_1;
        MoveL point_156_contact,v500,fine,GS25_ParallelGripper\WObj:=Workobject_1;
        MoveL point_157_contact,v500,fine,GS25_ParallelGripper\WObj:=Workobject_1;
        MoveL point_157_clearance,v500,fine,GS25_ParallelGripper\WObj:=Workobject_1;
        MoveL point_158_clearance,v500,fine,GS25_ParallelGripper\WObj:=Workobject_1;
        MoveL point_158_contact,v500,fine,GS25_ParallelGripper\WObj:=Workobject_1;
        MoveL point_159_contact,v500,fine,GS25_ParallelGripper\WObj:=Workobject_1;
        MoveL point_159_clearance,v500,fine,GS25_ParallelGripper\WObj:=Workobject_1;
        MoveL point_160_clearance,v500,fine,GS25_ParallelGripper\WObj:=Workobject_1;
        MoveL point_160_contact,v500,fine,GS25_ParallelGripper\WObj:=Workobject_1;
        MoveL point_161_contact,v500,fine,GS25_ParallelGripper\WObj:=Workobject_1;
        MoveL point_161_clearance,v500,fine,GS25_ParallelGripper\WObj:=Workobject_1;
        MoveL point_162_clearance,v500,fine,GS25_ParallelGripper\WObj:=Workobject_1;
        MoveL point_162_contact,v500,fine,GS25_ParallelGripper\WObj:=Workobject_1;
        MoveL point_163_contact,v500,fine,GS25_ParallelGripper\WObj:=Workobject_1;
        MoveL point_163_clearance,v500,fine,GS25_ParallelGripper\WObj:=Workobject_1;
        MoveL point_164_clearance,v500,fine,GS25_ParallelGripper\WObj:=Workobject_1;
        MoveL point_164_contact,v500,fine,GS25_ParallelGripper\WObj:=Workobject_1;
        MoveL point_165_contact,v500,fine,GS25_ParallelGripper\WObj:=Workobject_1;
        MoveL point_165_clearance,v500,fine,GS25_ParallelGripper\WObj:=Workobject_1;
        MoveL point_166_clearance,v500,fine,GS25_ParallelGripper\WObj:=Workobject_1;
        MoveL point_166_contact,v500,fine,GS25_ParallelGripper\WObj:=Workobject_1;
        MoveL point_167_contact,v500,fine,GS25_ParallelGripper\WObj:=Workobject_1;
        MoveL point_167_clearance,v500,fine,GS25_ParallelGripper\WObj:=Workobject_1;
        MoveL point_168_clearance,v500,fine,GS25_ParallelGripper\WObj:=Workobject_1;
        MoveL point_168_contact,v500,fine,GS25_ParallelGripper\WObj:=Workobject_1;
        MoveL point_169_contact,v500,fine,GS25_ParallelGripper\WObj:=Workobject_1;
        MoveL point_169_clearance,v500,fine,GS25_ParallelGripper\WObj:=Workobject_1;
        MoveL point_170_clearance,v500,fine,GS25_ParallelGripper\WObj:=Workobject_1;
        MoveL point_170_contact,v500,fine,GS25_ParallelGripper\WObj:=Workobject_1;
        MoveL point_171_contact,v500,fine,GS25_ParallelGripper\WObj:=Workobject_1;
        MoveL point_171_clearance,v500,fine,GS25_ParallelGripper\WObj:=Workobject_1;
        MoveL point_172_clearance,v500,fine,GS25_ParallelGripper\WObj:=Workobject_1;
        MoveL point_172_contact,v500,fine,GS25_ParallelGripper\WObj:=Workobject_1;
        MoveL point_173_contact,v500,fine,GS25_ParallelGripper\WObj:=Workobject_1;
        MoveL point_173_clearance,v500,fine,GS25_ParallelGripper\WObj:=Workobject_1;
        MoveL point_174_clearance,v500,fine,GS25_ParallelGripper\WObj:=Workobject_1;
        MoveL point_174_contact,v500,fine,GS25_ParallelGripper\WObj:=Workobject_1;
        MoveL point_175_contact,v500,fine,GS25_ParallelGripper\WObj:=Workobject_1;
        MoveL point_175_clearance,v500,fine,GS25_ParallelGripper\WObj:=Workobject_1;
        MoveL point_176_clearance,v500,fine,GS25_ParallelGripper\WObj:=Workobject_1;
        MoveL point_176_contact,v500,fine,GS25_ParallelGripper\WObj:=Workobject_1;
        MoveL point_177_contact,v500,fine,GS25_ParallelGripper\WObj:=Workobject_1;
        MoveL point_177_clearance,v500,fine,GS25_ParallelGripper\WObj:=Workobject_1;
        MoveL point_178_clearance,v500,fine,GS25_ParallelGripper\WObj:=Workobject_1;
        MoveL point_178_contact,v500,fine,GS25_ParallelGripper\WObj:=Workobject_1;
        MoveL point_179_contact,v500,fine,GS25_ParallelGripper\WObj:=Workobject_1;
        MoveL point_179_clearance,v500,fine,GS25_ParallelGripper\WObj:=Workobject_1;
        MoveL point_180_clearance,v500,fine,GS25_ParallelGripper\WObj:=Workobject_1;
        MoveL point_180_contact,v500,fine,GS25_ParallelGripper\WObj:=Workobject_1;
        MoveL point_181_contact,v500,fine,GS25_ParallelGripper\WObj:=Workobject_1;
        MoveL point_181_clearance,v500,fine,GS25_ParallelGripper\WObj:=Workobject_1;
        MoveL point_182_clearance,v500,fine,GS25_ParallelGripper\WObj:=Workobject_1;
        MoveL point_182_contact,v500,fine,GS25_ParallelGripper\WObj:=Workobject_1;
        MoveL point_183_contact,v500,fine,GS25_ParallelGripper\WObj:=Workobject_1;
        MoveL point_183_clearance,v500,fine,GS25_ParallelGripper\WObj:=Workobject_1;
        MoveL point_184_clearance,v500,fine,GS25_ParallelGripper\WObj:=Workobject_1;
        MoveL point_184_contact,v500,fine,GS25_ParallelGripper\WObj:=Workobject_1;
        MoveL point_185_contact,v500,fine,GS25_ParallelGripper\WObj:=Workobject_1;
        MoveL point_185_clearance,v500,fine,GS25_ParallelGripper\WObj:=Workobject_1;
        MoveL point_186_clearance,v500,fine,GS25_ParallelGripper\WObj:=Workobject_1;
        MoveL point_186_contact,v500,fine,GS25_ParallelGripper\WObj:=Workobject_1;
        MoveL point_187_contact,v500,fine,GS25_ParallelGripper\WObj:=Workobject_1;
        MoveL point_187_clearance,v500,fine,GS25_ParallelGripper\WObj:=Workobject_1;
        MoveL point_188_clearance,v500,fine,GS25_ParallelGripper\WObj:=Workobject_1;
        MoveL point_188_contact,v500,fine,GS25_ParallelGripper\WObj:=Workobject_1;
        MoveL point_189_contact,v500,fine,GS25_ParallelGripper\WObj:=Workobject_1;
        MoveL point_189_clearance,v500,fine,GS25_ParallelGripper\WObj:=Workobject_1;
        MoveL point_190_clearance,v500,fine,GS25_ParallelGripper\WObj:=Workobject_1;
        MoveL point_190_contact,v500,fine,GS25_ParallelGripper\WObj:=Workobject_1;
        MoveL point_191_contact,v500,fine,GS25_ParallelGripper\WObj:=Workobject_1;
        MoveL point_191_clearance,v500,fine,GS25_ParallelGripper\WObj:=Workobject_1;
        MoveL point_192_clearance,v500,fine,GS25_ParallelGripper\WObj:=Workobject_1;
        MoveL point_192_contact,v500,fine,GS25_ParallelGripper\WObj:=Workobject_1;
        MoveL point_193_contact,v500,fine,GS25_ParallelGripper\WObj:=Workobject_1;
        MoveL point_193_clearance,v500,fine,GS25_ParallelGripper\WObj:=Workobject_1;
        MoveL point_194_clearance,v500,fine,GS25_ParallelGripper\WObj:=Workobject_1;
        MoveL point_194_contact,v500,fine,GS25_ParallelGripper\WObj:=Workobject_1;
        MoveL point_195_contact,v500,fine,GS25_ParallelGripper\WObj:=Workobject_1;
        MoveL point_195_clearance,v500,fine,GS25_ParallelGripper\WObj:=Workobject_1;
        MoveL point_196_clearance,v500,fine,GS25_ParallelGripper\WObj:=Workobject_1;
        MoveL point_196_contact,v500,fine,GS25_ParallelGripper\WObj:=Workobject_1;
        MoveL point_197_contact,v500,fine,GS25_ParallelGripper\WObj:=Workobject_1;
        MoveL point_197_clearance,v500,fine,GS25_ParallelGripper\WObj:=Workobject_1;
        MoveL point_198_clearance,v500,fine,GS25_ParallelGripper\WObj:=Workobject_1;
        MoveL point_198_contact,v500,fine,GS25_ParallelGripper\WObj:=Workobject_1;
        MoveL point_199_contact,v500,fine,GS25_ParallelGripper\WObj:=Workobject_1;
        MoveL point_199_clearance,v500,fine,GS25_ParallelGripper\WObj:=Workobject_1;
        MoveL point_200_clearance,v500,fine,GS25_ParallelGripper\WObj:=Workobject_1;
        MoveL point_200_contact,v500,fine,GS25_ParallelGripper\WObj:=Workobject_1;
        MoveL point_201_contact,v500,fine,GS25_ParallelGripper\WObj:=Workobject_1;
        MoveL point_201_clearance,v500,fine,GS25_ParallelGripper\WObj:=Workobject_1;
        MoveL point_202_clearance,v500,fine,GS25_ParallelGripper\WObj:=Workobject_1;
        MoveL point_202_contact,v500,fine,GS25_ParallelGripper\WObj:=Workobject_1;
        MoveL point_203_contact,v500,fine,GS25_ParallelGripper\WObj:=Workobject_1;
        MoveL point_203_clearance,v500,fine,GS25_ParallelGripper\WObj:=Workobject_1;
        MoveL point_204_clearance,v500,fine,GS25_ParallelGripper\WObj:=Workobject_1;
        MoveL point_204_contact,v500,fine,GS25_ParallelGripper\WObj:=Workobject_1;
        MoveL point_205_contact,v500,fine,GS25_ParallelGripper\WObj:=Workobject_1;
        MoveL point_205_clearance,v500,fine,GS25_ParallelGripper\WObj:=Workobject_1;
        MoveL point_206_clearance,v500,fine,GS25_ParallelGripper\WObj:=Workobject_1;
        MoveL point_206_contact,v500,fine,GS25_ParallelGripper\WObj:=Workobject_1;
        MoveL point_207_contact,v500,fine,GS25_ParallelGripper\WObj:=Workobject_1;
        MoveL point_207_clearance,v500,fine,GS25_ParallelGripper\WObj:=Workobject_1;
        MoveL point_208_clearance,v500,fine,GS25_ParallelGripper\WObj:=Workobject_1;
        MoveL point_208_contact,v500,fine,GS25_ParallelGripper\WObj:=Workobject_1;
        MoveL point_209_contact,v500,fine,GS25_ParallelGripper\WObj:=Workobject_1;
        MoveL point_209_clearance,v500,fine,GS25_ParallelGripper\WObj:=Workobject_1;
        MoveL point_210_clearance,v500,fine,GS25_ParallelGripper\WObj:=Workobject_1;
        MoveL point_210_contact,v500,fine,GS25_ParallelGripper\WObj:=Workobject_1;
        MoveL point_211_contact,v500,fine,GS25_ParallelGripper\WObj:=Workobject_1;
        MoveL point_211_clearance,v500,fine,GS25_ParallelGripper\WObj:=Workobject_1;
        MoveL point_212_clearance,v500,fine,GS25_ParallelGripper\WObj:=Workobject_1;
        MoveL point_212_contact,v500,fine,GS25_ParallelGripper\WObj:=Workobject_1;
        MoveL point_213_contact,v500,fine,GS25_ParallelGripper\WObj:=Workobject_1;
        MoveL point_213_clearance,v500,fine,GS25_ParallelGripper\WObj:=Workobject_1;
        MoveL point_214_clearance,v500,fine,GS25_ParallelGripper\WObj:=Workobject_1;
        MoveL point_214_contact,v500,fine,GS25_ParallelGripper\WObj:=Workobject_1;
        MoveL point_215_contact,v500,fine,GS25_ParallelGripper\WObj:=Workobject_1;
        MoveL point_215_clearance,v500,fine,GS25_ParallelGripper\WObj:=Workobject_1;
        MoveL point_216_clearance,v500,fine,GS25_ParallelGripper\WObj:=Workobject_1;
        MoveL point_216_contact,v500,fine,GS25_ParallelGripper\WObj:=Workobject_1;
        MoveL point_217_contact,v500,fine,GS25_ParallelGripper\WObj:=Workobject_1;
        MoveL point_217_clearance,v500,fine,GS25_ParallelGripper\WObj:=Workobject_1;
        MoveL point_218_clearance,v500,fine,GS25_ParallelGripper\WObj:=Workobject_1;
        MoveL point_218_contact,v500,fine,GS25_ParallelGripper\WObj:=Workobject_1;
        MoveL point_219_contact,v500,fine,GS25_ParallelGripper\WObj:=Workobject_1;
        MoveL point_219_clearance,v500,fine,GS25_ParallelGripper\WObj:=Workobject_1;
        MoveL point_220_clearance,v500,fine,GS25_ParallelGripper\WObj:=Workobject_1;
        MoveL point_220_contact,v500,fine,GS25_ParallelGripper\WObj:=Workobject_1;
        MoveL point_221_contact,v500,fine,GS25_ParallelGripper\WObj:=Workobject_1;
        MoveL point_221_clearance,v500,fine,GS25_ParallelGripper\WObj:=Workobject_1;
        MoveL point_222_clearance,v500,fine,GS25_ParallelGripper\WObj:=Workobject_1;
        MoveL point_222_contact,v500,fine,GS25_ParallelGripper\WObj:=Workobject_1;
        MoveL point_223_contact,v500,fine,GS25_ParallelGripper\WObj:=Workobject_1;
        MoveL point_223_clearance,v500,fine,GS25_ParallelGripper\WObj:=Workobject_1;
        MoveL point_224_clearance,v500,fine,GS25_ParallelGripper\WObj:=Workobject_1;
        MoveL point_224_contact,v500,fine,GS25_ParallelGripper\WObj:=Workobject_1;
        MoveL point_225_contact,v500,fine,GS25_ParallelGripper\WObj:=Workobject_1;
        MoveL point_225_clearance,v500,fine,GS25_ParallelGripper\WObj:=Workobject_1;
        MoveL point_226_clearance,v500,fine,GS25_ParallelGripper\WObj:=Workobject_1;
        MoveL point_226_contact,v500,fine,GS25_ParallelGripper\WObj:=Workobject_1;
        MoveL point_227_contact,v500,fine,GS25_ParallelGripper\WObj:=Workobject_1;
        MoveL point_227_clearance,v500,fine,GS25_ParallelGripper\WObj:=Workobject_1;
    ENDPROC
ENDMODULE