CONST robtarget point_0_clearance:=[[292,45,10],[30,-30,30],[0, 0, 0, 0],[9000000000.0, 9000000000.0, 9000000000.0, 9000000000.0, 9000000000.0, 9000000000.0], v1000, z0, tool0]
CONST robtarget point_0_contact:=[[292,45,5],[30,-30,30],[0, 0, 0, 0],[9000000000.0, 9000000000.0, 9000000000.0, 9000000000.0, 9000000000.0, 9000000000.0], v1000, z0, tool0]
CONST robtarget point_1_contact:=[[277,44,5],[30,-30,30],[0, 0, 0, 0],[9000000000.0, 9000000000.0, 9000000000.0, 9000000000.0, 9000000000.0, 9000000000.0],  v1000, z0, tool0]
CONST robtarget point_1_clearance:=[[277,44,10],[30,-30,30],[0, 0, 0, 0],[9000000000.0, 9000000000.0, 9000000000.0, 9000000000.0, 9000000000.0, 9000000000.0], v1000, z0, tool0]
CONST robtarget point_2_clearance:=[[338,52,10],[30,-30,30],[0, 0, 0, 0],[9000000000.0, 9000000000.0, 9000000000.0, 9000000000.0, 9000000000.0, 9000000000.0], v1000, z0, tool0]
CONST robtarget point_2_contact:=[[338,52,5],[30,-30,30],[0, 0, 0, 0],[9000000000.0, 9000000000.0, 9000000000.0, 9000000000.0, 9000000000.0, 9000000000.0], v1000, z0, tool0]
CONST robtarget point_3_contact:=[[291,44,5],[30,-30,30],[0, 0, 0, 0],[9000000000.0, 9000000000.0, 9000000000.0, 9000000000.0, 9000000000.0, 9000000000.0],  v1000, z0, tool0]
CONST robtarget point_3_clearance:=[[291,44,10],[30,-30,30],[0, 0, 0, 0],[9000000000.0, 9000000000.0, 9000000000.0, 9000000000.0, 9000000000.0, 9000000000.0], v1000, z0, tool0]
CONST robtarget point_4_clearance:=[[240,47,10],[30,-30,30],[0, 0, 0, 0],[9000000000.0, 9000000000.0, 9000000000.0, 9000000000.0, 9000000000.0, 9000000000.0], v1000, z0, tool0]
CONST robtarget point_4_contact:=[[240,47,5],[30,-30,30],[0, 0, 0, 0],[9000000000.0, 9000000000.0, 9000000000.0, 9000000000.0, 9000000000.0, 9000000000.0], v1000, z0, tool0]
CONST robtarget point_5_contact:=[[212,55,5],[30,-30,30],[0, 0, 0, 0],[9000000000.0, 9000000000.0, 9000000000.0, 9000000000.0, 9000000000.0, 9000000000.0],  v1000, z0, tool0]
CONST robtarget point_5_clearance:=[[212,55,10],[30,-30,30],[0, 0, 0, 0],[9000000000.0, 9000000000.0, 9000000000.0, 9000000000.0, 9000000000.0, 9000000000.0], v1000, z0, tool0]
CONST robtarget point_6_clearance:=[[255,47,10],[30,-30,30],[0, 0, 0, 0],[9000000000.0, 9000000000.0, 9000000000.0, 9000000000.0, 9000000000.0, 9000000000.0], v1000, z0, tool0]
CONST robtarget point_6_contact:=[[255,47,5],[30,-30,30],[0, 0, 0, 0],[9000000000.0, 9000000000.0, 9000000000.0, 9000000000.0, 9000000000.0, 9000000000.0], v1000, z0, tool0]
CONST robtarget point_7_contact:=[[286,47,5],[30,-30,30],[0, 0, 0, 0],[9000000000.0, 9000000000.0, 9000000000.0, 9000000000.0, 9000000000.0, 9000000000.0],  v1000, z0, tool0]
CONST robtarget point_7_clearance:=[[286,47,10],[30,-30,30],[0, 0, 0, 0],[9000000000.0, 9000000000.0, 9000000000.0, 9000000000.0, 9000000000.0, 9000000000.0], v1000, z0, tool0]
CONST robtarget point_8_clearance:=[[287,47,10],[30,-30,30],[0, 0, 0, 0],[9000000000.0, 9000000000.0, 9000000000.0, 9000000000.0, 9000000000.0, 9000000000.0], v1000, z0, tool0]
CONST robtarget point_8_contact:=[[287,47,5],[30,-30,30],[0, 0, 0, 0],[9000000000.0, 9000000000.0, 9000000000.0, 9000000000.0, 9000000000.0, 9000000000.0], v1000, z0, tool0]
CONST robtarget point_9_contact:=[[300,49,5],[30,-30,30],[0, 0, 0, 0],[9000000000.0, 9000000000.0, 9000000000.0, 9000000000.0, 9000000000.0, 9000000000.0],  v1000, z0, tool0]
CONST robtarget point_9_clearance:=[[300,49,10],[30,-30,30],[0, 0, 0, 0],[9000000000.0, 9000000000.0, 9000000000.0, 9000000000.0, 9000000000.0, 9000000000.0], v1000, z0, tool0]
CONST robtarget point_10_clearance:=[[302,53,10],[30,-30,30],[0, 0, 0, 0],[9000000000.0, 9000000000.0, 9000000000.0, 9000000000.0, 9000000000.0, 9000000000.0], v1000, z0, tool0]
CONST robtarget point_10_contact:=[[302,53,5],[30,-30,30],[0, 0, 0, 0],[9000000000.0, 9000000000.0, 9000000000.0, 9000000000.0, 9000000000.0, 9000000000.0], v1000, z0, tool0]
CONST robtarget point_11_contact:=[[277,49,5],[30,-30,30],[0, 0, 0, 0],[9000000000.0, 9000000000.0, 9000000000.0, 9000000000.0, 9000000000.0, 9000000000.0],  v1000, z0, tool0]
CONST robtarget point_11_clearance:=[[277,49,10],[30,-30,30],[0, 0, 0, 0],[9000000000.0, 9000000000.0, 9000000000.0, 9000000000.0, 9000000000.0, 9000000000.0], v1000, z0, tool0]
CONST robtarget point_12_clearance:=[[342,62,10],[30,-30,30],[0, 0, 0, 0],[9000000000.0, 9000000000.0, 9000000000.0, 9000000000.0, 9000000000.0, 9000000000.0], v1000, z0, tool0]
CONST robtarget point_12_contact:=[[342,62,5],[30,-30,30],[0, 0, 0, 0],[9000000000.0, 9000000000.0, 9000000000.0, 9000000000.0, 9000000000.0, 9000000000.0], v1000, z0, tool0]
CONST robtarget point_13_contact:=[[317,51,5],[30,-30,30],[0, 0, 0, 0],[9000000000.0, 9000000000.0, 9000000000.0, 9000000000.0, 9000000000.0, 9000000000.0],  v1000, z0, tool0]
CONST robtarget point_13_clearance:=[[317,51,10],[30,-30,30],[0, 0, 0, 0],[9000000000.0, 9000000000.0, 9000000000.0, 9000000000.0, 9000000000.0, 9000000000.0], v1000, z0, tool0]
CONST robtarget point_14_clearance:=[[237,54,10],[30,-30,30],[0, 0, 0, 0],[9000000000.0, 9000000000.0, 9000000000.0, 9000000000.0, 9000000000.0, 9000000000.0], v1000, z0, tool0]
CONST robtarget point_14_contact:=[[237,54,5],[30,-30,30],[0, 0, 0, 0],[9000000000.0, 9000000000.0, 9000000000.0, 9000000000.0, 9000000000.0, 9000000000.0], v1000, z0, tool0]
CONST robtarget point_15_contact:=[[260,53,5],[30,-30,30],[0, 0, 0, 0],[9000000000.0, 9000000000.0, 9000000000.0, 9000000000.0, 9000000000.0, 9000000000.0],  v1000, z0, tool0]
CONST robtarget point_15_clearance:=[[260,53,10],[30,-30,30],[0, 0, 0, 0],[9000000000.0, 9000000000.0, 9000000000.0, 9000000000.0, 9000000000.0, 9000000000.0], v1000, z0, tool0]
CONST robtarget point_16_clearance:=[[265,51,10],[30,-30,30],[0, 0, 0, 0],[9000000000.0, 9000000000.0, 9000000000.0, 9000000000.0, 9000000000.0, 9000000000.0], v1000, z0, tool0]
CONST robtarget point_16_contact:=[[265,51,5],[30,-30,30],[0, 0, 0, 0],[9000000000.0, 9000000000.0, 9000000000.0, 9000000000.0, 9000000000.0, 9000000000.0], v1000, z0, tool0]
CONST robtarget point_17_contact:=[[296,54,5],[30,-30,30],[0, 0, 0, 0],[9000000000.0, 9000000000.0, 9000000000.0, 9000000000.0, 9000000000.0, 9000000000.0],  v1000, z0, tool0]
CONST robtarget point_17_clearance:=[[296,54,10],[30,-30,30],[0, 0, 0, 0],[9000000000.0, 9000000000.0, 9000000000.0, 9000000000.0, 9000000000.0, 9000000000.0], v1000, z0, tool0]
CONST robtarget point_18_clearance:=[[344,54,10],[30,-30,30],[0, 0, 0, 0],[9000000000.0, 9000000000.0, 9000000000.0, 9000000000.0, 9000000000.0, 9000000000.0], v1000, z0, tool0]
CONST robtarget point_18_contact:=[[344,54,5],[30,-30,30],[0, 0, 0, 0],[9000000000.0, 9000000000.0, 9000000000.0, 9000000000.0, 9000000000.0, 9000000000.0], v1000, z0, tool0]
CONST robtarget point_19_contact:=[[337,53,5],[30,-30,30],[0, 0, 0, 0],[9000000000.0, 9000000000.0, 9000000000.0, 9000000000.0, 9000000000.0, 9000000000.0],  v1000, z0, tool0]
CONST robtarget point_19_clearance:=[[337,53,10],[30,-30,30],[0, 0, 0, 0],[9000000000.0, 9000000000.0, 9000000000.0, 9000000000.0, 9000000000.0, 9000000000.0], v1000, z0, tool0]
CONST robtarget point_20_clearance:=[[212,54,10],[30,-30,30],[0, 0, 0, 0],[9000000000.0, 9000000000.0, 9000000000.0, 9000000000.0, 9000000000.0, 9000000000.0], v1000, z0, tool0]
CONST robtarget point_20_contact:=[[212,54,5],[30,-30,30],[0, 0, 0, 0],[9000000000.0, 9000000000.0, 9000000000.0, 9000000000.0, 9000000000.0, 9000000000.0], v1000, z0, tool0]
CONST robtarget point_21_contact:=[[192,71,5],[30,-30,30],[0, 0, 0, 0],[9000000000.0, 9000000000.0, 9000000000.0, 9000000000.0, 9000000000.0, 9000000000.0],  v1000, z0, tool0]
CONST robtarget point_21_clearance:=[[192,71,10],[30,-30,30],[0, 0, 0, 0],[9000000000.0, 9000000000.0, 9000000000.0, 9000000000.0, 9000000000.0, 9000000000.0], v1000, z0, tool0]
CONST robtarget point_22_clearance:=[[297,57,10],[30,-30,30],[0, 0, 0, 0],[9000000000.0, 9000000000.0, 9000000000.0, 9000000000.0, 9000000000.0, 9000000000.0], v1000, z0, tool0]
CONST robtarget point_22_contact:=[[297,57,5],[30,-30,30],[0, 0, 0, 0],[9000000000.0, 9000000000.0, 9000000000.0, 9000000000.0, 9000000000.0, 9000000000.0], v1000, z0, tool0]
CONST robtarget point_23_contact:=[[266,53,5],[30,-30,30],[0, 0, 0, 0],[9000000000.0, 9000000000.0, 9000000000.0, 9000000000.0, 9000000000.0, 9000000000.0],  v1000, z0, tool0]
CONST robtarget point_23_clearance:=[[266,53,10],[30,-30,30],[0, 0, 0, 0],[9000000000.0, 9000000000.0, 9000000000.0, 9000000000.0, 9000000000.0, 9000000000.0], v1000, z0, tool0]
CONST robtarget point_24_clearance:=[[320,61,10],[30,-30,30],[0, 0, 0, 0],[9000000000.0, 9000000000.0, 9000000000.0, 9000000000.0, 9000000000.0, 9000000000.0], v1000, z0, tool0]
CONST robtarget point_24_contact:=[[320,61,5],[30,-30,30],[0, 0, 0, 0],[9000000000.0, 9000000000.0, 9000000000.0, 9000000000.0, 9000000000.0, 9000000000.0], v1000, z0, tool0]
CONST robtarget point_25_contact:=[[303,54,5],[30,-30,30],[0, 0, 0, 0],[9000000000.0, 9000000000.0, 9000000000.0, 9000000000.0, 9000000000.0, 9000000000.0],  v1000, z0, tool0]
CONST robtarget point_25_clearance:=[[303,54,10],[30,-30,30],[0, 0, 0, 0],[9000000000.0, 9000000000.0, 9000000000.0, 9000000000.0, 9000000000.0, 9000000000.0], v1000, z0, tool0]
CONST robtarget point_26_clearance:=[[223,55,10],[30,-30,30],[0, 0, 0, 0],[9000000000.0, 9000000000.0, 9000000000.0, 9000000000.0, 9000000000.0, 9000000000.0], v1000, z0, tool0]
CONST robtarget point_26_contact:=[[223,55,5],[30,-30,30],[0, 0, 0, 0],[9000000000.0, 9000000000.0, 9000000000.0, 9000000000.0, 9000000000.0, 9000000000.0], v1000, z0, tool0]
CONST robtarget point_27_contact:=[[215,61,5],[30,-30,30],[0, 0, 0, 0],[9000000000.0, 9000000000.0, 9000000000.0, 9000000000.0, 9000000000.0, 9000000000.0],  v1000, z0, tool0]
CONST robtarget point_27_clearance:=[[215,61,10],[30,-30,30],[0, 0, 0, 0],[9000000000.0, 9000000000.0, 9000000000.0, 9000000000.0, 9000000000.0, 9000000000.0], v1000, z0, tool0]
CONST robtarget point_28_clearance:=[[210,69,10],[30,-30,30],[0, 0, 0, 0],[9000000000.0, 9000000000.0, 9000000000.0, 9000000000.0, 9000000000.0, 9000000000.0], v1000, z0, tool0]
CONST robtarget point_28_contact:=[[210,69,5],[30,-30,30],[0, 0, 0, 0],[9000000000.0, 9000000000.0, 9000000000.0, 9000000000.0, 9000000000.0, 9000000000.0], v1000, z0, tool0]
CONST robtarget point_29_contact:=[[227,58,5],[30,-30,30],[0, 0, 0, 0],[9000000000.0, 9000000000.0, 9000000000.0, 9000000000.0, 9000000000.0, 9000000000.0],  v1000, z0, tool0]
CONST robtarget point_29_clearance:=[[227,58,10],[30,-30,30],[0, 0, 0, 0],[9000000000.0, 9000000000.0, 9000000000.0, 9000000000.0, 9000000000.0, 9000000000.0], v1000, z0, tool0]
CONST robtarget point_30_clearance:=[[251,58,10],[30,-30,30],[0, 0, 0, 0],[9000000000.0, 9000000000.0, 9000000000.0, 9000000000.0, 9000000000.0, 9000000000.0], v1000, z0, tool0]
CONST robtarget point_30_contact:=[[251,58,5],[30,-30,30],[0, 0, 0, 0],[9000000000.0, 9000000000.0, 9000000000.0, 9000000000.0, 9000000000.0, 9000000000.0], v1000, z0, tool0]
CONST robtarget point_31_contact:=[[245,58,5],[30,-30,30],[0, 0, 0, 0],[9000000000.0, 9000000000.0, 9000000000.0, 9000000000.0, 9000000000.0, 9000000000.0],  v1000, z0, tool0]
CONST robtarget point_31_clearance:=[[245,58,10],[30,-30,30],[0, 0, 0, 0],[9000000000.0, 9000000000.0, 9000000000.0, 9000000000.0, 9000000000.0, 9000000000.0], v1000, z0, tool0]
CONST robtarget point_32_clearance:=[[262,57,10],[30,-30,30],[0, 0, 0, 0],[9000000000.0, 9000000000.0, 9000000000.0, 9000000000.0, 9000000000.0, 9000000000.0], v1000, z0, tool0]
CONST robtarget point_32_contact:=[[262,57,5],[30,-30,30],[0, 0, 0, 0],[9000000000.0, 9000000000.0, 9000000000.0, 9000000000.0, 9000000000.0, 9000000000.0], v1000, z0, tool0]
CONST robtarget point_33_contact:=[[287,61,5],[30,-30,30],[0, 0, 0, 0],[9000000000.0, 9000000000.0, 9000000000.0, 9000000000.0, 9000000000.0, 9000000000.0],  v1000, z0, tool0]
CONST robtarget point_33_clearance:=[[287,61,10],[30,-30,30],[0, 0, 0, 0],[9000000000.0, 9000000000.0, 9000000000.0, 9000000000.0, 9000000000.0, 9000000000.0], v1000, z0, tool0]
CONST robtarget point_34_clearance:=[[321,57,10],[30,-30,30],[0, 0, 0, 0],[9000000000.0, 9000000000.0, 9000000000.0, 9000000000.0, 9000000000.0, 9000000000.0], v1000, z0, tool0]
CONST robtarget point_34_contact:=[[321,57,5],[30,-30,30],[0, 0, 0, 0],[9000000000.0, 9000000000.0, 9000000000.0, 9000000000.0, 9000000000.0, 9000000000.0], v1000, z0, tool0]
CONST robtarget point_35_contact:=[[326,59,5],[30,-30,30],[0, 0, 0, 0],[9000000000.0, 9000000000.0, 9000000000.0, 9000000000.0, 9000000000.0, 9000000000.0],  v1000, z0, tool0]
CONST robtarget point_35_clearance:=[[326,59,10],[30,-30,30],[0, 0, 0, 0],[9000000000.0, 9000000000.0, 9000000000.0, 9000000000.0, 9000000000.0, 9000000000.0], v1000, z0, tool0]
CONST robtarget point_36_clearance:=[[363,62,10],[30,-30,30],[0, 0, 0, 0],[9000000000.0, 9000000000.0, 9000000000.0, 9000000000.0, 9000000000.0, 9000000000.0], v1000, z0, tool0]
CONST robtarget point_36_contact:=[[363,62,5],[30,-30,30],[0, 0, 0, 0],[9000000000.0, 9000000000.0, 9000000000.0, 9000000000.0, 9000000000.0, 9000000000.0], v1000, z0, tool0]
CONST robtarget point_37_contact:=[[346,58,5],[30,-30,30],[0, 0, 0, 0],[9000000000.0, 9000000000.0, 9000000000.0, 9000000000.0, 9000000000.0, 9000000000.0],  v1000, z0, tool0]
CONST robtarget point_37_clearance:=[[346,58,10],[30,-30,30],[0, 0, 0, 0],[9000000000.0, 9000000000.0, 9000000000.0, 9000000000.0, 9000000000.0, 9000000000.0], v1000, z0, tool0]
CONST robtarget point_38_clearance:=[[291,58,10],[30,-30,30],[0, 0, 0, 0],[9000000000.0, 9000000000.0, 9000000000.0, 9000000000.0, 9000000000.0, 9000000000.0], v1000, z0, tool0]
CONST robtarget point_38_contact:=[[291,58,5],[30,-30,30],[0, 0, 0, 0],[9000000000.0, 9000000000.0, 9000000000.0, 9000000000.0, 9000000000.0, 9000000000.0], v1000, z0, tool0]
CONST robtarget point_39_contact:=[[305,62,5],[30,-30,30],[0, 0, 0, 0],[9000000000.0, 9000000000.0, 9000000000.0, 9000000000.0, 9000000000.0, 9000000000.0],  v1000, z0, tool0]
CONST robtarget point_39_clearance:=[[305,62,10],[30,-30,30],[0, 0, 0, 0],[9000000000.0, 9000000000.0, 9000000000.0, 9000000000.0, 9000000000.0, 9000000000.0], v1000, z0, tool0]
CONST robtarget point_40_clearance:=[[327,59,10],[30,-30,30],[0, 0, 0, 0],[9000000000.0, 9000000000.0, 9000000000.0, 9000000000.0, 9000000000.0, 9000000000.0], v1000, z0, tool0]
CONST robtarget point_40_contact:=[[327,59,5],[30,-30,30],[0, 0, 0, 0],[9000000000.0, 9000000000.0, 9000000000.0, 9000000000.0, 9000000000.0, 9000000000.0], v1000, z0, tool0]
CONST robtarget point_41_contact:=[[341,65,5],[30,-30,30],[0, 0, 0, 0],[9000000000.0, 9000000000.0, 9000000000.0, 9000000000.0, 9000000000.0, 9000000000.0],  v1000, z0, tool0]
CONST robtarget point_41_clearance:=[[341,65,10],[30,-30,30],[0, 0, 0, 0],[9000000000.0, 9000000000.0, 9000000000.0, 9000000000.0, 9000000000.0, 9000000000.0], v1000, z0, tool0]
CONST robtarget point_42_clearance:=[[276,61,10],[30,-30,30],[0, 0, 0, 0],[9000000000.0, 9000000000.0, 9000000000.0, 9000000000.0, 9000000000.0, 9000000000.0], v1000, z0, tool0]
CONST robtarget point_42_contact:=[[276,61,5],[30,-30,30],[0, 0, 0, 0],[9000000000.0, 9000000000.0, 9000000000.0, 9000000000.0, 9000000000.0, 9000000000.0], v1000, z0, tool0]
CONST robtarget point_43_contact:=[[258,59,5],[30,-30,30],[0, 0, 0, 0],[9000000000.0, 9000000000.0, 9000000000.0, 9000000000.0, 9000000000.0, 9000000000.0],  v1000, z0, tool0]
CONST robtarget point_43_clearance:=[[258,59,10],[30,-30,30],[0, 0, 0, 0],[9000000000.0, 9000000000.0, 9000000000.0, 9000000000.0, 9000000000.0, 9000000000.0], v1000, z0, tool0]
CONST robtarget point_44_clearance:=[[302,59,10],[30,-30,30],[0, 0, 0, 0],[9000000000.0, 9000000000.0, 9000000000.0, 9000000000.0, 9000000000.0, 9000000000.0], v1000, z0, tool0]
CONST robtarget point_44_contact:=[[302,59,5],[30,-30,30],[0, 0, 0, 0],[9000000000.0, 9000000000.0, 9000000000.0, 9000000000.0, 9000000000.0, 9000000000.0], v1000, z0, tool0]
CONST robtarget point_45_contact:=[[318,68,5],[30,-30,30],[0, 0, 0, 0],[9000000000.0, 9000000000.0, 9000000000.0, 9000000000.0, 9000000000.0, 9000000000.0],  v1000, z0, tool0]
CONST robtarget point_45_clearance:=[[318,68,10],[30,-30,30],[0, 0, 0, 0],[9000000000.0, 9000000000.0, 9000000000.0, 9000000000.0, 9000000000.0, 9000000000.0], v1000, z0, tool0]
CONST robtarget point_46_clearance:=[[286,65,10],[30,-30,30],[0, 0, 0, 0],[9000000000.0, 9000000000.0, 9000000000.0, 9000000000.0, 9000000000.0, 9000000000.0], v1000, z0, tool0]
CONST robtarget point_46_contact:=[[286,65,5],[30,-30,30],[0, 0, 0, 0],[9000000000.0, 9000000000.0, 9000000000.0, 9000000000.0, 9000000000.0, 9000000000.0], v1000, z0, tool0]
CONST robtarget point_47_contact:=[[292,62,5],[30,-30,30],[0, 0, 0, 0],[9000000000.0, 9000000000.0, 9000000000.0, 9000000000.0, 9000000000.0, 9000000000.0],  v1000, z0, tool0]
CONST robtarget point_47_clearance:=[[292,62,10],[30,-30,30],[0, 0, 0, 0],[9000000000.0, 9000000000.0, 9000000000.0, 9000000000.0, 9000000000.0, 9000000000.0], v1000, z0, tool0]
CONST robtarget point_48_clearance:=[[292,65,10],[30,-30,30],[0, 0, 0, 0],[9000000000.0, 9000000000.0, 9000000000.0, 9000000000.0, 9000000000.0, 9000000000.0], v1000, z0, tool0]
CONST robtarget point_48_contact:=[[292,65,5],[30,-30,30],[0, 0, 0, 0],[9000000000.0, 9000000000.0, 9000000000.0, 9000000000.0, 9000000000.0, 9000000000.0], v1000, z0, tool0]
CONST robtarget point_49_contact:=[[295,63,5],[30,-30,30],[0, 0, 0, 0],[9000000000.0, 9000000000.0, 9000000000.0, 9000000000.0, 9000000000.0, 9000000000.0],  v1000, z0, tool0]
CONST robtarget point_49_clearance:=[[295,63,10],[30,-30,30],[0, 0, 0, 0],[9000000000.0, 9000000000.0, 9000000000.0, 9000000000.0, 9000000000.0, 9000000000.0], v1000, z0, tool0]
CONST robtarget point_50_clearance:=[[371,71,10],[30,-30,30],[0, 0, 0, 0],[9000000000.0, 9000000000.0, 9000000000.0, 9000000000.0, 9000000000.0, 9000000000.0], v1000, z0, tool0]
CONST robtarget point_50_contact:=[[371,71,5],[30,-30,30],[0, 0, 0, 0],[9000000000.0, 9000000000.0, 9000000000.0, 9000000000.0, 9000000000.0, 9000000000.0], v1000, z0, tool0]
CONST robtarget point_51_contact:=[[365,62,5],[30,-30,30],[0, 0, 0, 0],[9000000000.0, 9000000000.0, 9000000000.0, 9000000000.0, 9000000000.0, 9000000000.0],  v1000, z0, tool0]
CONST robtarget point_51_clearance:=[[365,62,10],[30,-30,30],[0, 0, 0, 0],[9000000000.0, 9000000000.0, 9000000000.0, 9000000000.0, 9000000000.0, 9000000000.0], v1000, z0, tool0]
CONST robtarget point_52_clearance:=[[273,63,10],[30,-30,30],[0, 0, 0, 0],[9000000000.0, 9000000000.0, 9000000000.0, 9000000000.0, 9000000000.0, 9000000000.0], v1000, z0, tool0]
CONST robtarget point_52_contact:=[[273,63,5],[30,-30,30],[0, 0, 0, 0],[9000000000.0, 9000000000.0, 9000000000.0, 9000000000.0, 9000000000.0, 9000000000.0], v1000, z0, tool0]
CONST robtarget point_53_contact:=[[287,66,5],[30,-30,30],[0, 0, 0, 0],[9000000000.0, 9000000000.0, 9000000000.0, 9000000000.0, 9000000000.0, 9000000000.0],  v1000, z0, tool0]
CONST robtarget point_53_clearance:=[[287,66,10],[30,-30,30],[0, 0, 0, 0],[9000000000.0, 9000000000.0, 9000000000.0, 9000000000.0, 9000000000.0, 9000000000.0], v1000, z0, tool0]
CONST robtarget point_54_clearance:=[[360,68,10],[30,-30,30],[0, 0, 0, 0],[9000000000.0, 9000000000.0, 9000000000.0, 9000000000.0, 9000000000.0, 9000000000.0], v1000, z0, tool0]
CONST robtarget point_54_contact:=[[360,68,5],[30,-30,30],[0, 0, 0, 0],[9000000000.0, 9000000000.0, 9000000000.0, 9000000000.0, 9000000000.0, 9000000000.0], v1000, z0, tool0]
CONST robtarget point_55_contact:=[[351,63,5],[30,-30,30],[0, 0, 0, 0],[9000000000.0, 9000000000.0, 9000000000.0, 9000000000.0, 9000000000.0, 9000000000.0],  v1000, z0, tool0]
CONST robtarget point_55_clearance:=[[351,63,10],[30,-30,30],[0, 0, 0, 0],[9000000000.0, 9000000000.0, 9000000000.0, 9000000000.0, 9000000000.0, 9000000000.0], v1000, z0, tool0]
CONST robtarget point_56_clearance:=[[277,69,10],[30,-30,30],[0, 0, 0, 0],[9000000000.0, 9000000000.0, 9000000000.0, 9000000000.0, 9000000000.0, 9000000000.0], v1000, z0, tool0]
CONST robtarget point_56_contact:=[[277,69,5],[30,-30,30],[0, 0, 0, 0],[9000000000.0, 9000000000.0, 9000000000.0, 9000000000.0, 9000000000.0, 9000000000.0], v1000, z0, tool0]
CONST robtarget point_57_contact:=[[268,66,5],[30,-30,30],[0, 0, 0, 0],[9000000000.0, 9000000000.0, 9000000000.0, 9000000000.0, 9000000000.0, 9000000000.0],  v1000, z0, tool0]
CONST robtarget point_57_clearance:=[[268,66,10],[30,-30,30],[0, 0, 0, 0],[9000000000.0, 9000000000.0, 9000000000.0, 9000000000.0, 9000000000.0, 9000000000.0], v1000, z0, tool0]
CONST robtarget point_58_clearance:=[[328,68,10],[30,-30,30],[0, 0, 0, 0],[9000000000.0, 9000000000.0, 9000000000.0, 9000000000.0, 9000000000.0, 9000000000.0], v1000, z0, tool0]
CONST robtarget point_58_contact:=[[328,68,5],[30,-30,30],[0, 0, 0, 0],[9000000000.0, 9000000000.0, 9000000000.0, 9000000000.0, 9000000000.0, 9000000000.0], v1000, z0, tool0]
CONST robtarget point_59_contact:=[[333,67,5],[30,-30,30],[0, 0, 0, 0],[9000000000.0, 9000000000.0, 9000000000.0, 9000000000.0, 9000000000.0, 9000000000.0],  v1000, z0, tool0]
CONST robtarget point_59_clearance:=[[333,67,10],[30,-30,30],[0, 0, 0, 0],[9000000000.0, 9000000000.0, 9000000000.0, 9000000000.0, 9000000000.0, 9000000000.0], v1000, z0, tool0]
CONST robtarget point_60_clearance:=[[344,66,10],[30,-30,30],[0, 0, 0, 0],[9000000000.0, 9000000000.0, 9000000000.0, 9000000000.0, 9000000000.0, 9000000000.0], v1000, z0, tool0]
CONST robtarget point_60_contact:=[[344,66,5],[30,-30,30],[0, 0, 0, 0],[9000000000.0, 9000000000.0, 9000000000.0, 9000000000.0, 9000000000.0, 9000000000.0], v1000, z0, tool0]
CONST robtarget point_61_contact:=[[353,69,5],[30,-30,30],[0, 0, 0, 0],[9000000000.0, 9000000000.0, 9000000000.0, 9000000000.0, 9000000000.0, 9000000000.0],  v1000, z0, tool0]
CONST robtarget point_61_clearance:=[[353,69,10],[30,-30,30],[0, 0, 0, 0],[9000000000.0, 9000000000.0, 9000000000.0, 9000000000.0, 9000000000.0, 9000000000.0], v1000, z0, tool0]
CONST robtarget point_62_clearance:=[[287,66,10],[30,-30,30],[0, 0, 0, 0],[9000000000.0, 9000000000.0, 9000000000.0, 9000000000.0, 9000000000.0, 9000000000.0], v1000, z0, tool0]
CONST robtarget point_62_contact:=[[287,66,5],[30,-30,30],[0, 0, 0, 0],[9000000000.0, 9000000000.0, 9000000000.0, 9000000000.0, 9000000000.0, 9000000000.0], v1000, z0, tool0]
CONST robtarget point_63_contact:=[[302,70,5],[30,-30,30],[0, 0, 0, 0],[9000000000.0, 9000000000.0, 9000000000.0, 9000000000.0, 9000000000.0, 9000000000.0],  v1000, z0, tool0]
CONST robtarget point_63_clearance:=[[302,70,10],[30,-30,30],[0, 0, 0, 0],[9000000000.0, 9000000000.0, 9000000000.0, 9000000000.0, 9000000000.0, 9000000000.0], v1000, z0, tool0]
CONST robtarget point_64_clearance:=[[220,67,10],[30,-30,30],[0, 0, 0, 0],[9000000000.0, 9000000000.0, 9000000000.0, 9000000000.0, 9000000000.0, 9000000000.0], v1000, z0, tool0]
CONST robtarget point_64_contact:=[[220,67,5],[30,-30,30],[0, 0, 0, 0],[9000000000.0, 9000000000.0, 9000000000.0, 9000000000.0, 9000000000.0, 9000000000.0], v1000, z0, tool0]
CONST robtarget point_65_contact:=[[232,67,5],[30,-30,30],[0, 0, 0, 0],[9000000000.0, 9000000000.0, 9000000000.0, 9000000000.0, 9000000000.0, 9000000000.0],  v1000, z0, tool0]
CONST robtarget point_65_clearance:=[[232,67,10],[30,-30,30],[0, 0, 0, 0],[9000000000.0, 9000000000.0, 9000000000.0, 9000000000.0, 9000000000.0, 9000000000.0], v1000, z0, tool0]
CONST robtarget point_66_clearance:=[[276,71,10],[30,-30,30],[0, 0, 0, 0],[9000000000.0, 9000000000.0, 9000000000.0, 9000000000.0, 9000000000.0, 9000000000.0], v1000, z0, tool0]
CONST robtarget point_66_contact:=[[276,71,5],[30,-30,30],[0, 0, 0, 0],[9000000000.0, 9000000000.0, 9000000000.0, 9000000000.0, 9000000000.0, 9000000000.0], v1000, z0, tool0]
CONST robtarget point_67_contact:=[[283,68,5],[30,-30,30],[0, 0, 0, 0],[9000000000.0, 9000000000.0, 9000000000.0, 9000000000.0, 9000000000.0, 9000000000.0],  v1000, z0, tool0]
CONST robtarget point_67_clearance:=[[283,68,10],[30,-30,30],[0, 0, 0, 0],[9000000000.0, 9000000000.0, 9000000000.0, 9000000000.0, 9000000000.0, 9000000000.0], v1000, z0, tool0]
CONST robtarget point_68_clearance:=[[194,74,10],[30,-30,30],[0, 0, 0, 0],[9000000000.0, 9000000000.0, 9000000000.0, 9000000000.0, 9000000000.0, 9000000000.0], v1000, z0, tool0]
CONST robtarget point_68_contact:=[[194,74,5],[30,-30,30],[0, 0, 0, 0],[9000000000.0, 9000000000.0, 9000000000.0, 9000000000.0, 9000000000.0, 9000000000.0], v1000, z0, tool0]
CONST robtarget point_69_contact:=[[208,69,5],[30,-30,30],[0, 0, 0, 0],[9000000000.0, 9000000000.0, 9000000000.0, 9000000000.0, 9000000000.0, 9000000000.0],  v1000, z0, tool0]
CONST robtarget point_69_clearance:=[[208,69,10],[30,-30,30],[0, 0, 0, 0],[9000000000.0, 9000000000.0, 9000000000.0, 9000000000.0, 9000000000.0, 9000000000.0], v1000, z0, tool0]
CONST robtarget point_70_clearance:=[[289,69,10],[30,-30,30],[0, 0, 0, 0],[9000000000.0, 9000000000.0, 9000000000.0, 9000000000.0, 9000000000.0, 9000000000.0], v1000, z0, tool0]
CONST robtarget point_70_contact:=[[289,69,5],[30,-30,30],[0, 0, 0, 0],[9000000000.0, 9000000000.0, 9000000000.0, 9000000000.0, 9000000000.0, 9000000000.0], v1000, z0, tool0]
CONST robtarget point_71_contact:=[[282,73,5],[30,-30,30],[0, 0, 0, 0],[9000000000.0, 9000000000.0, 9000000000.0, 9000000000.0, 9000000000.0, 9000000000.0],  v1000, z0, tool0]
CONST robtarget point_71_clearance:=[[282,73,10],[30,-30,30],[0, 0, 0, 0],[9000000000.0, 9000000000.0, 9000000000.0, 9000000000.0, 9000000000.0, 9000000000.0], v1000, z0, tool0]
CONST robtarget point_72_clearance:=[[327,74,10],[30,-30,30],[0, 0, 0, 0],[9000000000.0, 9000000000.0, 9000000000.0, 9000000000.0, 9000000000.0, 9000000000.0], v1000, z0, tool0]
CONST robtarget point_72_contact:=[[327,74,5],[30,-30,30],[0, 0, 0, 0],[9000000000.0, 9000000000.0, 9000000000.0, 9000000000.0, 9000000000.0, 9000000000.0], v1000, z0, tool0]
CONST robtarget point_73_contact:=[[288,76,5],[30,-30,30],[0, 0, 0, 0],[9000000000.0, 9000000000.0, 9000000000.0, 9000000000.0, 9000000000.0, 9000000000.0],  v1000, z0, tool0]
CONST robtarget point_73_clearance:=[[288,76,10],[30,-30,30],[0, 0, 0, 0],[9000000000.0, 9000000000.0, 9000000000.0, 9000000000.0, 9000000000.0, 9000000000.0], v1000, z0, tool0]
CONST robtarget point_74_clearance:=[[330,69,10],[30,-30,30],[0, 0, 0, 0],[9000000000.0, 9000000000.0, 9000000000.0, 9000000000.0, 9000000000.0, 9000000000.0], v1000, z0, tool0]
CONST robtarget point_74_contact:=[[330,69,5],[30,-30,30],[0, 0, 0, 0],[9000000000.0, 9000000000.0, 9000000000.0, 9000000000.0, 9000000000.0, 9000000000.0], v1000, z0, tool0]
CONST robtarget point_75_contact:=[[328,78,5],[30,-30,30],[0, 0, 0, 0],[9000000000.0, 9000000000.0, 9000000000.0, 9000000000.0, 9000000000.0, 9000000000.0],  v1000, z0, tool0]
CONST robtarget point_75_clearance:=[[328,78,10],[30,-30,30],[0, 0, 0, 0],[9000000000.0, 9000000000.0, 9000000000.0, 9000000000.0, 9000000000.0, 9000000000.0], v1000, z0, tool0]
CONST robtarget point_76_clearance:=[[330,74,10],[30,-30,30],[0, 0, 0, 0],[9000000000.0, 9000000000.0, 9000000000.0, 9000000000.0, 9000000000.0, 9000000000.0], v1000, z0, tool0]
CONST robtarget point_76_contact:=[[330,74,5],[30,-30,30],[0, 0, 0, 0],[9000000000.0, 9000000000.0, 9000000000.0, 9000000000.0, 9000000000.0, 9000000000.0], v1000, z0, tool0]
CONST robtarget point_77_contact:=[[341,72,5],[30,-30,30],[0, 0, 0, 0],[9000000000.0, 9000000000.0, 9000000000.0, 9000000000.0, 9000000000.0, 9000000000.0],  v1000, z0, tool0]
CONST robtarget point_77_clearance:=[[341,72,10],[30,-30,30],[0, 0, 0, 0],[9000000000.0, 9000000000.0, 9000000000.0, 9000000000.0, 9000000000.0, 9000000000.0], v1000, z0, tool0]
CONST robtarget point_78_clearance:=[[193,71,10],[30,-30,30],[0, 0, 0, 0],[9000000000.0, 9000000000.0, 9000000000.0, 9000000000.0, 9000000000.0, 9000000000.0], v1000, z0, tool0]
CONST robtarget point_78_contact:=[[193,71,5],[30,-30,30],[0, 0, 0, 0],[9000000000.0, 9000000000.0, 9000000000.0, 9000000000.0, 9000000000.0, 9000000000.0], v1000, z0, tool0]
CONST robtarget point_79_contact:=[[172,99,5],[30,-30,30],[0, 0, 0, 0],[9000000000.0, 9000000000.0, 9000000000.0, 9000000000.0, 9000000000.0, 9000000000.0],  v1000, z0, tool0]
CONST robtarget point_79_clearance:=[[172,99,10],[30,-30,30],[0, 0, 0, 0],[9000000000.0, 9000000000.0, 9000000000.0, 9000000000.0, 9000000000.0, 9000000000.0], v1000, z0, tool0]
CONST robtarget point_80_clearance:=[[217,73,10],[30,-30,30],[0, 0, 0, 0],[9000000000.0, 9000000000.0, 9000000000.0, 9000000000.0, 9000000000.0, 9000000000.0], v1000, z0, tool0]
CONST robtarget point_80_contact:=[[217,73,5],[30,-30,30],[0, 0, 0, 0],[9000000000.0, 9000000000.0, 9000000000.0, 9000000000.0, 9000000000.0, 9000000000.0], v1000, z0, tool0]
CONST robtarget point_81_contact:=[[245,72,5],[30,-30,30],[0, 0, 0, 0],[9000000000.0, 9000000000.0, 9000000000.0, 9000000000.0, 9000000000.0, 9000000000.0],  v1000, z0, tool0]
CONST robtarget point_81_clearance:=[[245,72,10],[30,-30,30],[0, 0, 0, 0],[9000000000.0, 9000000000.0, 9000000000.0, 9000000000.0, 9000000000.0, 9000000000.0], v1000, z0, tool0]
CONST robtarget point_82_clearance:=[[354,78,10],[30,-30,30],[0, 0, 0, 0],[9000000000.0, 9000000000.0, 9000000000.0, 9000000000.0, 9000000000.0, 9000000000.0], v1000, z0, tool0]
CONST robtarget point_82_contact:=[[354,78,5],[30,-30,30],[0, 0, 0, 0],[9000000000.0, 9000000000.0, 9000000000.0, 9000000000.0, 9000000000.0, 9000000000.0], v1000, z0, tool0]
CONST robtarget point_83_contact:=[[341,74,5],[30,-30,30],[0, 0, 0, 0],[9000000000.0, 9000000000.0, 9000000000.0, 9000000000.0, 9000000000.0, 9000000000.0],  v1000, z0, tool0]
CONST robtarget point_83_clearance:=[[341,74,10],[30,-30,30],[0, 0, 0, 0],[9000000000.0, 9000000000.0, 9000000000.0, 9000000000.0, 9000000000.0, 9000000000.0], v1000, z0, tool0]
CONST robtarget point_84_clearance:=[[191,84,10],[30,-30,30],[0, 0, 0, 0],[9000000000.0, 9000000000.0, 9000000000.0, 9000000000.0, 9000000000.0, 9000000000.0], v1000, z0, tool0]
CONST robtarget point_84_contact:=[[191,84,5],[30,-30,30],[0, 0, 0, 0],[9000000000.0, 9000000000.0, 9000000000.0, 9000000000.0, 9000000000.0, 9000000000.0], v1000, z0, tool0]
CONST robtarget point_85_contact:=[[209,74,5],[30,-30,30],[0, 0, 0, 0],[9000000000.0, 9000000000.0, 9000000000.0, 9000000000.0, 9000000000.0, 9000000000.0],  v1000, z0, tool0]
CONST robtarget point_85_clearance:=[[209,74,10],[30,-30,30],[0, 0, 0, 0],[9000000000.0, 9000000000.0, 9000000000.0, 9000000000.0, 9000000000.0, 9000000000.0], v1000, z0, tool0]
CONST robtarget point_86_clearance:=[[273,74,10],[30,-30,30],[0, 0, 0, 0],[9000000000.0, 9000000000.0, 9000000000.0, 9000000000.0, 9000000000.0, 9000000000.0], v1000, z0, tool0]
CONST robtarget point_86_contact:=[[273,74,5],[30,-30,30],[0, 0, 0, 0],[9000000000.0, 9000000000.0, 9000000000.0, 9000000000.0, 9000000000.0, 9000000000.0], v1000, z0, tool0]
CONST robtarget point_87_contact:=[[263,74,5],[30,-30,30],[0, 0, 0, 0],[9000000000.0, 9000000000.0, 9000000000.0, 9000000000.0, 9000000000.0, 9000000000.0],  v1000, z0, tool0]
CONST robtarget point_87_clearance:=[[263,74,10],[30,-30,30],[0, 0, 0, 0],[9000000000.0, 9000000000.0, 9000000000.0, 9000000000.0, 9000000000.0, 9000000000.0], v1000, z0, tool0]
CONST robtarget point_88_clearance:=[[289,79,10],[30,-30,30],[0, 0, 0, 0],[9000000000.0, 9000000000.0, 9000000000.0, 9000000000.0, 9000000000.0, 9000000000.0], v1000, z0, tool0]
CONST robtarget point_88_contact:=[[289,79,5],[30,-30,30],[0, 0, 0, 0],[9000000000.0, 9000000000.0, 9000000000.0, 9000000000.0, 9000000000.0, 9000000000.0], v1000, z0, tool0]
CONST robtarget point_89_contact:=[[274,74,5],[30,-30,30],[0, 0, 0, 0],[9000000000.0, 9000000000.0, 9000000000.0, 9000000000.0, 9000000000.0, 9000000000.0],  v1000, z0, tool0]
CONST robtarget point_89_clearance:=[[274,74,10],[30,-30,30],[0, 0, 0, 0],[9000000000.0, 9000000000.0, 9000000000.0, 9000000000.0, 9000000000.0, 9000000000.0], v1000, z0, tool0]
CONST robtarget point_90_clearance:=[[247,76,10],[30,-30,30],[0, 0, 0, 0],[9000000000.0, 9000000000.0, 9000000000.0, 9000000000.0, 9000000000.0, 9000000000.0], v1000, z0, tool0]
CONST robtarget point_90_contact:=[[247,76,5],[30,-30,30],[0, 0, 0, 0],[9000000000.0, 9000000000.0, 9000000000.0, 9000000000.0, 9000000000.0, 9000000000.0], v1000, z0, tool0]
CONST robtarget point_91_contact:=[[223,80,5],[30,-30,30],[0, 0, 0, 0],[9000000000.0, 9000000000.0, 9000000000.0, 9000000000.0, 9000000000.0, 9000000000.0],  v1000, z0, tool0]
CONST robtarget point_91_clearance:=[[223,80,10],[30,-30,30],[0, 0, 0, 0],[9000000000.0, 9000000000.0, 9000000000.0, 9000000000.0, 9000000000.0, 9000000000.0], v1000, z0, tool0]
CONST robtarget point_92_clearance:=[[358,76,10],[30,-30,30],[0, 0, 0, 0],[9000000000.0, 9000000000.0, 9000000000.0, 9000000000.0, 9000000000.0, 9000000000.0], v1000, z0, tool0]
CONST robtarget point_92_contact:=[[358,76,5],[30,-30,30],[0, 0, 0, 0],[9000000000.0, 9000000000.0, 9000000000.0, 9000000000.0, 9000000000.0, 9000000000.0], v1000, z0, tool0]
CONST robtarget point_93_contact:=[[355,77,5],[30,-30,30],[0, 0, 0, 0],[9000000000.0, 9000000000.0, 9000000000.0, 9000000000.0, 9000000000.0, 9000000000.0],  v1000, z0, tool0]
CONST robtarget point_93_clearance:=[[355,77,10],[30,-30,30],[0, 0, 0, 0],[9000000000.0, 9000000000.0, 9000000000.0, 9000000000.0, 9000000000.0, 9000000000.0], v1000, z0, tool0]
CONST robtarget point_94_clearance:=[[360,75,10],[30,-30,30],[0, 0, 0, 0],[9000000000.0, 9000000000.0, 9000000000.0, 9000000000.0, 9000000000.0, 9000000000.0], v1000, z0, tool0]
CONST robtarget point_94_contact:=[[360,75,5],[30,-30,30],[0, 0, 0, 0],[9000000000.0, 9000000000.0, 9000000000.0, 9000000000.0, 9000000000.0, 9000000000.0], v1000, z0, tool0]
CONST robtarget point_95_contact:=[[374,79,5],[30,-30,30],[0, 0, 0, 0],[9000000000.0, 9000000000.0, 9000000000.0, 9000000000.0, 9000000000.0, 9000000000.0],  v1000, z0, tool0]
CONST robtarget point_95_clearance:=[[374,79,10],[30,-30,30],[0, 0, 0, 0],[9000000000.0, 9000000000.0, 9000000000.0, 9000000000.0, 9000000000.0, 9000000000.0], v1000, z0, tool0]
CONST robtarget point_96_clearance:=[[379,82,10],[30,-30,30],[0, 0, 0, 0],[9000000000.0, 9000000000.0, 9000000000.0, 9000000000.0, 9000000000.0, 9000000000.0], v1000, z0, tool0]
CONST robtarget point_96_contact:=[[379,82,5],[30,-30,30],[0, 0, 0, 0],[9000000000.0, 9000000000.0, 9000000000.0, 9000000000.0, 9000000000.0, 9000000000.0], v1000, z0, tool0]
CONST robtarget point_97_contact:=[[371,75,5],[30,-30,30],[0, 0, 0, 0],[9000000000.0, 9000000000.0, 9000000000.0, 9000000000.0, 9000000000.0, 9000000000.0],  v1000, z0, tool0]
CONST robtarget point_97_clearance:=[[371,75,10],[30,-30,30],[0, 0, 0, 0],[9000000000.0, 9000000000.0, 9000000000.0, 9000000000.0, 9000000000.0, 9000000000.0], v1000, z0, tool0]
CONST robtarget point_98_clearance:=[[271,80,10],[30,-30,30],[0, 0, 0, 0],[9000000000.0, 9000000000.0, 9000000000.0, 9000000000.0, 9000000000.0, 9000000000.0], v1000, z0, tool0]
CONST robtarget point_98_contact:=[[271,80,5],[30,-30,30],[0, 0, 0, 0],[9000000000.0, 9000000000.0, 9000000000.0, 9000000000.0, 9000000000.0, 9000000000.0], v1000, z0, tool0]
CONST robtarget point_99_contact:=[[247,80,5],[30,-30,30],[0, 0, 0, 0],[9000000000.0, 9000000000.0, 9000000000.0, 9000000000.0, 9000000000.0, 9000000000.0],  v1000, z0, tool0]
CONST robtarget point_99_clearance:=[[247,80,10],[30,-30,30],[0, 0, 0, 0],[9000000000.0, 9000000000.0, 9000000000.0, 9000000000.0, 9000000000.0, 9000000000.0], v1000, z0, tool0]
CONST robtarget point_100_clearance:=[[211,77,10],[30,-30,30],[0, 0, 0, 0],[9000000000.0, 9000000000.0, 9000000000.0, 9000000000.0, 9000000000.0, 9000000000.0], v1000, z0, tool0]
CONST robtarget point_100_contact:=[[211,77,5],[30,-30,30],[0, 0, 0, 0],[9000000000.0, 9000000000.0, 9000000000.0, 9000000000.0, 9000000000.0, 9000000000.0], v1000, z0, tool0]
CONST robtarget point_101_contact:=[[197,83,5],[30,-30,30],[0, 0, 0, 0],[9000000000.0, 9000000000.0, 9000000000.0, 9000000000.0, 9000000000.0, 9000000000.0],  v1000, z0, tool0]
CONST robtarget point_101_clearance:=[[197,83,10],[30,-30,30],[0, 0, 0, 0],[9000000000.0, 9000000000.0, 9000000000.0, 9000000000.0, 9000000000.0, 9000000000.0], v1000, z0, tool0]
CONST robtarget point_102_clearance:=[[207,81,10],[30,-30,30],[0, 0, 0, 0],[9000000000.0, 9000000000.0, 9000000000.0, 9000000000.0, 9000000000.0, 9000000000.0], v1000, z0, tool0]
CONST robtarget point_102_contact:=[[207,81,5],[30,-30,30],[0, 0, 0, 0],[9000000000.0, 9000000000.0, 9000000000.0, 9000000000.0, 9000000000.0, 9000000000.0], v1000, z0, tool0]
CONST robtarget point_103_contact:=[[221,77,5],[30,-30,30],[0, 0, 0, 0],[9000000000.0, 9000000000.0, 9000000000.0, 9000000000.0, 9000000000.0, 9000000000.0],  v1000, z0, tool0]
CONST robtarget point_103_clearance:=[[221,77,10],[30,-30,30],[0, 0, 0, 0],[9000000000.0, 9000000000.0, 9000000000.0, 9000000000.0, 9000000000.0, 9000000000.0], v1000, z0, tool0]
CONST robtarget point_104_clearance:=[[224,80,10],[30,-30,30],[0, 0, 0, 0],[9000000000.0, 9000000000.0, 9000000000.0, 9000000000.0, 9000000000.0, 9000000000.0], v1000, z0, tool0]
CONST robtarget point_104_contact:=[[224,80,5],[30,-30,30],[0, 0, 0, 0],[9000000000.0, 9000000000.0, 9000000000.0, 9000000000.0, 9000000000.0, 9000000000.0], v1000, z0, tool0]
CONST robtarget point_105_contact:=[[215,84,5],[30,-30,30],[0, 0, 0, 0],[9000000000.0, 9000000000.0, 9000000000.0, 9000000000.0, 9000000000.0, 9000000000.0],  v1000, z0, tool0]
CONST robtarget point_105_clearance:=[[215,84,10],[30,-30,30],[0, 0, 0, 0],[9000000000.0, 9000000000.0, 9000000000.0, 9000000000.0, 9000000000.0, 9000000000.0], v1000, z0, tool0]
CONST robtarget point_106_clearance:=[[290,82,10],[30,-30,30],[0, 0, 0, 0],[9000000000.0, 9000000000.0, 9000000000.0, 9000000000.0, 9000000000.0, 9000000000.0], v1000, z0, tool0]
CONST robtarget point_106_contact:=[[290,82,5],[30,-30,30],[0, 0, 0, 0],[9000000000.0, 9000000000.0, 9000000000.0, 9000000000.0, 9000000000.0, 9000000000.0], v1000, z0, tool0]
CONST robtarget point_107_contact:=[[272,80,5],[30,-30,30],[0, 0, 0, 0],[9000000000.0, 9000000000.0, 9000000000.0, 9000000000.0, 9000000000.0, 9000000000.0],  v1000, z0, tool0]
CONST robtarget point_107_clearance:=[[272,80,10],[30,-30,30],[0, 0, 0, 0],[9000000000.0, 9000000000.0, 9000000000.0, 9000000000.0, 9000000000.0, 9000000000.0], v1000, z0, tool0]
CONST robtarget point_108_clearance:=[[374,99,10],[30,-30,30],[0, 0, 0, 0],[9000000000.0, 9000000000.0, 9000000000.0, 9000000000.0, 9000000000.0, 9000000000.0], v1000, z0, tool0]
CONST robtarget point_108_contact:=[[374,99,5],[30,-30,30],[0, 0, 0, 0],[9000000000.0, 9000000000.0, 9000000000.0, 9000000000.0, 9000000000.0, 9000000000.0], v1000, z0, tool0]
CONST robtarget point_109_contact:=[[354,79,5],[30,-30,30],[0, 0, 0, 0],[9000000000.0, 9000000000.0, 9000000000.0, 9000000000.0, 9000000000.0, 9000000000.0],  v1000, z0, tool0]
CONST robtarget point_109_clearance:=[[354,79,10],[30,-30,30],[0, 0, 0, 0],[9000000000.0, 9000000000.0, 9000000000.0, 9000000000.0, 9000000000.0, 9000000000.0], v1000, z0, tool0]
CONST robtarget point_110_clearance:=[[365,77,10],[30,-30,30],[0, 0, 0, 0],[9000000000.0, 9000000000.0, 9000000000.0, 9000000000.0, 9000000000.0, 9000000000.0], v1000, z0, tool0]
CONST robtarget point_110_contact:=[[365,77,5],[30,-30,30],[0, 0, 0, 0],[9000000000.0, 9000000000.0, 9000000000.0, 9000000000.0, 9000000000.0, 9000000000.0], v1000, z0, tool0]
CONST robtarget point_111_contact:=[[385,99,5],[30,-30,30],[0, 0, 0, 0],[9000000000.0, 9000000000.0, 9000000000.0, 9000000000.0, 9000000000.0, 9000000000.0],  v1000, z0, tool0]
CONST robtarget point_111_clearance:=[[385,99,10],[30,-30,30],[0, 0, 0, 0],[9000000000.0, 9000000000.0, 9000000000.0, 9000000000.0, 9000000000.0, 9000000000.0], v1000, z0, tool0]
CONST robtarget point_112_clearance:=[[385,90,10],[30,-30,30],[0, 0, 0, 0],[9000000000.0, 9000000000.0, 9000000000.0, 9000000000.0, 9000000000.0, 9000000000.0], v1000, z0, tool0]
CONST robtarget point_112_contact:=[[385,90,5],[30,-30,30],[0, 0, 0, 0],[9000000000.0, 9000000000.0, 9000000000.0, 9000000000.0, 9000000000.0, 9000000000.0], v1000, z0, tool0]
CONST robtarget point_113_contact:=[[378,83,5],[30,-30,30],[0, 0, 0, 0],[9000000000.0, 9000000000.0, 9000000000.0, 9000000000.0, 9000000000.0, 9000000000.0],  v1000, z0, tool0]
CONST robtarget point_113_clearance:=[[378,83,10],[30,-30,30],[0, 0, 0, 0],[9000000000.0, 9000000000.0, 9000000000.0, 9000000000.0, 9000000000.0, 9000000000.0], v1000, z0, tool0]
CONST robtarget point_114_clearance:=[[182,95,10],[30,-30,30],[0, 0, 0, 0],[9000000000.0, 9000000000.0, 9000000000.0, 9000000000.0, 9000000000.0, 9000000000.0], v1000, z0, tool0]
CONST robtarget point_114_contact:=[[182,95,5],[30,-30,30],[0, 0, 0, 0],[9000000000.0, 9000000000.0, 9000000000.0, 9000000000.0, 9000000000.0, 9000000000.0], v1000, z0, tool0]
CONST robtarget point_115_contact:=[[194,83,5],[30,-30,30],[0, 0, 0, 0],[9000000000.0, 9000000000.0, 9000000000.0, 9000000000.0, 9000000000.0, 9000000000.0],  v1000, z0, tool0]
CONST robtarget point_115_clearance:=[[194,83,10],[30,-30,30],[0, 0, 0, 0],[9000000000.0, 9000000000.0, 9000000000.0, 9000000000.0, 9000000000.0, 9000000000.0], v1000, z0, tool0]
CONST robtarget point_116_clearance:=[[215,85,10],[30,-30,30],[0, 0, 0, 0],[9000000000.0, 9000000000.0, 9000000000.0, 9000000000.0, 9000000000.0, 9000000000.0], v1000, z0, tool0]
CONST robtarget point_116_contact:=[[215,85,5],[30,-30,30],[0, 0, 0, 0],[9000000000.0, 9000000000.0, 9000000000.0, 9000000000.0, 9000000000.0, 9000000000.0], v1000, z0, tool0]
CONST robtarget point_117_contact:=[[206,92,5],[30,-30,30],[0, 0, 0, 0],[9000000000.0, 9000000000.0, 9000000000.0, 9000000000.0, 9000000000.0, 9000000000.0],  v1000, z0, tool0]
CONST robtarget point_117_clearance:=[[206,92,10],[30,-30,30],[0, 0, 0, 0],[9000000000.0, 9000000000.0, 9000000000.0, 9000000000.0, 9000000000.0, 9000000000.0], v1000, z0, tool0]
CONST robtarget point_118_clearance:=[[194,90,10],[30,-30,30],[0, 0, 0, 0],[9000000000.0, 9000000000.0, 9000000000.0, 9000000000.0, 9000000000.0, 9000000000.0], v1000, z0, tool0]
CONST robtarget point_118_contact:=[[194,90,5],[30,-30,30],[0, 0, 0, 0],[9000000000.0, 9000000000.0, 9000000000.0, 9000000000.0, 9000000000.0, 9000000000.0], v1000, z0, tool0]
CONST robtarget point_119_contact:=[[205,87,5],[30,-30,30],[0, 0, 0, 0],[9000000000.0, 9000000000.0, 9000000000.0, 9000000000.0, 9000000000.0, 9000000000.0],  v1000, z0, tool0]
CONST robtarget point_119_clearance:=[[205,87,10],[30,-30,30],[0, 0, 0, 0],[9000000000.0, 9000000000.0, 9000000000.0, 9000000000.0, 9000000000.0, 9000000000.0], v1000, z0, tool0]
CONST robtarget point_120_clearance:=[[386,91,10],[30,-30,30],[0, 0, 0, 0],[9000000000.0, 9000000000.0, 9000000000.0, 9000000000.0, 9000000000.0, 9000000000.0], v1000, z0, tool0]
CONST robtarget point_120_contact:=[[386,91,5],[30,-30,30],[0, 0, 0, 0],[9000000000.0, 9000000000.0, 9000000000.0, 9000000000.0, 9000000000.0, 9000000000.0], v1000, z0, tool0]
CONST robtarget point_121_contact:=[[392,92,5],[30,-30,30],[0, 0, 0, 0],[9000000000.0, 9000000000.0, 9000000000.0, 9000000000.0, 9000000000.0, 9000000000.0],  v1000, z0, tool0]
CONST robtarget point_121_clearance:=[[392,92,10],[30,-30,30],[0, 0, 0, 0],[9000000000.0, 9000000000.0, 9000000000.0, 9000000000.0, 9000000000.0, 9000000000.0], v1000, z0, tool0]
CONST robtarget point_122_clearance:=[[399,108,10],[30,-30,30],[0, 0, 0, 0],[9000000000.0, 9000000000.0, 9000000000.0, 9000000000.0, 9000000000.0, 9000000000.0], v1000, z0, tool0]
CONST robtarget point_122_contact:=[[399,108,5],[30,-30,30],[0, 0, 0, 0],[9000000000.0, 9000000000.0, 9000000000.0, 9000000000.0, 9000000000.0, 9000000000.0], v1000, z0, tool0]
CONST robtarget point_123_contact:=[[385,90,5],[30,-30,30],[0, 0, 0, 0],[9000000000.0, 9000000000.0, 9000000000.0, 9000000000.0, 9000000000.0, 9000000000.0],  v1000, z0, tool0]
CONST robtarget point_123_clearance:=[[385,90,10],[30,-30,30],[0, 0, 0, 0],[9000000000.0, 9000000000.0, 9000000000.0, 9000000000.0, 9000000000.0, 9000000000.0], v1000, z0, tool0]
CONST robtarget point_124_clearance:=[[189,96,10],[30,-30,30],[0, 0, 0, 0],[9000000000.0, 9000000000.0, 9000000000.0, 9000000000.0, 9000000000.0, 9000000000.0], v1000, z0, tool0]
CONST robtarget point_124_contact:=[[189,96,5],[30,-30,30],[0, 0, 0, 0],[9000000000.0, 9000000000.0, 9000000000.0, 9000000000.0, 9000000000.0, 9000000000.0], v1000, z0, tool0]
CONST robtarget point_125_contact:=[[192,93,5],[30,-30,30],[0, 0, 0, 0],[9000000000.0, 9000000000.0, 9000000000.0, 9000000000.0, 9000000000.0, 9000000000.0],  v1000, z0, tool0]
CONST robtarget point_125_clearance:=[[192,93,10],[30,-30,30],[0, 0, 0, 0],[9000000000.0, 9000000000.0, 9000000000.0, 9000000000.0, 9000000000.0, 9000000000.0], v1000, z0, tool0]
CONST robtarget point_126_clearance:=[[191,99,10],[30,-30,30],[0, 0, 0, 0],[9000000000.0, 9000000000.0, 9000000000.0, 9000000000.0, 9000000000.0, 9000000000.0], v1000, z0, tool0]
CONST robtarget point_126_contact:=[[191,99,5],[30,-30,30],[0, 0, 0, 0],[9000000000.0, 9000000000.0, 9000000000.0, 9000000000.0, 9000000000.0, 9000000000.0], v1000, z0, tool0]
CONST robtarget point_127_contact:=[[196,95,5],[30,-30,30],[0, 0, 0, 0],[9000000000.0, 9000000000.0, 9000000000.0, 9000000000.0, 9000000000.0, 9000000000.0],  v1000, z0, tool0]
CONST robtarget point_127_clearance:=[[196,95,10],[30,-30,30],[0, 0, 0, 0],[9000000000.0, 9000000000.0, 9000000000.0, 9000000000.0, 9000000000.0, 9000000000.0], v1000, z0, tool0]
CONST robtarget point_128_clearance:=[[218,95,10],[30,-30,30],[0, 0, 0, 0],[9000000000.0, 9000000000.0, 9000000000.0, 9000000000.0, 9000000000.0, 9000000000.0], v1000, z0, tool0]
CONST robtarget point_128_contact:=[[218,95,5],[30,-30,30],[0, 0, 0, 0],[9000000000.0, 9000000000.0, 9000000000.0, 9000000000.0, 9000000000.0, 9000000000.0], v1000, z0, tool0]
CONST robtarget point_129_contact:=[[218,102,5],[30,-30,30],[0, 0, 0, 0],[9000000000.0, 9000000000.0, 9000000000.0, 9000000000.0, 9000000000.0, 9000000000.0],  v1000, z0, tool0]
CONST robtarget point_129_clearance:=[[218,102,10],[30,-30,30],[0, 0, 0, 0],[9000000000.0, 9000000000.0, 9000000000.0, 9000000000.0, 9000000000.0, 9000000000.0], v1000, z0, tool0]
CONST robtarget point_130_clearance:=[[207,96,10],[30,-30,30],[0, 0, 0, 0],[9000000000.0, 9000000000.0, 9000000000.0, 9000000000.0, 9000000000.0, 9000000000.0], v1000, z0, tool0]
CONST robtarget point_130_contact:=[[207,96,5],[30,-30,30],[0, 0, 0, 0],[9000000000.0, 9000000000.0, 9000000000.0, 9000000000.0, 9000000000.0, 9000000000.0], v1000, z0, tool0]
CONST robtarget point_131_contact:=[[200,97,5],[30,-30,30],[0, 0, 0, 0],[9000000000.0, 9000000000.0, 9000000000.0, 9000000000.0, 9000000000.0, 9000000000.0],  v1000, z0, tool0]
CONST robtarget point_131_clearance:=[[200,97,10],[30,-30,30],[0, 0, 0, 0],[9000000000.0, 9000000000.0, 9000000000.0, 9000000000.0, 9000000000.0, 9000000000.0], v1000, z0, tool0]
CONST robtarget point_132_clearance:=[[172,99,10],[30,-30,30],[0, 0, 0, 0],[9000000000.0, 9000000000.0, 9000000000.0, 9000000000.0, 9000000000.0, 9000000000.0], v1000, z0, tool0]
CONST robtarget point_132_contact:=[[172,99,5],[30,-30,30],[0, 0, 0, 0],[9000000000.0, 9000000000.0, 9000000000.0, 9000000000.0, 9000000000.0, 9000000000.0], v1000, z0, tool0]
CONST robtarget point_133_contact:=[[160,122,5],[30,-30,30],[0, 0, 0, 0],[9000000000.0, 9000000000.0, 9000000000.0, 9000000000.0, 9000000000.0, 9000000000.0],  v1000, z0, tool0]
CONST robtarget point_133_clearance:=[[160,122,10],[30,-30,30],[0, 0, 0, 0],[9000000000.0, 9000000000.0, 9000000000.0, 9000000000.0, 9000000000.0, 9000000000.0], v1000, z0, tool0]
CONST robtarget point_134_clearance:=[[386,99,10],[30,-30,30],[0, 0, 0, 0],[9000000000.0, 9000000000.0, 9000000000.0, 9000000000.0, 9000000000.0, 9000000000.0], v1000, z0, tool0]
CONST robtarget point_134_contact:=[[386,99,5],[30,-30,30],[0, 0, 0, 0],[9000000000.0, 9000000000.0, 9000000000.0, 9000000000.0, 9000000000.0, 9000000000.0], v1000, z0, tool0]
CONST robtarget point_135_contact:=[[391,108,5],[30,-30,30],[0, 0, 0, 0],[9000000000.0, 9000000000.0, 9000000000.0, 9000000000.0, 9000000000.0, 9000000000.0],  v1000, z0, tool0]
CONST robtarget point_135_clearance:=[[391,108,10],[30,-30,30],[0, 0, 0, 0],[9000000000.0, 9000000000.0, 9000000000.0, 9000000000.0, 9000000000.0, 9000000000.0], v1000, z0, tool0]
CONST robtarget point_136_clearance:=[[379,111,10],[30,-30,30],[0, 0, 0, 0],[9000000000.0, 9000000000.0, 9000000000.0, 9000000000.0, 9000000000.0, 9000000000.0], v1000, z0, tool0]
CONST robtarget point_136_contact:=[[379,111,5],[30,-30,30],[0, 0, 0, 0],[9000000000.0, 9000000000.0, 9000000000.0, 9000000000.0, 9000000000.0, 9000000000.0], v1000, z0, tool0]
CONST robtarget point_137_contact:=[[373,100,5],[30,-30,30],[0, 0, 0, 0],[9000000000.0, 9000000000.0, 9000000000.0, 9000000000.0, 9000000000.0, 9000000000.0],  v1000, z0, tool0]
CONST robtarget point_137_clearance:=[[373,100,10],[30,-30,30],[0, 0, 0, 0],[9000000000.0, 9000000000.0, 9000000000.0, 9000000000.0, 9000000000.0, 9000000000.0], v1000, z0, tool0]
CONST robtarget point_138_clearance:=[[408,116,10],[30,-30,30],[0, 0, 0, 0],[9000000000.0, 9000000000.0, 9000000000.0, 9000000000.0, 9000000000.0, 9000000000.0], v1000, z0, tool0]
CONST robtarget point_138_contact:=[[408,116,5],[30,-30,30],[0, 0, 0, 0],[9000000000.0, 9000000000.0, 9000000000.0, 9000000000.0, 9000000000.0, 9000000000.0], v1000, z0, tool0]
CONST robtarget point_139_contact:=[[402,101,5],[30,-30,30],[0, 0, 0, 0],[9000000000.0, 9000000000.0, 9000000000.0, 9000000000.0, 9000000000.0, 9000000000.0],  v1000, z0, tool0]
CONST robtarget point_139_clearance:=[[402,101,10],[30,-30,30],[0, 0, 0, 0],[9000000000.0, 9000000000.0, 9000000000.0, 9000000000.0, 9000000000.0, 9000000000.0], v1000, z0, tool0]
CONST robtarget point_140_clearance:=[[390,110,10],[30,-30,30],[0, 0, 0, 0],[9000000000.0, 9000000000.0, 9000000000.0, 9000000000.0, 9000000000.0, 9000000000.0], v1000, z0, tool0]
CONST robtarget point_140_contact:=[[390,110,5],[30,-30,30],[0, 0, 0, 0],[9000000000.0, 9000000000.0, 9000000000.0, 9000000000.0, 9000000000.0, 9000000000.0], v1000, z0, tool0]
CONST robtarget point_141_contact:=[[377,103,5],[30,-30,30],[0, 0, 0, 0],[9000000000.0, 9000000000.0, 9000000000.0, 9000000000.0, 9000000000.0, 9000000000.0],  v1000, z0, tool0]
CONST robtarget point_141_clearance:=[[377,103,10],[30,-30,30],[0, 0, 0, 0],[9000000000.0, 9000000000.0, 9000000000.0, 9000000000.0, 9000000000.0, 9000000000.0], v1000, z0, tool0]
CONST robtarget point_142_clearance:=[[187,104,10],[30,-30,30],[0, 0, 0, 0],[9000000000.0, 9000000000.0, 9000000000.0, 9000000000.0, 9000000000.0, 9000000000.0], v1000, z0, tool0]
CONST robtarget point_142_contact:=[[187,104,5],[30,-30,30],[0, 0, 0, 0],[9000000000.0, 9000000000.0, 9000000000.0, 9000000000.0, 9000000000.0, 9000000000.0], v1000, z0, tool0]
CONST robtarget point_143_contact:=[[180,110,5],[30,-30,30],[0, 0, 0, 0],[9000000000.0, 9000000000.0, 9000000000.0, 9000000000.0, 9000000000.0, 9000000000.0],  v1000, z0, tool0]
CONST robtarget point_143_clearance:=[[180,110,10],[30,-30,30],[0, 0, 0, 0],[9000000000.0, 9000000000.0, 9000000000.0, 9000000000.0, 9000000000.0, 9000000000.0], v1000, z0, tool0]
CONST robtarget point_144_clearance:=[[181,114,10],[30,-30,30],[0, 0, 0, 0],[9000000000.0, 9000000000.0, 9000000000.0, 9000000000.0, 9000000000.0, 9000000000.0], v1000, z0, tool0]
CONST robtarget point_144_contact:=[[181,114,5],[30,-30,30],[0, 0, 0, 0],[9000000000.0, 9000000000.0, 9000000000.0, 9000000000.0, 9000000000.0, 9000000000.0], v1000, z0, tool0]
CONST robtarget point_145_contact:=[[193,104,5],[30,-30,30],[0, 0, 0, 0],[9000000000.0, 9000000000.0, 9000000000.0, 9000000000.0, 9000000000.0, 9000000000.0],  v1000, z0, tool0]
CONST robtarget point_145_clearance:=[[193,104,10],[30,-30,30],[0, 0, 0, 0],[9000000000.0, 9000000000.0, 9000000000.0, 9000000000.0, 9000000000.0, 9000000000.0], v1000, z0, tool0]
CONST robtarget point_146_clearance:=[[168,116,10],[30,-30,30],[0, 0, 0, 0],[9000000000.0, 9000000000.0, 9000000000.0, 9000000000.0, 9000000000.0, 9000000000.0], v1000, z0, tool0]
CONST robtarget point_146_contact:=[[168,116,5],[30,-30,30],[0, 0, 0, 0],[9000000000.0, 9000000000.0, 9000000000.0, 9000000000.0, 9000000000.0, 9000000000.0], v1000, z0, tool0]
CONST robtarget point_147_contact:=[[174,106,5],[30,-30,30],[0, 0, 0, 0],[9000000000.0, 9000000000.0, 9000000000.0, 9000000000.0, 9000000000.0, 9000000000.0],  v1000, z0, tool0]
CONST robtarget point_147_clearance:=[[174,106,10],[30,-30,30],[0, 0, 0, 0],[9000000000.0, 9000000000.0, 9000000000.0, 9000000000.0, 9000000000.0, 9000000000.0], v1000, z0, tool0]
CONST robtarget point_148_clearance:=[[179,107,10],[30,-30,30],[0, 0, 0, 0],[9000000000.0, 9000000000.0, 9000000000.0, 9000000000.0, 9000000000.0, 9000000000.0], v1000, z0, tool0]
CONST robtarget point_148_contact:=[[179,107,5],[30,-30,30],[0, 0, 0, 0],[9000000000.0, 9000000000.0, 9000000000.0, 9000000000.0, 9000000000.0, 9000000000.0], v1000, z0, tool0]
CONST robtarget point_149_contact:=[[171,120,5],[30,-30,30],[0, 0, 0, 0],[9000000000.0, 9000000000.0, 9000000000.0, 9000000000.0, 9000000000.0, 9000000000.0],  v1000, z0, tool0]
CONST robtarget point_149_clearance:=[[171,120,10],[30,-30,30],[0, 0, 0, 0],[9000000000.0, 9000000000.0, 9000000000.0, 9000000000.0, 9000000000.0, 9000000000.0], v1000, z0, tool0]
CONST robtarget point_150_clearance:=[[401,115,10],[30,-30,30],[0, 0, 0, 0],[9000000000.0, 9000000000.0, 9000000000.0, 9000000000.0, 9000000000.0, 9000000000.0], v1000, z0, tool0]
CONST robtarget point_150_contact:=[[401,115,5],[30,-30,30],[0, 0, 0, 0],[9000000000.0, 9000000000.0, 9000000000.0, 9000000000.0, 9000000000.0, 9000000000.0], v1000, z0, tool0]
CONST robtarget point_151_contact:=[[399,109,5],[30,-30,30],[0, 0, 0, 0],[9000000000.0, 9000000000.0, 9000000000.0, 9000000000.0, 9000000000.0, 9000000000.0],  v1000, z0, tool0]
CONST robtarget point_151_clearance:=[[399,109,10],[30,-30,30],[0, 0, 0, 0],[9000000000.0, 9000000000.0, 9000000000.0, 9000000000.0, 9000000000.0, 9000000000.0], v1000, z0, tool0]
CONST robtarget point_152_clearance:=[[394,117,10],[30,-30,30],[0, 0, 0, 0],[9000000000.0, 9000000000.0, 9000000000.0, 9000000000.0, 9000000000.0, 9000000000.0], v1000, z0, tool0]
CONST robtarget point_152_contact:=[[394,117,5],[30,-30,30],[0, 0, 0, 0],[9000000000.0, 9000000000.0, 9000000000.0, 9000000000.0, 9000000000.0, 9000000000.0], v1000, z0, tool0]
CONST robtarget point_153_contact:=[[402,119,5],[30,-30,30],[0, 0, 0, 0],[9000000000.0, 9000000000.0, 9000000000.0, 9000000000.0, 9000000000.0, 9000000000.0],  v1000, z0, tool0]
CONST robtarget point_153_clearance:=[[402,119,10],[30,-30,30],[0, 0, 0, 0],[9000000000.0, 9000000000.0, 9000000000.0, 9000000000.0, 9000000000.0, 9000000000.0], v1000, z0, tool0]
CONST robtarget point_154_clearance:=[[165,125,10],[30,-30,30],[0, 0, 0, 0],[9000000000.0, 9000000000.0, 9000000000.0, 9000000000.0, 9000000000.0, 9000000000.0], v1000, z0, tool0]
CONST robtarget point_154_contact:=[[165,125,5],[30,-30,30],[0, 0, 0, 0],[9000000000.0, 9000000000.0, 9000000000.0, 9000000000.0, 9000000000.0, 9000000000.0], v1000, z0, tool0]
CONST robtarget point_155_contact:=[[173,120,5],[30,-30,30],[0, 0, 0, 0],[9000000000.0, 9000000000.0, 9000000000.0, 9000000000.0, 9000000000.0, 9000000000.0],  v1000, z0, tool0]
CONST robtarget point_155_clearance:=[[173,120,10],[30,-30,30],[0, 0, 0, 0],[9000000000.0, 9000000000.0, 9000000000.0, 9000000000.0, 9000000000.0, 9000000000.0], v1000, z0, tool0]
CONST robtarget point_156_clearance:=[[181,128,10],[30,-30,30],[0, 0, 0, 0],[9000000000.0, 9000000000.0, 9000000000.0, 9000000000.0, 9000000000.0, 9000000000.0], v1000, z0, tool0]
CONST robtarget point_156_contact:=[[181,128,5],[30,-30,30],[0, 0, 0, 0],[9000000000.0, 9000000000.0, 9000000000.0, 9000000000.0, 9000000000.0, 9000000000.0], v1000, z0, tool0]
CONST robtarget point_157_contact:=[[191,121,5],[30,-30,30],[0, 0, 0, 0],[9000000000.0, 9000000000.0, 9000000000.0, 9000000000.0, 9000000000.0, 9000000000.0],  v1000, z0, tool0]
CONST robtarget point_157_clearance:=[[191,121,10],[30,-30,30],[0, 0, 0, 0],[9000000000.0, 9000000000.0, 9000000000.0, 9000000000.0, 9000000000.0, 9000000000.0], v1000, z0, tool0]
CONST robtarget point_158_clearance:=[[166,126,10],[30,-30,30],[0, 0, 0, 0],[9000000000.0, 9000000000.0, 9000000000.0, 9000000000.0, 9000000000.0, 9000000000.0], v1000, z0, tool0]
CONST robtarget point_158_contact:=[[166,126,5],[30,-30,30],[0, 0, 0, 0],[9000000000.0, 9000000000.0, 9000000000.0, 9000000000.0, 9000000000.0, 9000000000.0], v1000, z0, tool0]
CONST robtarget point_159_contact:=[[159,133,5],[30,-30,30],[0, 0, 0, 0],[9000000000.0, 9000000000.0, 9000000000.0, 9000000000.0, 9000000000.0, 9000000000.0],  v1000, z0, tool0]
CONST robtarget point_159_clearance:=[[159,133,10],[30,-30,30],[0, 0, 0, 0],[9000000000.0, 9000000000.0, 9000000000.0, 9000000000.0, 9000000000.0, 9000000000.0], v1000, z0, tool0]
CONST robtarget point_160_clearance:=[[398,126,10],[30,-30,30],[0, 0, 0, 0],[9000000000.0, 9000000000.0, 9000000000.0, 9000000000.0, 9000000000.0, 9000000000.0], v1000, z0, tool0]
CONST robtarget point_160_contact:=[[398,126,5],[30,-30,30],[0, 0, 0, 0],[9000000000.0, 9000000000.0, 9000000000.0, 9000000000.0, 9000000000.0, 9000000000.0], v1000, z0, tool0]
CONST robtarget point_161_contact:=[[406,130,5],[30,-30,30],[0, 0, 0, 0],[9000000000.0, 9000000000.0, 9000000000.0, 9000000000.0, 9000000000.0, 9000000000.0],  v1000, z0, tool0]
CONST robtarget point_161_clearance:=[[406,130,10],[30,-30,30],[0, 0, 0, 0],[9000000000.0, 9000000000.0, 9000000000.0, 9000000000.0, 9000000000.0, 9000000000.0], v1000, z0, tool0]
CONST robtarget point_162_clearance:=[[171,127,10],[30,-30,30],[0, 0, 0, 0],[9000000000.0, 9000000000.0, 9000000000.0, 9000000000.0, 9000000000.0, 9000000000.0], v1000, z0, tool0]
CONST robtarget point_162_contact:=[[171,127,5],[30,-30,30],[0, 0, 0, 0],[9000000000.0, 9000000000.0, 9000000000.0, 9000000000.0, 9000000000.0, 9000000000.0], v1000, z0, tool0]
CONST robtarget point_163_contact:=[[166,133,5],[30,-30,30],[0, 0, 0, 0],[9000000000.0, 9000000000.0, 9000000000.0, 9000000000.0, 9000000000.0, 9000000000.0],  v1000, z0, tool0]
CONST robtarget point_163_clearance:=[[166,133,10],[30,-30,30],[0, 0, 0, 0],[9000000000.0, 9000000000.0, 9000000000.0, 9000000000.0, 9000000000.0, 9000000000.0], v1000, z0, tool0]
CONST robtarget point_164_clearance:=[[174,138,10],[30,-30,30],[0, 0, 0, 0],[9000000000.0, 9000000000.0, 9000000000.0, 9000000000.0, 9000000000.0, 9000000000.0], v1000, z0, tool0]
CONST robtarget point_164_contact:=[[174,138,5],[30,-30,30],[0, 0, 0, 0],[9000000000.0, 9000000000.0, 9000000000.0, 9000000000.0, 9000000000.0, 9000000000.0], v1000, z0, tool0]
CONST robtarget point_165_contact:=[[182,129,5],[30,-30,30],[0, 0, 0, 0],[9000000000.0, 9000000000.0, 9000000000.0, 9000000000.0, 9000000000.0, 9000000000.0],  v1000, z0, tool0]
CONST robtarget point_165_clearance:=[[182,129,10],[30,-30,30],[0, 0, 0, 0],[9000000000.0, 9000000000.0, 9000000000.0, 9000000000.0, 9000000000.0, 9000000000.0], v1000, z0, tool0]
CONST robtarget point_166_clearance:=[[408,129,10],[30,-30,30],[0, 0, 0, 0],[9000000000.0, 9000000000.0, 9000000000.0, 9000000000.0, 9000000000.0, 9000000000.0], v1000, z0, tool0]
CONST robtarget point_166_contact:=[[408,129,5],[30,-30,30],[0, 0, 0, 0],[9000000000.0, 9000000000.0, 9000000000.0, 9000000000.0, 9000000000.0, 9000000000.0], v1000, z0, tool0]
CONST robtarget point_167_contact:=[[404,133,5],[30,-30,30],[0, 0, 0, 0],[9000000000.0, 9000000000.0, 9000000000.0, 9000000000.0, 9000000000.0, 9000000000.0],  v1000, z0, tool0]
CONST robtarget point_167_clearance:=[[404,133,10],[30,-30,30],[0, 0, 0, 0],[9000000000.0, 9000000000.0, 9000000000.0, 9000000000.0, 9000000000.0, 9000000000.0], v1000, z0, tool0]
CONST robtarget point_168_clearance:=[[397,131,10],[30,-30,30],[0, 0, 0, 0],[9000000000.0, 9000000000.0, 9000000000.0, 9000000000.0, 9000000000.0, 9000000000.0], v1000, z0, tool0]
CONST robtarget point_168_contact:=[[397,131,5],[30,-30,30],[0, 0, 0, 0],[9000000000.0, 9000000000.0, 9000000000.0, 9000000000.0, 9000000000.0, 9000000000.0], v1000, z0, tool0]
CONST robtarget point_169_contact:=[[410,141,5],[30,-30,30],[0, 0, 0, 0],[9000000000.0, 9000000000.0, 9000000000.0, 9000000000.0, 9000000000.0, 9000000000.0],  v1000, z0, tool0]
CONST robtarget point_169_clearance:=[[410,141,10],[30,-30,30],[0, 0, 0, 0],[9000000000.0, 9000000000.0, 9000000000.0, 9000000000.0, 9000000000.0, 9000000000.0], v1000, z0, tool0]
CONST robtarget point_170_clearance:=[[163,132,10],[30,-30,30],[0, 0, 0, 0],[9000000000.0, 9000000000.0, 9000000000.0, 9000000000.0, 9000000000.0, 9000000000.0], v1000, z0, tool0]
CONST robtarget point_170_contact:=[[163,132,5],[30,-30,30],[0, 0, 0, 0],[9000000000.0, 9000000000.0, 9000000000.0, 9000000000.0, 9000000000.0, 9000000000.0], v1000, z0, tool0]
CONST robtarget point_171_contact:=[[155,142,5],[30,-30,30],[0, 0, 0, 0],[9000000000.0, 9000000000.0, 9000000000.0, 9000000000.0, 9000000000.0, 9000000000.0],  v1000, z0, tool0]
CONST robtarget point_171_clearance:=[[155,142,10],[30,-30,30],[0, 0, 0, 0],[9000000000.0, 9000000000.0, 9000000000.0, 9000000000.0, 9000000000.0, 9000000000.0], v1000, z0, tool0]
CONST robtarget point_172_clearance:=[[167,135,10],[30,-30,30],[0, 0, 0, 0],[9000000000.0, 9000000000.0, 9000000000.0, 9000000000.0, 9000000000.0, 9000000000.0], v1000, z0, tool0]
CONST robtarget point_172_contact:=[[167,135,5],[30,-30,30],[0, 0, 0, 0],[9000000000.0, 9000000000.0, 9000000000.0, 9000000000.0, 9000000000.0, 9000000000.0], v1000, z0, tool0]
CONST robtarget point_173_contact:=[[172,138,5],[30,-30,30],[0, 0, 0, 0],[9000000000.0, 9000000000.0, 9000000000.0, 9000000000.0, 9000000000.0, 9000000000.0],  v1000, z0, tool0]
CONST robtarget point_173_clearance:=[[172,138,10],[30,-30,30],[0, 0, 0, 0],[9000000000.0, 9000000000.0, 9000000000.0, 9000000000.0, 9000000000.0, 9000000000.0], v1000, z0, tool0]
CONST robtarget point_174_clearance:=[[169,148,10],[30,-30,30],[0, 0, 0, 0],[9000000000.0, 9000000000.0, 9000000000.0, 9000000000.0, 9000000000.0, 9000000000.0], v1000, z0, tool0]
CONST robtarget point_174_contact:=[[169,148,5],[30,-30,30],[0, 0, 0, 0],[9000000000.0, 9000000000.0, 9000000000.0, 9000000000.0, 9000000000.0, 9000000000.0], v1000, z0, tool0]
CONST robtarget point_175_contact:=[[179,138,5],[30,-30,30],[0, 0, 0, 0],[9000000000.0, 9000000000.0, 9000000000.0, 9000000000.0, 9000000000.0, 9000000000.0],  v1000, z0, tool0]
CONST robtarget point_175_clearance:=[[179,138,10],[30,-30,30],[0, 0, 0, 0],[9000000000.0, 9000000000.0, 9000000000.0, 9000000000.0, 9000000000.0, 9000000000.0], v1000, z0, tool0]
CONST robtarget point_176_clearance:=[[255,140,10],[30,-30,30],[0, 0, 0, 0],[9000000000.0, 9000000000.0, 9000000000.0, 9000000000.0, 9000000000.0, 9000000000.0], v1000, z0, tool0]
CONST robtarget point_176_contact:=[[255,140,5],[30,-30,30],[0, 0, 0, 0],[9000000000.0, 9000000000.0, 9000000000.0, 9000000000.0, 9000000000.0, 9000000000.0], v1000, z0, tool0]
CONST robtarget point_177_contact:=[[269,143,5],[30,-30,30],[0, 0, 0, 0],[9000000000.0, 9000000000.0, 9000000000.0, 9000000000.0, 9000000000.0, 9000000000.0],  v1000, z0, tool0]
CONST robtarget point_177_clearance:=[[269,143,10],[30,-30,30],[0, 0, 0, 0],[9000000000.0, 9000000000.0, 9000000000.0, 9000000000.0, 9000000000.0, 9000000000.0], v1000, z0, tool0]
CONST robtarget point_178_clearance:=[[389,152,10],[30,-30,30],[0, 0, 0, 0],[9000000000.0, 9000000000.0, 9000000000.0, 9000000000.0, 9000000000.0, 9000000000.0], v1000, z0, tool0]
CONST robtarget point_178_contact:=[[389,152,5],[30,-30,30],[0, 0, 0, 0],[9000000000.0, 9000000000.0, 9000000000.0, 9000000000.0, 9000000000.0, 9000000000.0], v1000, z0, tool0]
CONST robtarget point_179_contact:=[[384,138,5],[30,-30,30],[0, 0, 0, 0],[9000000000.0, 9000000000.0, 9000000000.0, 9000000000.0, 9000000000.0, 9000000000.0],  v1000, z0, tool0]
CONST robtarget point_179_clearance:=[[384,138,10],[30,-30,30],[0, 0, 0, 0],[9000000000.0, 9000000000.0, 9000000000.0, 9000000000.0, 9000000000.0, 9000000000.0], v1000, z0, tool0]
CONST robtarget point_180_clearance:=[[413,152,10],[30,-30,30],[0, 0, 0, 0],[9000000000.0, 9000000000.0, 9000000000.0, 9000000000.0, 9000000000.0, 9000000000.0], v1000, z0, tool0]
CONST robtarget point_180_contact:=[[413,152,5],[30,-30,30],[0, 0, 0, 0],[9000000000.0, 9000000000.0, 9000000000.0, 9000000000.0, 9000000000.0, 9000000000.0], v1000, z0, tool0]
CONST robtarget point_181_contact:=[[400,138,5],[30,-30,30],[0, 0, 0, 0],[9000000000.0, 9000000000.0, 9000000000.0, 9000000000.0, 9000000000.0, 9000000000.0],  v1000, z0, tool0]
CONST robtarget point_181_clearance:=[[400,138,10],[30,-30,30],[0, 0, 0, 0],[9000000000.0, 9000000000.0, 9000000000.0, 9000000000.0, 9000000000.0, 9000000000.0], v1000, z0, tool0]
CONST robtarget point_182_clearance:=[[161,147,10],[30,-30,30],[0, 0, 0, 0],[9000000000.0, 9000000000.0, 9000000000.0, 9000000000.0, 9000000000.0, 9000000000.0], v1000, z0, tool0]
CONST robtarget point_182_contact:=[[161,147,5],[30,-30,30],[0, 0, 0, 0],[9000000000.0, 9000000000.0, 9000000000.0, 9000000000.0, 9000000000.0, 9000000000.0], v1000, z0, tool0]
CONST robtarget point_183_contact:=[[165,141,5],[30,-30,30],[0, 0, 0, 0],[9000000000.0, 9000000000.0, 9000000000.0, 9000000000.0, 9000000000.0, 9000000000.0],  v1000, z0, tool0]
CONST robtarget point_183_clearance:=[[165,141,10],[30,-30,30],[0, 0, 0, 0],[9000000000.0, 9000000000.0, 9000000000.0, 9000000000.0, 9000000000.0, 9000000000.0], v1000, z0, tool0]
CONST robtarget point_184_clearance:=[[240,142,10],[30,-30,30],[0, 0, 0, 0],[9000000000.0, 9000000000.0, 9000000000.0, 9000000000.0, 9000000000.0, 9000000000.0], v1000, z0, tool0]
CONST robtarget point_184_contact:=[[240,142,5],[30,-30,30],[0, 0, 0, 0],[9000000000.0, 9000000000.0, 9000000000.0, 9000000000.0, 9000000000.0, 9000000000.0], v1000, z0, tool0]
CONST robtarget point_185_contact:=[[251,143,5],[30,-30,30],[0, 0, 0, 0],[9000000000.0, 9000000000.0, 9000000000.0, 9000000000.0, 9000000000.0, 9000000000.0],  v1000, z0, tool0]
CONST robtarget point_185_clearance:=[[251,143,10],[30,-30,30],[0, 0, 0, 0],[9000000000.0, 9000000000.0, 9000000000.0, 9000000000.0, 9000000000.0, 9000000000.0], v1000, z0, tool0]
CONST robtarget point_186_clearance:=[[328,147,10],[30,-30,30],[0, 0, 0, 0],[9000000000.0, 9000000000.0, 9000000000.0, 9000000000.0, 9000000000.0, 9000000000.0], v1000, z0, tool0]
CONST robtarget point_186_contact:=[[328,147,5],[30,-30,30],[0, 0, 0, 0],[9000000000.0, 9000000000.0, 9000000000.0, 9000000000.0, 9000000000.0, 9000000000.0], v1000, z0, tool0]
CONST robtarget point_187_contact:=[[357,146,5],[30,-30,30],[0, 0, 0, 0],[9000000000.0, 9000000000.0, 9000000000.0, 9000000000.0, 9000000000.0, 9000000000.0],  v1000, z0, tool0]
CONST robtarget point_187_clearance:=[[357,146,10],[30,-30,30],[0, 0, 0, 0],[9000000000.0, 9000000000.0, 9000000000.0, 9000000000.0, 9000000000.0, 9000000000.0], v1000, z0, tool0]
CONST robtarget point_188_clearance:=[[151,146,10],[30,-30,30],[0, 0, 0, 0],[9000000000.0, 9000000000.0, 9000000000.0, 9000000000.0, 9000000000.0, 9000000000.0], v1000, z0, tool0]
CONST robtarget point_188_contact:=[[151,146,5],[30,-30,30],[0, 0, 0, 0],[9000000000.0, 9000000000.0, 9000000000.0, 9000000000.0, 9000000000.0, 9000000000.0], v1000, z0, tool0]
CONST robtarget point_189_contact:=[[157,144,5],[30,-30,30],[0, 0, 0, 0],[9000000000.0, 9000000000.0, 9000000000.0, 9000000000.0, 9000000000.0, 9000000000.0],  v1000, z0, tool0]
CONST robtarget point_189_clearance:=[[157,144,10],[30,-30,30],[0, 0, 0, 0],[9000000000.0, 9000000000.0, 9000000000.0, 9000000000.0, 9000000000.0, 9000000000.0], v1000, z0, tool0]
CONST robtarget point_190_clearance:=[[268,144,10],[30,-30,30],[0, 0, 0, 0],[9000000000.0, 9000000000.0, 9000000000.0, 9000000000.0, 9000000000.0, 9000000000.0], v1000, z0, tool0]
CONST robtarget point_190_contact:=[[268,144,5],[30,-30,30],[0, 0, 0, 0],[9000000000.0, 9000000000.0, 9000000000.0, 9000000000.0, 9000000000.0, 9000000000.0], v1000, z0, tool0]
CONST robtarget point_191_contact:=[[273,143,5],[30,-30,30],[0, 0, 0, 0],[9000000000.0, 9000000000.0, 9000000000.0, 9000000000.0, 9000000000.0, 9000000000.0],  v1000, z0, tool0]
CONST robtarget point_191_clearance:=[[273,143,10],[30,-30,30],[0, 0, 0, 0],[9000000000.0, 9000000000.0, 9000000000.0, 9000000000.0, 9000000000.0, 9000000000.0], v1000, z0, tool0]
CONST robtarget point_192_clearance:=[[273,144,10],[30,-30,30],[0, 0, 0, 0],[9000000000.0, 9000000000.0, 9000000000.0, 9000000000.0, 9000000000.0, 9000000000.0], v1000, z0, tool0]
CONST robtarget point_192_contact:=[[273,144,5],[30,-30,30],[0, 0, 0, 0],[9000000000.0, 9000000000.0, 9000000000.0, 9000000000.0, 9000000000.0, 9000000000.0], v1000, z0, tool0]
CONST robtarget point_193_contact:=[[276,144,5],[30,-30,30],[0, 0, 0, 0],[9000000000.0, 9000000000.0, 9000000000.0, 9000000000.0, 9000000000.0, 9000000000.0],  v1000, z0, tool0]
CONST robtarget point_193_clearance:=[[276,144,10],[30,-30,30],[0, 0, 0, 0],[9000000000.0, 9000000000.0, 9000000000.0, 9000000000.0, 9000000000.0, 9000000000.0], v1000, z0, tool0]
CONST robtarget point_194_clearance:=[[308,156,10],[30,-30,30],[0, 0, 0, 0],[9000000000.0, 9000000000.0, 9000000000.0, 9000000000.0, 9000000000.0, 9000000000.0], v1000, z0, tool0]
CONST robtarget point_194_contact:=[[308,156,5],[30,-30,30],[0, 0, 0, 0],[9000000000.0, 9000000000.0, 9000000000.0, 9000000000.0, 9000000000.0, 9000000000.0], v1000, z0, tool0]
CONST robtarget point_195_contact:=[[329,147,5],[30,-30,30],[0, 0, 0, 0],[9000000000.0, 9000000000.0, 9000000000.0, 9000000000.0, 9000000000.0, 9000000000.0],  v1000, z0, tool0]
CONST robtarget point_195_clearance:=[[329,147,10],[30,-30,30],[0, 0, 0, 0],[9000000000.0, 9000000000.0, 9000000000.0, 9000000000.0, 9000000000.0, 9000000000.0], v1000, z0, tool0]
CONST robtarget point_196_clearance:=[[235,145,10],[30,-30,30],[0, 0, 0, 0],[9000000000.0, 9000000000.0, 9000000000.0, 9000000000.0, 9000000000.0, 9000000000.0], v1000, z0, tool0]
CONST robtarget point_196_contact:=[[235,145,5],[30,-30,30],[0, 0, 0, 0],[9000000000.0, 9000000000.0, 9000000000.0, 9000000000.0, 9000000000.0, 9000000000.0], v1000, z0, tool0]
CONST robtarget point_197_contact:=[[221,147,5],[30,-30,30],[0, 0, 0, 0],[9000000000.0, 9000000000.0, 9000000000.0, 9000000000.0, 9000000000.0, 9000000000.0],  v1000, z0, tool0]
CONST robtarget point_197_clearance:=[[221,147,10],[30,-30,30],[0, 0, 0, 0],[9000000000.0, 9000000000.0, 9000000000.0, 9000000000.0, 9000000000.0, 9000000000.0], v1000, z0, tool0]
CONST robtarget point_198_clearance:=[[240,147,10],[30,-30,30],[0, 0, 0, 0],[9000000000.0, 9000000000.0, 9000000000.0, 9000000000.0, 9000000000.0, 9000000000.0], v1000, z0, tool0]
CONST robtarget point_198_contact:=[[240,147,5],[30,-30,30],[0, 0, 0, 0],[9000000000.0, 9000000000.0, 9000000000.0, 9000000000.0, 9000000000.0, 9000000000.0], v1000, z0, tool0]
CONST robtarget point_199_contact:=[[248,147,5],[30,-30,30],[0, 0, 0, 0],[9000000000.0, 9000000000.0, 9000000000.0, 9000000000.0, 9000000000.0, 9000000000.0],  v1000, z0, tool0]
CONST robtarget point_199_clearance:=[[248,147,10],[30,-30,30],[0, 0, 0, 0],[9000000000.0, 9000000000.0, 9000000000.0, 9000000000.0, 9000000000.0, 9000000000.0], v1000, z0, tool0]
CONST robtarget point_200_clearance:=[[250,146,10],[30,-30,30],[0, 0, 0, 0],[9000000000.0, 9000000000.0, 9000000000.0, 9000000000.0, 9000000000.0, 9000000000.0], v1000, z0, tool0]
CONST robtarget point_200_contact:=[[250,146,5],[30,-30,30],[0, 0, 0, 0],[9000000000.0, 9000000000.0, 9000000000.0, 9000000000.0, 9000000000.0, 9000000000.0], v1000, z0, tool0]
CONST robtarget point_201_contact:=[[257,147,5],[30,-30,30],[0, 0, 0, 0],[9000000000.0, 9000000000.0, 9000000000.0, 9000000000.0, 9000000000.0, 9000000000.0],  v1000, z0, tool0]
CONST robtarget point_201_clearance:=[[257,147,10],[30,-30,30],[0, 0, 0, 0],[9000000000.0, 9000000000.0, 9000000000.0, 9000000000.0, 9000000000.0, 9000000000.0], v1000, z0, tool0]
CONST robtarget point_202_clearance:=[[404,158,10],[30,-30,30],[0, 0, 0, 0],[9000000000.0, 9000000000.0, 9000000000.0, 9000000000.0, 9000000000.0, 9000000000.0], v1000, z0, tool0]
CONST robtarget point_202_contact:=[[404,158,5],[30,-30,30],[0, 0, 0, 0],[9000000000.0, 9000000000.0, 9000000000.0, 9000000000.0, 9000000000.0, 9000000000.0], v1000, z0, tool0]
CONST robtarget point_203_contact:=[[403,144,5],[30,-30,30],[0, 0, 0, 0],[9000000000.0, 9000000000.0, 9000000000.0, 9000000000.0, 9000000000.0, 9000000000.0],  v1000, z0, tool0]
CONST robtarget point_203_clearance:=[[403,144,10],[30,-30,30],[0, 0, 0, 0],[9000000000.0, 9000000000.0, 9000000000.0, 9000000000.0, 9000000000.0, 9000000000.0], v1000, z0, tool0]
CONST robtarget point_204_clearance:=[[148,151,10],[30,-30,30],[0, 0, 0, 0],[9000000000.0, 9000000000.0, 9000000000.0, 9000000000.0, 9000000000.0, 9000000000.0], v1000, z0, tool0]
CONST robtarget point_204_contact:=[[148,151,5],[30,-30,30],[0, 0, 0, 0],[9000000000.0, 9000000000.0, 9000000000.0, 9000000000.0, 9000000000.0, 9000000000.0], v1000, z0, tool0]
CONST robtarget point_205_contact:=[[158,147,5],[30,-30,30],[0, 0, 0, 0],[9000000000.0, 9000000000.0, 9000000000.0, 9000000000.0, 9000000000.0, 9000000000.0],  v1000, z0, tool0]
CONST robtarget point_205_clearance:=[[158,147,10],[30,-30,30],[0, 0, 0, 0],[9000000000.0, 9000000000.0, 9000000000.0, 9000000000.0, 9000000000.0, 9000000000.0], v1000, z0, tool0]
CONST robtarget point_206_clearance:=[[258,147,10],[30,-30,30],[0, 0, 0, 0],[9000000000.0, 9000000000.0, 9000000000.0, 9000000000.0, 9000000000.0, 9000000000.0], v1000, z0, tool0]
CONST robtarget point_206_contact:=[[258,147,5],[30,-30,30],[0, 0, 0, 0],[9000000000.0, 9000000000.0, 9000000000.0, 9000000000.0, 9000000000.0, 9000000000.0], v1000, z0, tool0]
CONST robtarget point_207_contact:=[[277,149,5],[30,-30,30],[0, 0, 0, 0],[9000000000.0, 9000000000.0, 9000000000.0, 9000000000.0, 9000000000.0, 9000000000.0],  v1000, z0, tool0]
CONST robtarget point_207_clearance:=[[277,149,10],[30,-30,30],[0, 0, 0, 0],[9000000000.0, 9000000000.0, 9000000000.0, 9000000000.0, 9000000000.0, 9000000000.0], v1000, z0, tool0]
CONST robtarget point_208_clearance:=[[222,151,10],[30,-30,30],[0, 0, 0, 0],[9000000000.0, 9000000000.0, 9000000000.0, 9000000000.0, 9000000000.0, 9000000000.0], v1000, z0, tool0]
CONST robtarget point_208_contact:=[[222,151,5],[30,-30,30],[0, 0, 0, 0],[9000000000.0, 9000000000.0, 9000000000.0, 9000000000.0, 9000000000.0, 9000000000.0], v1000, z0, tool0]
CONST robtarget point_209_contact:=[[238,147,5],[30,-30,30],[0, 0, 0, 0],[9000000000.0, 9000000000.0, 9000000000.0, 9000000000.0, 9000000000.0, 9000000000.0],  v1000, z0, tool0]
CONST robtarget point_209_clearance:=[[238,147,10],[30,-30,30],[0, 0, 0, 0],[9000000000.0, 9000000000.0, 9000000000.0, 9000000000.0, 9000000000.0, 9000000000.0], v1000, z0, tool0]
CONST robtarget point_210_clearance:=[[278,149,10],[30,-30,30],[0, 0, 0, 0],[9000000000.0, 9000000000.0, 9000000000.0, 9000000000.0, 9000000000.0, 9000000000.0], v1000, z0, tool0]
CONST robtarget point_210_contact:=[[278,149,5],[30,-30,30],[0, 0, 0, 0],[9000000000.0, 9000000000.0, 9000000000.0, 9000000000.0, 9000000000.0, 9000000000.0], v1000, z0, tool0]
CONST robtarget point_211_contact:=[[292,153,5],[30,-30,30],[0, 0, 0, 0],[9000000000.0, 9000000000.0, 9000000000.0, 9000000000.0, 9000000000.0, 9000000000.0],  v1000, z0, tool0]
CONST robtarget point_211_clearance:=[[292,153,10],[30,-30,30],[0, 0, 0, 0],[9000000000.0, 9000000000.0, 9000000000.0, 9000000000.0, 9000000000.0, 9000000000.0], v1000, z0, tool0]
CONST robtarget point_212_clearance:=[[276,152,10],[30,-30,30],[0, 0, 0, 0],[9000000000.0, 9000000000.0, 9000000000.0, 9000000000.0, 9000000000.0, 9000000000.0], v1000, z0, tool0]
CONST robtarget point_212_contact:=[[276,152,5],[30,-30,30],[0, 0, 0, 0],[9000000000.0, 9000000000.0, 9000000000.0, 9000000000.0, 9000000000.0, 9000000000.0], v1000, z0, tool0]
CONST robtarget point_213_contact:=[[236,150,5],[30,-30,30],[0, 0, 0, 0],[9000000000.0, 9000000000.0, 9000000000.0, 9000000000.0, 9000000000.0, 9000000000.0],  v1000, z0, tool0]
CONST robtarget point_213_clearance:=[[236,150,10],[30,-30,30],[0, 0, 0, 0],[9000000000.0, 9000000000.0, 9000000000.0, 9000000000.0, 9000000000.0, 9000000000.0], v1000, z0, tool0]
CONST robtarget point_214_clearance:=[[360,151,10],[30,-30,30],[0, 0, 0, 0],[9000000000.0, 9000000000.0, 9000000000.0, 9000000000.0, 9000000000.0, 9000000000.0], v1000, z0, tool0]
CONST robtarget point_214_contact:=[[360,151,5],[30,-30,30],[0, 0, 0, 0],[9000000000.0, 9000000000.0, 9000000000.0, 9000000000.0, 9000000000.0, 9000000000.0], v1000, z0, tool0]
CONST robtarget point_215_contact:=[[341,154,5],[30,-30,30],[0, 0, 0, 0],[9000000000.0, 9000000000.0, 9000000000.0, 9000000000.0, 9000000000.0, 9000000000.0],  v1000, z0, tool0]
CONST robtarget point_215_clearance:=[[341,154,10],[30,-30,30],[0, 0, 0, 0],[9000000000.0, 9000000000.0, 9000000000.0, 9000000000.0, 9000000000.0, 9000000000.0], v1000, z0, tool0]
CONST robtarget point_216_clearance:=[[146,152,10],[30,-30,30],[0, 0, 0, 0],[9000000000.0, 9000000000.0, 9000000000.0, 9000000000.0, 9000000000.0, 9000000000.0], v1000, z0, tool0]
CONST robtarget point_216_contact:=[[146,152,5],[30,-30,30],[0, 0, 0, 0],[9000000000.0, 9000000000.0, 9000000000.0, 9000000000.0, 9000000000.0, 9000000000.0], v1000, z0, tool0]
CONST robtarget point_217_contact:=[[151,152,5],[30,-30,30],[0, 0, 0, 0],[9000000000.0, 9000000000.0, 9000000000.0, 9000000000.0, 9000000000.0, 9000000000.0],  v1000, z0, tool0]
CONST robtarget point_217_clearance:=[[151,152,10],[30,-30,30],[0, 0, 0, 0],[9000000000.0, 9000000000.0, 9000000000.0, 9000000000.0, 9000000000.0, 9000000000.0], v1000, z0, tool0]
CONST robtarget point_218_clearance:=[[156,151,10],[30,-30,30],[0, 0, 0, 0],[9000000000.0, 9000000000.0, 9000000000.0, 9000000000.0, 9000000000.0, 9000000000.0], v1000, z0, tool0]
CONST robtarget point_218_contact:=[[156,151,5],[30,-30,30],[0, 0, 0, 0],[9000000000.0, 9000000000.0, 9000000000.0, 9000000000.0, 9000000000.0, 9000000000.0], v1000, z0, tool0]
CONST robtarget point_219_contact:=[[146,162,5],[30,-30,30],[0, 0, 0, 0],[9000000000.0, 9000000000.0, 9000000000.0, 9000000000.0, 9000000000.0, 9000000000.0],  v1000, z0, tool0]
CONST robtarget point_219_clearance:=[[146,162,10],[30,-30,30],[0, 0, 0, 0],[9000000000.0, 9000000000.0, 9000000000.0, 9000000000.0, 9000000000.0, 9000000000.0], v1000, z0, tool0]
CONST robtarget point_220_clearance:=[[236,151,10],[30,-30,30],[0, 0, 0, 0],[9000000000.0, 9000000000.0, 9000000000.0, 9000000000.0, 9000000000.0, 9000000000.0], v1000, z0, tool0]
CONST robtarget point_220_contact:=[[236,151,5],[30,-30,30],[0, 0, 0, 0],[9000000000.0, 9000000000.0, 9000000000.0, 9000000000.0, 9000000000.0, 9000000000.0], v1000, z0, tool0]
CONST robtarget point_221_contact:=[[227,156,5],[30,-30,30],[0, 0, 0, 0],[9000000000.0, 9000000000.0, 9000000000.0, 9000000000.0, 9000000000.0, 9000000000.0],  v1000, z0, tool0]
CONST robtarget point_221_clearance:=[[227,156,10],[30,-30,30],[0, 0, 0, 0],[9000000000.0, 9000000000.0, 9000000000.0, 9000000000.0, 9000000000.0, 9000000000.0], v1000, z0, tool0]
CONST robtarget point_222_clearance:=[[180,153,10],[30,-30,30],[0, 0, 0, 0],[9000000000.0, 9000000000.0, 9000000000.0, 9000000000.0, 9000000000.0, 9000000000.0], v1000, z0, tool0]
CONST robtarget point_222_contact:=[[180,153,5],[30,-30,30],[0, 0, 0, 0],[9000000000.0, 9000000000.0, 9000000000.0, 9000000000.0, 9000000000.0, 9000000000.0], v1000, z0, tool0]
CONST robtarget point_223_contact:=[[167,157,5],[30,-30,30],[0, 0, 0, 0],[9000000000.0, 9000000000.0, 9000000000.0, 9000000000.0, 9000000000.0, 9000000000.0],  v1000, z0, tool0]
CONST robtarget point_223_clearance:=[[167,157,10],[30,-30,30],[0, 0, 0, 0],[9000000000.0, 9000000000.0, 9000000000.0, 9000000000.0, 9000000000.0, 9000000000.0], v1000, z0, tool0]
CONST robtarget point_224_clearance:=[[191,158,10],[30,-30,30],[0, 0, 0, 0],[9000000000.0, 9000000000.0, 9000000000.0, 9000000000.0, 9000000000.0, 9000000000.0], v1000, z0, tool0]
CONST robtarget point_224_contact:=[[191,158,5],[30,-30,30],[0, 0, 0, 0],[9000000000.0, 9000000000.0, 9000000000.0, 9000000000.0, 9000000000.0, 9000000000.0], v1000, z0, tool0]
CONST robtarget point_225_contact:=[[181,153,5],[30,-30,30],[0, 0, 0, 0],[9000000000.0, 9000000000.0, 9000000000.0, 9000000000.0, 9000000000.0, 9000000000.0],  v1000, z0, tool0]
CONST robtarget point_225_clearance:=[[181,153,10],[30,-30,30],[0, 0, 0, 0],[9000000000.0, 9000000000.0, 9000000000.0, 9000000000.0, 9000000000.0, 9000000000.0], v1000, z0, tool0]
CONST robtarget point_226_clearance:=[[295,154,10],[30,-30,30],[0, 0, 0, 0],[9000000000.0, 9000000000.0, 9000000000.0, 9000000000.0, 9000000000.0, 9000000000.0], v1000, z0, tool0]
CONST robtarget point_226_contact:=[[295,154,5],[30,-30,30],[0, 0, 0, 0],[9000000000.0, 9000000000.0, 9000000000.0, 9000000000.0, 9000000000.0, 9000000000.0], v1000, z0, tool0]
CONST robtarget point_227_contact:=[[315,158,5],[30,-30,30],[0, 0, 0, 0],[9000000000.0, 9000000000.0, 9000000000.0, 9000000000.0, 9000000000.0, 9000000000.0],  v1000, z0, tool0]
CONST robtarget point_227_clearance:=[[315,158,10],[30,-30,30],[0, 0, 0, 0],[9000000000.0, 9000000000.0, 9000000000.0, 9000000000.0, 9000000000.0, 9000000000.0], v1000, z0, tool0]
CONST robtarget point_228_clearance:=[[381,151,10],[30,-30,30],[0, 0, 0, 0],[9000000000.0, 9000000000.0, 9000000000.0, 9000000000.0, 9000000000.0, 9000000000.0], v1000, z0, tool0]
CONST robtarget point_228_contact:=[[381,151,5],[30,-30,30],[0, 0, 0, 0],[9000000000.0, 9000000000.0, 9000000000.0, 9000000000.0, 9000000000.0, 9000000000.0], v1000, z0, tool0]
CONST robtarget point_229_contact:=[[390,157,5],[30,-30,30],[0, 0, 0, 0],[9000000000.0, 9000000000.0, 9000000000.0, 9000000000.0, 9000000000.0, 9000000000.0],  v1000, z0, tool0]
CONST robtarget point_229_clearance:=[[390,157,10],[30,-30,30],[0, 0, 0, 0],[9000000000.0, 9000000000.0, 9000000000.0, 9000000000.0, 9000000000.0, 9000000000.0], v1000, z0, tool0]
CONST robtarget point_230_clearance:=[[207,162,10],[30,-30,30],[0, 0, 0, 0],[9000000000.0, 9000000000.0, 9000000000.0, 9000000000.0, 9000000000.0, 9000000000.0], v1000, z0, tool0]
CONST robtarget point_230_contact:=[[207,162,5],[30,-30,30],[0, 0, 0, 0],[9000000000.0, 9000000000.0, 9000000000.0, 9000000000.0, 9000000000.0, 9000000000.0], v1000, z0, tool0]
CONST robtarget point_231_contact:=[[208,153,5],[30,-30,30],[0, 0, 0, 0],[9000000000.0, 9000000000.0, 9000000000.0, 9000000000.0, 9000000000.0, 9000000000.0],  v1000, z0, tool0]
CONST robtarget point_231_clearance:=[[208,153,10],[30,-30,30],[0, 0, 0, 0],[9000000000.0, 9000000000.0, 9000000000.0, 9000000000.0, 9000000000.0, 9000000000.0], v1000, z0, tool0]
CONST robtarget point_232_clearance:=[[230,159,10],[30,-30,30],[0, 0, 0, 0],[9000000000.0, 9000000000.0, 9000000000.0, 9000000000.0, 9000000000.0, 9000000000.0], v1000, z0, tool0]
CONST robtarget point_232_contact:=[[230,159,5],[30,-30,30],[0, 0, 0, 0],[9000000000.0, 9000000000.0, 9000000000.0, 9000000000.0, 9000000000.0, 9000000000.0], v1000, z0, tool0]
CONST robtarget point_233_contact:=[[261,154,5],[30,-30,30],[0, 0, 0, 0],[9000000000.0, 9000000000.0, 9000000000.0, 9000000000.0, 9000000000.0, 9000000000.0],  v1000, z0, tool0]
CONST robtarget point_233_clearance:=[[261,154,10],[30,-30,30],[0, 0, 0, 0],[9000000000.0, 9000000000.0, 9000000000.0, 9000000000.0, 9000000000.0, 9000000000.0], v1000, z0, tool0]
CONST robtarget point_234_clearance:=[[261,155,10],[30,-30,30],[0, 0, 0, 0],[9000000000.0, 9000000000.0, 9000000000.0, 9000000000.0, 9000000000.0, 9000000000.0], v1000, z0, tool0]
CONST robtarget point_234_contact:=[[261,155,5],[30,-30,30],[0, 0, 0, 0],[9000000000.0, 9000000000.0, 9000000000.0, 9000000000.0, 9000000000.0, 9000000000.0], v1000, z0, tool0]
CONST robtarget point_235_contact:=[[276,157,5],[30,-30,30],[0, 0, 0, 0],[9000000000.0, 9000000000.0, 9000000000.0, 9000000000.0, 9000000000.0, 9000000000.0],  v1000, z0, tool0]
CONST robtarget point_235_clearance:=[[276,157,10],[30,-30,30],[0, 0, 0, 0],[9000000000.0, 9000000000.0, 9000000000.0, 9000000000.0, 9000000000.0, 9000000000.0], v1000, z0, tool0]
CONST robtarget point_236_clearance:=[[395,154,10],[30,-30,30],[0, 0, 0, 0],[9000000000.0, 9000000000.0, 9000000000.0, 9000000000.0, 9000000000.0, 9000000000.0], v1000, z0, tool0]
CONST robtarget point_236_contact:=[[395,154,5],[30,-30,30],[0, 0, 0, 0],[9000000000.0, 9000000000.0, 9000000000.0, 9000000000.0, 9000000000.0, 9000000000.0], v1000, z0, tool0]
CONST robtarget point_237_contact:=[[400,160,5],[30,-30,30],[0, 0, 0, 0],[9000000000.0, 9000000000.0, 9000000000.0, 9000000000.0, 9000000000.0, 9000000000.0],  v1000, z0, tool0]
CONST robtarget point_237_clearance:=[[400,160,10],[30,-30,30],[0, 0, 0, 0],[9000000000.0, 9000000000.0, 9000000000.0, 9000000000.0, 9000000000.0, 9000000000.0], v1000, z0, tool0]
CONST robtarget point_238_clearance:=[[331,155,10],[30,-30,30],[0, 0, 0, 0],[9000000000.0, 9000000000.0, 9000000000.0, 9000000000.0, 9000000000.0, 9000000000.0], v1000, z0, tool0]
CONST robtarget point_238_contact:=[[331,155,5],[30,-30,30],[0, 0, 0, 0],[9000000000.0, 9000000000.0, 9000000000.0, 9000000000.0, 9000000000.0, 9000000000.0], v1000, z0, tool0]
CONST robtarget point_239_contact:=[[359,159,5],[30,-30,30],[0, 0, 0, 0],[9000000000.0, 9000000000.0, 9000000000.0, 9000000000.0, 9000000000.0, 9000000000.0],  v1000, z0, tool0]
CONST robtarget point_239_clearance:=[[359,159,10],[30,-30,30],[0, 0, 0, 0],[9000000000.0, 9000000000.0, 9000000000.0, 9000000000.0, 9000000000.0, 9000000000.0], v1000, z0, tool0]
CONST robtarget point_240_clearance:=[[151,162,10],[30,-30,30],[0, 0, 0, 0],[9000000000.0, 9000000000.0, 9000000000.0, 9000000000.0, 9000000000.0, 9000000000.0], v1000, z0, tool0]
CONST robtarget point_240_contact:=[[151,162,5],[30,-30,30],[0, 0, 0, 0],[9000000000.0, 9000000000.0, 9000000000.0, 9000000000.0, 9000000000.0, 9000000000.0], v1000, z0, tool0]
CONST robtarget point_241_contact:=[[159,158,5],[30,-30,30],[0, 0, 0, 0],[9000000000.0, 9000000000.0, 9000000000.0, 9000000000.0, 9000000000.0, 9000000000.0],  v1000, z0, tool0]
CONST robtarget point_241_clearance:=[[159,158,10],[30,-30,30],[0, 0, 0, 0],[9000000000.0, 9000000000.0, 9000000000.0, 9000000000.0, 9000000000.0, 9000000000.0], v1000, z0, tool0]
CONST robtarget point_242_clearance:=[[194,159,10],[30,-30,30],[0, 0, 0, 0],[9000000000.0, 9000000000.0, 9000000000.0, 9000000000.0, 9000000000.0, 9000000000.0], v1000, z0, tool0]
CONST robtarget point_242_contact:=[[194,159,5],[30,-30,30],[0, 0, 0, 0],[9000000000.0, 9000000000.0, 9000000000.0, 9000000000.0, 9000000000.0, 9000000000.0], v1000, z0, tool0]
CONST robtarget point_243_contact:=[[201,158,5],[30,-30,30],[0, 0, 0, 0],[9000000000.0, 9000000000.0, 9000000000.0, 9000000000.0, 9000000000.0, 9000000000.0],  v1000, z0, tool0]
CONST robtarget point_243_clearance:=[[201,158,10],[30,-30,30],[0, 0, 0, 0],[9000000000.0, 9000000000.0, 9000000000.0, 9000000000.0, 9000000000.0, 9000000000.0], v1000, z0, tool0]
CONST robtarget point_244_clearance:=[[211,157,10],[30,-30,30],[0, 0, 0, 0],[9000000000.0, 9000000000.0, 9000000000.0, 9000000000.0, 9000000000.0, 9000000000.0], v1000, z0, tool0]
CONST robtarget point_244_contact:=[[211,157,5],[30,-30,30],[0, 0, 0, 0],[9000000000.0, 9000000000.0, 9000000000.0, 9000000000.0, 9000000000.0, 9000000000.0], v1000, z0, tool0]
CONST robtarget point_245_contact:=[[211,171,5],[30,-30,30],[0, 0, 0, 0],[9000000000.0, 9000000000.0, 9000000000.0, 9000000000.0, 9000000000.0, 9000000000.0],  v1000, z0, tool0]
CONST robtarget point_245_clearance:=[[211,171,10],[30,-30,30],[0, 0, 0, 0],[9000000000.0, 9000000000.0, 9000000000.0, 9000000000.0, 9000000000.0, 9000000000.0], v1000, z0, tool0]
CONST robtarget point_246_clearance:=[[259,162,10],[30,-30,30],[0, 0, 0, 0],[9000000000.0, 9000000000.0, 9000000000.0, 9000000000.0, 9000000000.0, 9000000000.0], v1000, z0, tool0]
CONST robtarget point_246_contact:=[[259,162,5],[30,-30,30],[0, 0, 0, 0],[9000000000.0, 9000000000.0, 9000000000.0, 9000000000.0, 9000000000.0, 9000000000.0], v1000, z0, tool0]
CONST robtarget point_247_contact:=[[240,164,5],[30,-30,30],[0, 0, 0, 0],[9000000000.0, 9000000000.0, 9000000000.0, 9000000000.0, 9000000000.0, 9000000000.0],  v1000, z0, tool0]
CONST robtarget point_247_clearance:=[[240,164,10],[30,-30,30],[0, 0, 0, 0],[9000000000.0, 9000000000.0, 9000000000.0, 9000000000.0, 9000000000.0, 9000000000.0], v1000, z0, tool0]
CONST robtarget point_248_clearance:=[[265,162,10],[30,-30,30],[0, 0, 0, 0],[9000000000.0, 9000000000.0, 9000000000.0, 9000000000.0, 9000000000.0, 9000000000.0], v1000, z0, tool0]
CONST robtarget point_248_contact:=[[265,162,5],[30,-30,30],[0, 0, 0, 0],[9000000000.0, 9000000000.0, 9000000000.0, 9000000000.0, 9000000000.0, 9000000000.0], v1000, z0, tool0]
CONST robtarget point_249_contact:=[[259,158,5],[30,-30,30],[0, 0, 0, 0],[9000000000.0, 9000000000.0, 9000000000.0, 9000000000.0, 9000000000.0, 9000000000.0],  v1000, z0, tool0]
CONST robtarget point_249_clearance:=[[259,158,10],[30,-30,30],[0, 0, 0, 0],[9000000000.0, 9000000000.0, 9000000000.0, 9000000000.0, 9000000000.0, 9000000000.0], v1000, z0, tool0]
CONST robtarget point_250_clearance:=[[359,159,10],[30,-30,30],[0, 0, 0, 0],[9000000000.0, 9000000000.0, 9000000000.0, 9000000000.0, 9000000000.0, 9000000000.0], v1000, z0, tool0]
CONST robtarget point_250_contact:=[[359,159,5],[30,-30,30],[0, 0, 0, 0],[9000000000.0, 9000000000.0, 9000000000.0, 9000000000.0, 9000000000.0, 9000000000.0], v1000, z0, tool0]
CONST robtarget point_251_contact:=[[372,166,5],[30,-30,30],[0, 0, 0, 0],[9000000000.0, 9000000000.0, 9000000000.0, 9000000000.0, 9000000000.0, 9000000000.0],  v1000, z0, tool0]
CONST robtarget point_251_clearance:=[[372,166,10],[30,-30,30],[0, 0, 0, 0],[9000000000.0, 9000000000.0, 9000000000.0, 9000000000.0, 9000000000.0, 9000000000.0], v1000, z0, tool0]
CONST robtarget point_252_clearance:=[[218,161,10],[30,-30,30],[0, 0, 0, 0],[9000000000.0, 9000000000.0, 9000000000.0, 9000000000.0, 9000000000.0, 9000000000.0], v1000, z0, tool0]
CONST robtarget point_252_contact:=[[218,161,5],[30,-30,30],[0, 0, 0, 0],[9000000000.0, 9000000000.0, 9000000000.0, 9000000000.0, 9000000000.0, 9000000000.0], v1000, z0, tool0]
CONST robtarget point_253_contact:=[[230,160,5],[30,-30,30],[0, 0, 0, 0],[9000000000.0, 9000000000.0, 9000000000.0, 9000000000.0, 9000000000.0, 9000000000.0],  v1000, z0, tool0]
CONST robtarget point_253_clearance:=[[230,160,10],[30,-30,30],[0, 0, 0, 0],[9000000000.0, 9000000000.0, 9000000000.0, 9000000000.0, 9000000000.0, 9000000000.0], v1000, z0, tool0]
CONST robtarget point_254_clearance:=[[311,159,10],[30,-30,30],[0, 0, 0, 0],[9000000000.0, 9000000000.0, 9000000000.0, 9000000000.0, 9000000000.0, 9000000000.0], v1000, z0, tool0]
CONST robtarget point_254_contact:=[[311,159,5],[30,-30,30],[0, 0, 0, 0],[9000000000.0, 9000000000.0, 9000000000.0, 9000000000.0, 9000000000.0, 9000000000.0], v1000, z0, tool0]
CONST robtarget point_255_contact:=[[295,159,5],[30,-30,30],[0, 0, 0, 0],[9000000000.0, 9000000000.0, 9000000000.0, 9000000000.0, 9000000000.0, 9000000000.0],  v1000, z0, tool0]
CONST robtarget point_255_clearance:=[[295,159,10],[30,-30,30],[0, 0, 0, 0],[9000000000.0, 9000000000.0, 9000000000.0, 9000000000.0, 9000000000.0, 9000000000.0], v1000, z0, tool0]
CONST robtarget point_256_clearance:=[[389,158,10],[30,-30,30],[0, 0, 0, 0],[9000000000.0, 9000000000.0, 9000000000.0, 9000000000.0, 9000000000.0, 9000000000.0], v1000, z0, tool0]
CONST robtarget point_256_contact:=[[389,158,5],[30,-30,30],[0, 0, 0, 0],[9000000000.0, 9000000000.0, 9000000000.0, 9000000000.0, 9000000000.0, 9000000000.0], v1000, z0, tool0]
CONST robtarget point_257_contact:=[[395,171,5],[30,-30,30],[0, 0, 0, 0],[9000000000.0, 9000000000.0, 9000000000.0, 9000000000.0, 9000000000.0, 9000000000.0],  v1000, z0, tool0]
CONST robtarget point_257_clearance:=[[395,171,10],[30,-30,30],[0, 0, 0, 0],[9000000000.0, 9000000000.0, 9000000000.0, 9000000000.0, 9000000000.0, 9000000000.0], v1000, z0, tool0]
CONST robtarget point_258_clearance:=[[402,160,10],[30,-30,30],[0, 0, 0, 0],[9000000000.0, 9000000000.0, 9000000000.0, 9000000000.0, 9000000000.0, 9000000000.0], v1000, z0, tool0]
CONST robtarget point_258_contact:=[[402,160,5],[30,-30,30],[0, 0, 0, 0],[9000000000.0, 9000000000.0, 9000000000.0, 9000000000.0, 9000000000.0, 9000000000.0], v1000, z0, tool0]
CONST robtarget point_259_contact:=[[410,160,5],[30,-30,30],[0, 0, 0, 0],[9000000000.0, 9000000000.0, 9000000000.0, 9000000000.0, 9000000000.0, 9000000000.0],  v1000, z0, tool0]
CONST robtarget point_259_clearance:=[[410,160,10],[30,-30,30],[0, 0, 0, 0],[9000000000.0, 9000000000.0, 9000000000.0, 9000000000.0, 9000000000.0, 9000000000.0], v1000, z0, tool0]
CONST robtarget point_260_clearance:=[[288,166,10],[30,-30,30],[0, 0, 0, 0],[9000000000.0, 9000000000.0, 9000000000.0, 9000000000.0, 9000000000.0, 9000000000.0], v1000, z0, tool0]
CONST robtarget point_260_contact:=[[288,166,5],[30,-30,30],[0, 0, 0, 0],[9000000000.0, 9000000000.0, 9000000000.0, 9000000000.0, 9000000000.0, 9000000000.0], v1000, z0, tool0]
CONST robtarget point_261_contact:=[[295,160,5],[30,-30,30],[0, 0, 0, 0],[9000000000.0, 9000000000.0, 9000000000.0, 9000000000.0, 9000000000.0, 9000000000.0],  v1000, z0, tool0]
CONST robtarget point_261_clearance:=[[295,160,10],[30,-30,30],[0, 0, 0, 0],[9000000000.0, 9000000000.0, 9000000000.0, 9000000000.0, 9000000000.0, 9000000000.0], v1000, z0, tool0]
CONST robtarget point_262_clearance:=[[310,162,10],[30,-30,30],[0, 0, 0, 0],[9000000000.0, 9000000000.0, 9000000000.0, 9000000000.0, 9000000000.0, 9000000000.0], v1000, z0, tool0]
CONST robtarget point_262_contact:=[[310,162,5],[30,-30,30],[0, 0, 0, 0],[9000000000.0, 9000000000.0, 9000000000.0, 9000000000.0, 9000000000.0, 9000000000.0], v1000, z0, tool0]
CONST robtarget point_263_contact:=[[312,160,5],[30,-30,30],[0, 0, 0, 0],[9000000000.0, 9000000000.0, 9000000000.0, 9000000000.0, 9000000000.0, 9000000000.0],  v1000, z0, tool0]
CONST robtarget point_263_clearance:=[[312,160,10],[30,-30,30],[0, 0, 0, 0],[9000000000.0, 9000000000.0, 9000000000.0, 9000000000.0, 9000000000.0, 9000000000.0], v1000, z0, tool0]
CONST robtarget point_264_clearance:=[[328,164,10],[30,-30,30],[0, 0, 0, 0],[9000000000.0, 9000000000.0, 9000000000.0, 9000000000.0, 9000000000.0, 9000000000.0], v1000, z0, tool0]
CONST robtarget point_264_contact:=[[328,164,5],[30,-30,30],[0, 0, 0, 0],[9000000000.0, 9000000000.0, 9000000000.0, 9000000000.0, 9000000000.0, 9000000000.0], v1000, z0, tool0]
CONST robtarget point_265_contact:=[[333,160,5],[30,-30,30],[0, 0, 0, 0],[9000000000.0, 9000000000.0, 9000000000.0, 9000000000.0, 9000000000.0, 9000000000.0],  v1000, z0, tool0]
CONST robtarget point_265_clearance:=[[333,160,10],[30,-30,30],[0, 0, 0, 0],[9000000000.0, 9000000000.0, 9000000000.0, 9000000000.0, 9000000000.0, 9000000000.0], v1000, z0, tool0]
CONST robtarget point_266_clearance:=[[334,159,10],[30,-30,30],[0, 0, 0, 0],[9000000000.0, 9000000000.0, 9000000000.0, 9000000000.0, 9000000000.0, 9000000000.0], v1000, z0, tool0]
CONST robtarget point_266_contact:=[[334,159,5],[30,-30,30],[0, 0, 0, 0],[9000000000.0, 9000000000.0, 9000000000.0, 9000000000.0, 9000000000.0, 9000000000.0], v1000, z0, tool0]
CONST robtarget point_267_contact:=[[336,166,5],[30,-30,30],[0, 0, 0, 0],[9000000000.0, 9000000000.0, 9000000000.0, 9000000000.0, 9000000000.0, 9000000000.0],  v1000, z0, tool0]
CONST robtarget point_267_clearance:=[[336,166,10],[30,-30,30],[0, 0, 0, 0],[9000000000.0, 9000000000.0, 9000000000.0, 9000000000.0, 9000000000.0, 9000000000.0], v1000, z0, tool0]
CONST robtarget point_268_clearance:=[[240,163,10],[30,-30,30],[0, 0, 0, 0],[9000000000.0, 9000000000.0, 9000000000.0, 9000000000.0, 9000000000.0, 9000000000.0], v1000, z0, tool0]
CONST robtarget point_268_contact:=[[240,163,5],[30,-30,30],[0, 0, 0, 0],[9000000000.0, 9000000000.0, 9000000000.0, 9000000000.0, 9000000000.0, 9000000000.0], v1000, z0, tool0]
CONST robtarget point_269_contact:=[[222,168,5],[30,-30,30],[0, 0, 0, 0],[9000000000.0, 9000000000.0, 9000000000.0, 9000000000.0, 9000000000.0, 9000000000.0],  v1000, z0, tool0]
CONST robtarget point_269_clearance:=[[222,168,10],[30,-30,30],[0, 0, 0, 0],[9000000000.0, 9000000000.0, 9000000000.0, 9000000000.0, 9000000000.0, 9000000000.0], v1000, z0, tool0]
CONST robtarget point_270_clearance:=[[261,165,10],[30,-30,30],[0, 0, 0, 0],[9000000000.0, 9000000000.0, 9000000000.0, 9000000000.0, 9000000000.0, 9000000000.0], v1000, z0, tool0]
CONST robtarget point_270_contact:=[[261,165,5],[30,-30,30],[0, 0, 0, 0],[9000000000.0, 9000000000.0, 9000000000.0, 9000000000.0, 9000000000.0, 9000000000.0], v1000, z0, tool0]
CONST robtarget point_271_contact:=[[271,163,5],[30,-30,30],[0, 0, 0, 0],[9000000000.0, 9000000000.0, 9000000000.0, 9000000000.0, 9000000000.0, 9000000000.0],  v1000, z0, tool0]
CONST robtarget point_271_clearance:=[[271,163,10],[30,-30,30],[0, 0, 0, 0],[9000000000.0, 9000000000.0, 9000000000.0, 9000000000.0, 9000000000.0, 9000000000.0], v1000, z0, tool0]
CONST robtarget point_272_clearance:=[[308,166,10],[30,-30,30],[0, 0, 0, 0],[9000000000.0, 9000000000.0, 9000000000.0, 9000000000.0, 9000000000.0, 9000000000.0], v1000, z0, tool0]
CONST robtarget point_272_contact:=[[308,166,5],[30,-30,30],[0, 0, 0, 0],[9000000000.0, 9000000000.0, 9000000000.0, 9000000000.0, 9000000000.0, 9000000000.0], v1000, z0, tool0]
CONST robtarget point_273_contact:=[[314,161,5],[30,-30,30],[0, 0, 0, 0],[9000000000.0, 9000000000.0, 9000000000.0, 9000000000.0, 9000000000.0, 9000000000.0],  v1000, z0, tool0]
CONST robtarget point_273_clearance:=[[314,161,10],[30,-30,30],[0, 0, 0, 0],[9000000000.0, 9000000000.0, 9000000000.0, 9000000000.0, 9000000000.0, 9000000000.0], v1000, z0, tool0]
CONST robtarget point_274_clearance:=[[348,163,10],[30,-30,30],[0, 0, 0, 0],[9000000000.0, 9000000000.0, 9000000000.0, 9000000000.0, 9000000000.0, 9000000000.0], v1000, z0, tool0]
CONST robtarget point_274_contact:=[[348,163,5],[30,-30,30],[0, 0, 0, 0],[9000000000.0, 9000000000.0, 9000000000.0, 9000000000.0, 9000000000.0, 9000000000.0], v1000, z0, tool0]
CONST robtarget point_275_contact:=[[340,164,5],[30,-30,30],[0, 0, 0, 0],[9000000000.0, 9000000000.0, 9000000000.0, 9000000000.0, 9000000000.0, 9000000000.0],  v1000, z0, tool0]
CONST robtarget point_275_clearance:=[[340,164,10],[30,-30,30],[0, 0, 0, 0],[9000000000.0, 9000000000.0, 9000000000.0, 9000000000.0, 9000000000.0, 9000000000.0], v1000, z0, tool0]
CONST robtarget point_276_clearance:=[[352,161,10],[30,-30,30],[0, 0, 0, 0],[9000000000.0, 9000000000.0, 9000000000.0, 9000000000.0, 9000000000.0, 9000000000.0], v1000, z0, tool0]
CONST robtarget point_276_contact:=[[352,161,5],[30,-30,30],[0, 0, 0, 0],[9000000000.0, 9000000000.0, 9000000000.0, 9000000000.0, 9000000000.0, 9000000000.0], v1000, z0, tool0]
CONST robtarget point_277_contact:=[[350,166,5],[30,-30,30],[0, 0, 0, 0],[9000000000.0, 9000000000.0, 9000000000.0, 9000000000.0, 9000000000.0, 9000000000.0],  v1000, z0, tool0]
CONST robtarget point_277_clearance:=[[350,166,10],[30,-30,30],[0, 0, 0, 0],[9000000000.0, 9000000000.0, 9000000000.0, 9000000000.0, 9000000000.0, 9000000000.0], v1000, z0, tool0]
CONST robtarget point_278_clearance:=[[366,170,10],[30,-30,30],[0, 0, 0, 0],[9000000000.0, 9000000000.0, 9000000000.0, 9000000000.0, 9000000000.0, 9000000000.0], v1000, z0, tool0]
CONST robtarget point_278_contact:=[[366,170,5],[30,-30,30],[0, 0, 0, 0],[9000000000.0, 9000000000.0, 9000000000.0, 9000000000.0, 9000000000.0, 9000000000.0], v1000, z0, tool0]
CONST robtarget point_279_contact:=[[352,163,5],[30,-30,30],[0, 0, 0, 0],[9000000000.0, 9000000000.0, 9000000000.0, 9000000000.0, 9000000000.0, 9000000000.0],  v1000, z0, tool0]
CONST robtarget point_279_clearance:=[[352,163,10],[30,-30,30],[0, 0, 0, 0],[9000000000.0, 9000000000.0, 9000000000.0, 9000000000.0, 9000000000.0, 9000000000.0], v1000, z0, tool0]
CONST robtarget point_280_clearance:=[[398,168,10],[30,-30,30],[0, 0, 0, 0],[9000000000.0, 9000000000.0, 9000000000.0, 9000000000.0, 9000000000.0, 9000000000.0], v1000, z0, tool0]
CONST robtarget point_280_contact:=[[398,168,5],[30,-30,30],[0, 0, 0, 0],[9000000000.0, 9000000000.0, 9000000000.0, 9000000000.0, 9000000000.0, 9000000000.0], v1000, z0, tool0]
