MODULE MainModule
    CONST jointtarget home:=[[-90,40,10,0,40,90],[9E+09,9E+09,9E+09,9E+09,9E+09,9E+09]];
    CONST robtarget calib_1:=[[25,25,132],[0,0,1,0],[0,0,0,0],[9E+09,9E+09,9E+09,9E+09,9E+09,9E+09]];
    CONST robtarget calib_2:=[[558,25,132],[0,0,1,0],[0,0,0,0],[9E+09,9E+09,9E+09,9E+09,9E+09,9E+09]];
    CONST robtarget calib_3:=[[558,406,132],[0,0,1,0],[0,0,0,0],[9E+09,9E+09,9E+09,9E+09,9E+09,9E+09]];
    CONST robtarget calib_4:=[[25,406,132],[0,0,1,0],[0,0,0,0],[9E+09,9E+09,9E+09,9E+09,9E+09,9E+09]];
    CONST robtarget point_0_clearance:=[[472,27,132],[0,0,1,0],[0, 0, 0, 0],[9E+09,9E+09,9E+09,9E+09,9E+09,9E+09]];
    CONST robtarget point_0_contact:=[[472,27,122],[0,0,1,0],[0, 0, 0, 0],[9E+09,9E+09,9E+09,9E+09,9E+09,9E+09]];
    CONST robtarget point_1_contact:=[[518,26,122],[0,0,1,0],[0, 0, 0, 0],[9E+09,9E+09,9E+09,9E+09,9E+09,9E+09]];
    CONST robtarget point_1_clearance:=[[518,26,132],[0,0,1,0],[0, 0, 0, 0],[9E+09,9E+09,9E+09,9E+09,9E+09,9E+09]];
    CONST robtarget point_2_clearance:=[[518,25,132],[0,0,1,0],[0, 0, 0, 0],[9E+09,9E+09,9E+09,9E+09,9E+09,9E+09]];
    CONST robtarget point_2_contact:=[[518,25,122],[0,0,1,0],[0, 0, 0, 0],[9E+09,9E+09,9E+09,9E+09,9E+09,9E+09]];
    CONST robtarget point_3_contact:=[[522,30,122],[0,0,1,0],[0, 0, 0, 0],[9E+09,9E+09,9E+09,9E+09,9E+09,9E+09]];
    CONST robtarget point_3_clearance:=[[522,30,132],[0,0,1,0],[0, 0, 0, 0],[9E+09,9E+09,9E+09,9E+09,9E+09,9E+09]];
    CONST robtarget point_4_clearance:=[[469,33,132],[0,0,1,0],[0, 0, 0, 0],[9E+09,9E+09,9E+09,9E+09,9E+09,9E+09]];
    CONST robtarget point_4_contact:=[[469,33,122],[0,0,1,0],[0, 0, 0, 0],[9E+09,9E+09,9E+09,9E+09,9E+09,9E+09]];
    CONST robtarget point_5_contact:=[[472,28,122],[0,0,1,0],[0, 0, 0, 0],[9E+09,9E+09,9E+09,9E+09,9E+09,9E+09]];
    CONST robtarget point_5_clearance:=[[472,28,132],[0,0,1,0],[0, 0, 0, 0],[9E+09,9E+09,9E+09,9E+09,9E+09,9E+09]];
    CONST robtarget point_6_clearance:=[[523,30,132],[0,0,1,0],[0, 0, 0, 0],[9E+09,9E+09,9E+09,9E+09,9E+09,9E+09]];
    CONST robtarget point_6_contact:=[[523,30,122],[0,0,1,0],[0, 0, 0, 0],[9E+09,9E+09,9E+09,9E+09,9E+09,9E+09]];
    CONST robtarget point_7_contact:=[[524,63,122],[0,0,1,0],[0, 0, 0, 0],[9E+09,9E+09,9E+09,9E+09,9E+09,9E+09]];
    CONST robtarget point_7_clearance:=[[524,63,132],[0,0,1,0],[0, 0, 0, 0],[9E+09,9E+09,9E+09,9E+09,9E+09,9E+09]];
    CONST robtarget point_8_clearance:=[[26,33,132],[0,0,1,0],[0, 0, 0, 0],[9E+09,9E+09,9E+09,9E+09,9E+09,9E+09]];
    CONST robtarget point_8_contact:=[[26,33,122],[0,0,1,0],[0, 0, 0, 0],[9E+09,9E+09,9E+09,9E+09,9E+09,9E+09]];
    CONST robtarget point_9_contact:=[[33,34,122],[0,0,1,0],[0, 0, 0, 0],[9E+09,9E+09,9E+09,9E+09,9E+09,9E+09]];
    CONST robtarget point_9_clearance:=[[33,34,132],[0,0,1,0],[0, 0, 0, 0],[9E+09,9E+09,9E+09,9E+09,9E+09,9E+09]];
    CONST robtarget point_10_clearance:=[[35,57,132],[0,0,1,0],[0, 0, 0, 0],[9E+09,9E+09,9E+09,9E+09,9E+09,9E+09]];
    CONST robtarget point_10_contact:=[[35,57,122],[0,0,1,0],[0, 0, 0, 0],[9E+09,9E+09,9E+09,9E+09,9E+09,9E+09]];
    CONST robtarget point_11_contact:=[[67,33,122],[0,0,1,0],[0, 0, 0, 0],[9E+09,9E+09,9E+09,9E+09,9E+09,9E+09]];
    CONST robtarget point_11_clearance:=[[67,33,132],[0,0,1,0],[0, 0, 0, 0],[9E+09,9E+09,9E+09,9E+09,9E+09,9E+09]];
    CONST robtarget point_12_clearance:=[[83,68,132],[0,0,1,0],[0, 0, 0, 0],[9E+09,9E+09,9E+09,9E+09,9E+09,9E+09]];
    CONST robtarget point_12_contact:=[[83,68,122],[0,0,1,0],[0, 0, 0, 0],[9E+09,9E+09,9E+09,9E+09,9E+09,9E+09]];
    CONST robtarget point_13_contact:=[[105,33,122],[0,0,1,0],[0, 0, 0, 0],[9E+09,9E+09,9E+09,9E+09,9E+09,9E+09]];
    CONST robtarget point_13_clearance:=[[105,33,132],[0,0,1,0],[0, 0, 0, 0],[9E+09,9E+09,9E+09,9E+09,9E+09,9E+09]];
    CONST robtarget point_14_clearance:=[[106,34,132],[0,0,1,0],[0, 0, 0, 0],[9E+09,9E+09,9E+09,9E+09,9E+09,9E+09]];
    CONST robtarget point_14_contact:=[[106,34,122],[0,0,1,0],[0, 0, 0, 0],[9E+09,9E+09,9E+09,9E+09,9E+09,9E+09]];
    CONST robtarget point_15_contact:=[[112,34,122],[0,0,1,0],[0, 0, 0, 0],[9E+09,9E+09,9E+09,9E+09,9E+09,9E+09]];
    CONST robtarget point_15_clearance:=[[112,34,132],[0,0,1,0],[0, 0, 0, 0],[9E+09,9E+09,9E+09,9E+09,9E+09,9E+09]];
    CONST robtarget point_16_clearance:=[[113,33,132],[0,0,1,0],[0, 0, 0, 0],[9E+09,9E+09,9E+09,9E+09,9E+09,9E+09]];
    CONST robtarget point_16_contact:=[[113,33,122],[0,0,1,0],[0, 0, 0, 0],[9E+09,9E+09,9E+09,9E+09,9E+09,9E+09]];
    CONST robtarget point_17_contact:=[[135,68,122],[0,0,1,0],[0, 0, 0, 0],[9E+09,9E+09,9E+09,9E+09,9E+09,9E+09]];
    CONST robtarget point_17_clearance:=[[135,68,132],[0,0,1,0],[0, 0, 0, 0],[9E+09,9E+09,9E+09,9E+09,9E+09,9E+09]];
    CONST robtarget point_18_clearance:=[[181,34,132],[0,0,1,0],[0, 0, 0, 0],[9E+09,9E+09,9E+09,9E+09,9E+09,9E+09]];
    CONST robtarget point_18_contact:=[[181,34,122],[0,0,1,0],[0, 0, 0, 0],[9E+09,9E+09,9E+09,9E+09,9E+09,9E+09]];
    CONST robtarget point_19_contact:=[[217,34,122],[0,0,1,0],[0, 0, 0, 0],[9E+09,9E+09,9E+09,9E+09,9E+09,9E+09]];
    CONST robtarget point_19_clearance:=[[217,34,132],[0,0,1,0],[0, 0, 0, 0],[9E+09,9E+09,9E+09,9E+09,9E+09,9E+09]];
    CONST robtarget point_20_clearance:=[[240,33,132],[0,0,1,0],[0, 0, 0, 0],[9E+09,9E+09,9E+09,9E+09,9E+09,9E+09]];
    CONST robtarget point_20_contact:=[[240,33,122],[0,0,1,0],[0, 0, 0, 0],[9E+09,9E+09,9E+09,9E+09,9E+09,9E+09]];
    CONST robtarget point_21_contact:=[[247,34,122],[0,0,1,0],[0, 0, 0, 0],[9E+09,9E+09,9E+09,9E+09,9E+09,9E+09]];
    CONST robtarget point_21_clearance:=[[247,34,132],[0,0,1,0],[0, 0, 0, 0],[9E+09,9E+09,9E+09,9E+09,9E+09,9E+09]];
    CONST robtarget point_22_clearance:=[[275,33,132],[0,0,1,0],[0, 0, 0, 0],[9E+09,9E+09,9E+09,9E+09,9E+09,9E+09]];
    CONST robtarget point_22_contact:=[[275,33,122],[0,0,1,0],[0, 0, 0, 0],[9E+09,9E+09,9E+09,9E+09,9E+09,9E+09]];
    CONST robtarget point_23_contact:=[[281,33,122],[0,0,1,0],[0, 0, 0, 0],[9E+09,9E+09,9E+09,9E+09,9E+09,9E+09]];
    CONST robtarget point_23_clearance:=[[281,33,132],[0,0,1,0],[0, 0, 0, 0],[9E+09,9E+09,9E+09,9E+09,9E+09,9E+09]];
    CONST robtarget point_24_clearance:=[[331,34,132],[0,0,1,0],[0, 0, 0, 0],[9E+09,9E+09,9E+09,9E+09,9E+09,9E+09]];
    CONST robtarget point_24_contact:=[[331,34,122],[0,0,1,0],[0, 0, 0, 0],[9E+09,9E+09,9E+09,9E+09,9E+09,9E+09]];
    CONST robtarget point_25_contact:=[[368,34,122],[0,0,1,0],[0, 0, 0, 0],[9E+09,9E+09,9E+09,9E+09,9E+09,9E+09]];
    CONST robtarget point_25_clearance:=[[368,34,132],[0,0,1,0],[0, 0, 0, 0],[9E+09,9E+09,9E+09,9E+09,9E+09,9E+09]];
    CONST robtarget point_26_clearance:=[[382,33,132],[0,0,1,0],[0, 0, 0, 0],[9E+09,9E+09,9E+09,9E+09,9E+09,9E+09]];
    CONST robtarget point_26_contact:=[[382,33,122],[0,0,1,0],[0, 0, 0, 0],[9E+09,9E+09,9E+09,9E+09,9E+09,9E+09]];
    CONST robtarget point_27_contact:=[[389,34,122],[0,0,1,0],[0, 0, 0, 0],[9E+09,9E+09,9E+09,9E+09,9E+09,9E+09]];
    CONST robtarget point_27_clearance:=[[389,34,132],[0,0,1,0],[0, 0, 0, 0],[9E+09,9E+09,9E+09,9E+09,9E+09,9E+09]];
    CONST robtarget point_28_clearance:=[[390,33,132],[0,0,1,0],[0, 0, 0, 0],[9E+09,9E+09,9E+09,9E+09,9E+09,9E+09]];
    CONST robtarget point_28_contact:=[[390,33,122],[0,0,1,0],[0, 0, 0, 0],[9E+09,9E+09,9E+09,9E+09,9E+09,9E+09]];
    CONST robtarget point_29_contact:=[[404,59,122],[0,0,1,0],[0, 0, 0, 0],[9E+09,9E+09,9E+09,9E+09,9E+09,9E+09]];
    CONST robtarget point_29_clearance:=[[404,59,132],[0,0,1,0],[0, 0, 0, 0],[9E+09,9E+09,9E+09,9E+09,9E+09,9E+09]];
    CONST robtarget point_30_clearance:=[[405,59,132],[0,0,1,0],[0, 0, 0, 0],[9E+09,9E+09,9E+09,9E+09,9E+09,9E+09]];
    CONST robtarget point_30_contact:=[[405,59,122],[0,0,1,0],[0, 0, 0, 0],[9E+09,9E+09,9E+09,9E+09,9E+09,9E+09]];
    CONST robtarget point_31_contact:=[[421,32,122],[0,0,1,0],[0, 0, 0, 0],[9E+09,9E+09,9E+09,9E+09,9E+09,9E+09]];
    CONST robtarget point_31_clearance:=[[421,32,132],[0,0,1,0],[0, 0, 0, 0],[9E+09,9E+09,9E+09,9E+09,9E+09,9E+09]];
    CONST robtarget point_32_clearance:=[[422,34,132],[0,0,1,0],[0, 0, 0, 0],[9E+09,9E+09,9E+09,9E+09,9E+09,9E+09]];
    CONST robtarget point_32_contact:=[[422,34,122],[0,0,1,0],[0, 0, 0, 0],[9E+09,9E+09,9E+09,9E+09,9E+09,9E+09]];
    CONST robtarget point_33_contact:=[[430,33,122],[0,0,1,0],[0, 0, 0, 0],[9E+09,9E+09,9E+09,9E+09,9E+09,9E+09]];
    CONST robtarget point_33_clearance:=[[430,33,132],[0,0,1,0],[0, 0, 0, 0],[9E+09,9E+09,9E+09,9E+09,9E+09,9E+09]];
    CONST robtarget point_34_clearance:=[[441,33,132],[0,0,1,0],[0, 0, 0, 0],[9E+09,9E+09,9E+09,9E+09,9E+09,9E+09]];
    CONST robtarget point_34_contact:=[[441,33,122],[0,0,1,0],[0, 0, 0, 0],[9E+09,9E+09,9E+09,9E+09,9E+09,9E+09]];
    CONST robtarget point_35_contact:=[[450,34,122],[0,0,1,0],[0, 0, 0, 0],[9E+09,9E+09,9E+09,9E+09,9E+09,9E+09]];
    CONST robtarget point_35_clearance:=[[450,34,132],[0,0,1,0],[0, 0, 0, 0],[9E+09,9E+09,9E+09,9E+09,9E+09,9E+09]];
    CONST robtarget point_36_clearance:=[[512,34,132],[0,0,1,0],[0, 0, 0, 0],[9E+09,9E+09,9E+09,9E+09,9E+09,9E+09]];
    CONST robtarget point_36_contact:=[[512,34,122],[0,0,1,0],[0, 0, 0, 0],[9E+09,9E+09,9E+09,9E+09,9E+09,9E+09]];
    CONST robtarget point_37_contact:=[[481,34,122],[0,0,1,0],[0, 0, 0, 0],[9E+09,9E+09,9E+09,9E+09,9E+09,9E+09]];
    CONST robtarget point_37_clearance:=[[481,34,132],[0,0,1,0],[0, 0, 0, 0],[9E+09,9E+09,9E+09,9E+09,9E+09,9E+09]];
    CONST robtarget point_38_clearance:=[[27,67,132],[0,0,1,0],[0, 0, 0, 0],[9E+09,9E+09,9E+09,9E+09,9E+09,9E+09]];
    CONST robtarget point_38_contact:=[[27,67,122],[0,0,1,0],[0, 0, 0, 0],[9E+09,9E+09,9E+09,9E+09,9E+09,9E+09]];
    CONST robtarget point_39_contact:=[[27,33,122],[0,0,1,0],[0, 0, 0, 0],[9E+09,9E+09,9E+09,9E+09,9E+09,9E+09]];
    CONST robtarget point_39_clearance:=[[27,33,132],[0,0,1,0],[0, 0, 0, 0],[9E+09,9E+09,9E+09,9E+09,9E+09,9E+09]];
    CONST robtarget point_40_clearance:=[[283,33,132],[0,0,1,0],[0, 0, 0, 0],[9E+09,9E+09,9E+09,9E+09,9E+09,9E+09]];
    CONST robtarget point_40_contact:=[[283,33,122],[0,0,1,0],[0, 0, 0, 0],[9E+09,9E+09,9E+09,9E+09,9E+09,9E+09]];
    CONST robtarget point_41_contact:=[[282,65,122],[0,0,1,0],[0, 0, 0, 0],[9E+09,9E+09,9E+09,9E+09,9E+09,9E+09]];
    CONST robtarget point_41_clearance:=[[282,65,132],[0,0,1,0],[0, 0, 0, 0],[9E+09,9E+09,9E+09,9E+09,9E+09,9E+09]];
    CONST robtarget point_42_clearance:=[[442,68,132],[0,0,1,0],[0, 0, 0, 0],[9E+09,9E+09,9E+09,9E+09,9E+09,9E+09]];
    CONST robtarget point_42_contact:=[[442,68,122],[0,0,1,0],[0, 0, 0, 0],[9E+09,9E+09,9E+09,9E+09,9E+09,9E+09]];
    CONST robtarget point_43_contact:=[[442,33,122],[0,0,1,0],[0, 0, 0, 0],[9E+09,9E+09,9E+09,9E+09,9E+09,9E+09]];
    CONST robtarget point_43_clearance:=[[442,33,132],[0,0,1,0],[0, 0, 0, 0],[9E+09,9E+09,9E+09,9E+09,9E+09,9E+09]];
    CONST robtarget point_44_clearance:=[[35,35,132],[0,0,1,0],[0, 0, 0, 0],[9E+09,9E+09,9E+09,9E+09,9E+09,9E+09]];
    CONST robtarget point_44_contact:=[[35,35,122],[0,0,1,0],[0, 0, 0, 0],[9E+09,9E+09,9E+09,9E+09,9E+09,9E+09]];
    CONST robtarget point_45_contact:=[[34,56,122],[0,0,1,0],[0, 0, 0, 0],[9E+09,9E+09,9E+09,9E+09,9E+09,9E+09]];
    CONST robtarget point_45_clearance:=[[34,56,132],[0,0,1,0],[0, 0, 0, 0],[9E+09,9E+09,9E+09,9E+09,9E+09,9E+09]];
    CONST robtarget point_46_clearance:=[[72,35,132],[0,0,1,0],[0, 0, 0, 0],[9E+09,9E+09,9E+09,9E+09,9E+09,9E+09]];
    CONST robtarget point_46_contact:=[[72,35,122],[0,0,1,0],[0, 0, 0, 0],[9E+09,9E+09,9E+09,9E+09,9E+09,9E+09]];
    CONST robtarget point_47_contact:=[[72,68,122],[0,0,1,0],[0, 0, 0, 0],[9E+09,9E+09,9E+09,9E+09,9E+09,9E+09]];
    CONST robtarget point_47_clearance:=[[72,68,132],[0,0,1,0],[0, 0, 0, 0],[9E+09,9E+09,9E+09,9E+09,9E+09,9E+09]];
    CONST robtarget point_48_clearance:=[[239,65,132],[0,0,1,0],[0, 0, 0, 0],[9E+09,9E+09,9E+09,9E+09,9E+09,9E+09]];
    CONST robtarget point_48_contact:=[[239,65,122],[0,0,1,0],[0, 0, 0, 0],[9E+09,9E+09,9E+09,9E+09,9E+09,9E+09]];
    CONST robtarget point_49_contact:=[[239,35,122],[0,0,1,0],[0, 0, 0, 0],[9E+09,9E+09,9E+09,9E+09,9E+09,9E+09]];
    CONST robtarget point_49_clearance:=[[239,35,132],[0,0,1,0],[0, 0, 0, 0],[9E+09,9E+09,9E+09,9E+09,9E+09,9E+09]];
    CONST robtarget point_50_clearance:=[[248,35,132],[0,0,1,0],[0, 0, 0, 0],[9E+09,9E+09,9E+09,9E+09,9E+09,9E+09]];
    CONST robtarget point_50_contact:=[[248,35,122],[0,0,1,0],[0, 0, 0, 0],[9E+09,9E+09,9E+09,9E+09,9E+09,9E+09]];
    CONST robtarget point_51_contact:=[[248,62,122],[0,0,1,0],[0, 0, 0, 0],[9E+09,9E+09,9E+09,9E+09,9E+09,9E+09]];
    CONST robtarget point_51_clearance:=[[248,62,132],[0,0,1,0],[0, 0, 0, 0],[9E+09,9E+09,9E+09,9E+09,9E+09,9E+09]];
    CONST robtarget point_52_clearance:=[[274,62,132],[0,0,1,0],[0, 0, 0, 0],[9E+09,9E+09,9E+09,9E+09,9E+09,9E+09]];
    CONST robtarget point_52_contact:=[[274,62,122],[0,0,1,0],[0, 0, 0, 0],[9E+09,9E+09,9E+09,9E+09,9E+09,9E+09]];
    CONST robtarget point_53_contact:=[[273,35,122],[0,0,1,0],[0, 0, 0, 0],[9E+09,9E+09,9E+09,9E+09,9E+09,9E+09]];
    CONST robtarget point_53_clearance:=[[273,35,132],[0,0,1,0],[0, 0, 0, 0],[9E+09,9E+09,9E+09,9E+09,9E+09,9E+09]];
    CONST robtarget point_54_clearance:=[[369,35,132],[0,0,1,0],[0, 0, 0, 0],[9E+09,9E+09,9E+09,9E+09,9E+09,9E+09]];
    CONST robtarget point_54_contact:=[[369,35,122],[0,0,1,0],[0, 0, 0, 0],[9E+09,9E+09,9E+09,9E+09,9E+09,9E+09]];
    CONST robtarget point_55_contact:=[[369,68,122],[0,0,1,0],[0, 0, 0, 0],[9E+09,9E+09,9E+09,9E+09,9E+09,9E+09]];
    CONST robtarget point_55_clearance:=[[369,68,132],[0,0,1,0],[0, 0, 0, 0],[9E+09,9E+09,9E+09,9E+09,9E+09,9E+09]];
    CONST robtarget point_56_clearance:=[[451,35,132],[0,0,1,0],[0, 0, 0, 0],[9E+09,9E+09,9E+09,9E+09,9E+09,9E+09]];
    CONST robtarget point_56_contact:=[[451,35,122],[0,0,1,0],[0, 0, 0, 0],[9E+09,9E+09,9E+09,9E+09,9E+09,9E+09]];
    CONST robtarget point_57_contact:=[[450,67,122],[0,0,1,0],[0, 0, 0, 0],[9E+09,9E+09,9E+09,9E+09,9E+09,9E+09]];
    CONST robtarget point_57_clearance:=[[450,67,132],[0,0,1,0],[0, 0, 0, 0],[9E+09,9E+09,9E+09,9E+09,9E+09,9E+09]];
    CONST robtarget point_58_clearance:=[[513,60,132],[0,0,1,0],[0, 0, 0, 0],[9E+09,9E+09,9E+09,9E+09,9E+09,9E+09]];
    CONST robtarget point_58_contact:=[[513,60,122],[0,0,1,0],[0, 0, 0, 0],[9E+09,9E+09,9E+09,9E+09,9E+09,9E+09]];
    CONST robtarget point_59_contact:=[[513,35,122],[0,0,1,0],[0, 0, 0, 0],[9E+09,9E+09,9E+09,9E+09,9E+09,9E+09]];
    CONST robtarget point_59_clearance:=[[513,35,132],[0,0,1,0],[0, 0, 0, 0],[9E+09,9E+09,9E+09,9E+09,9E+09,9E+09]];
    CONST robtarget point_60_clearance:=[[402,69,132],[0,0,1,0],[0, 0, 0, 0],[9E+09,9E+09,9E+09,9E+09,9E+09,9E+09]];
    CONST robtarget point_60_contact:=[[402,69,122],[0,0,1,0],[0, 0, 0, 0],[9E+09,9E+09,9E+09,9E+09,9E+09,9E+09]];
    CONST robtarget point_61_contact:=[[381,35,122],[0,0,1,0],[0, 0, 0, 0],[9E+09,9E+09,9E+09,9E+09,9E+09,9E+09]];
    CONST robtarget point_61_clearance:=[[381,35,132],[0,0,1,0],[0, 0, 0, 0],[9E+09,9E+09,9E+09,9E+09,9E+09,9E+09]];
    CONST robtarget point_62_clearance:=[[430,35,132],[0,0,1,0],[0, 0, 0, 0],[9E+09,9E+09,9E+09,9E+09,9E+09,9E+09]];
    CONST robtarget point_62_contact:=[[430,35,122],[0,0,1,0],[0, 0, 0, 0],[9E+09,9E+09,9E+09,9E+09,9E+09,9E+09]];
    CONST robtarget point_63_contact:=[[408,69,122],[0,0,1,0],[0, 0, 0, 0],[9E+09,9E+09,9E+09,9E+09,9E+09,9E+09]];
    CONST robtarget point_63_clearance:=[[408,69,132],[0,0,1,0],[0, 0, 0, 0],[9E+09,9E+09,9E+09,9E+09,9E+09,9E+09]];
    CONST robtarget point_64_clearance:=[[480,38,132],[0,0,1,0],[0, 0, 0, 0],[9E+09,9E+09,9E+09,9E+09,9E+09,9E+09]];
    CONST robtarget point_64_contact:=[[480,38,122],[0,0,1,0],[0, 0, 0, 0],[9E+09,9E+09,9E+09,9E+09,9E+09,9E+09]];
    CONST robtarget point_65_contact:=[[472,37,122],[0,0,1,0],[0, 0, 0, 0],[9E+09,9E+09,9E+09,9E+09,9E+09,9E+09]];
    CONST robtarget point_65_clearance:=[[472,37,132],[0,0,1,0],[0, 0, 0, 0],[9E+09,9E+09,9E+09,9E+09,9E+09,9E+09]];
    CONST robtarget point_66_clearance:=[[221,37,132],[0,0,1,0],[0, 0, 0, 0],[9E+09,9E+09,9E+09,9E+09,9E+09,9E+09]];
    CONST robtarget point_66_contact:=[[221,37,122],[0,0,1,0],[0, 0, 0, 0],[9E+09,9E+09,9E+09,9E+09,9E+09,9E+09]];
    CONST robtarget point_67_contact:=[[221,50,122],[0,0,1,0],[0, 0, 0, 0],[9E+09,9E+09,9E+09,9E+09,9E+09,9E+09]];
    CONST robtarget point_67_clearance:=[[221,50,132],[0,0,1,0],[0, 0, 0, 0],[9E+09,9E+09,9E+09,9E+09,9E+09,9E+09]];
    CONST robtarget point_68_clearance:=[[109,39,132],[0,0,1,0],[0, 0, 0, 0],[9E+09,9E+09,9E+09,9E+09,9E+09,9E+09]];
    CONST robtarget point_68_contact:=[[109,39,122],[0,0,1,0],[0, 0, 0, 0],[9E+09,9E+09,9E+09,9E+09,9E+09,9E+09]];
    CONST robtarget point_69_contact:=[[101,53,122],[0,0,1,0],[0, 0, 0, 0],[9E+09,9E+09,9E+09,9E+09,9E+09,9E+09]];
    CONST robtarget point_69_clearance:=[[101,53,132],[0,0,1,0],[0, 0, 0, 0],[9E+09,9E+09,9E+09,9E+09,9E+09,9E+09]];
    CONST robtarget point_70_clearance:=[[213,40,132],[0,0,1,0],[0, 0, 0, 0],[9E+09,9E+09,9E+09,9E+09,9E+09,9E+09]];
    CONST robtarget point_70_contact:=[[213,40,122],[0,0,1,0],[0, 0, 0, 0],[9E+09,9E+09,9E+09,9E+09,9E+09,9E+09]];
    CONST robtarget point_71_contact:=[[190,40,122],[0,0,1,0],[0, 0, 0, 0],[9E+09,9E+09,9E+09,9E+09,9E+09,9E+09]];
    CONST robtarget point_71_clearance:=[[190,40,132],[0,0,1,0],[0, 0, 0, 0],[9E+09,9E+09,9E+09,9E+09,9E+09,9E+09]];
    CONST robtarget point_72_clearance:=[[360,40,132],[0,0,1,0],[0, 0, 0, 0],[9E+09,9E+09,9E+09,9E+09,9E+09,9E+09]];
    CONST robtarget point_72_contact:=[[360,40,122],[0,0,1,0],[0, 0, 0, 0],[9E+09,9E+09,9E+09,9E+09,9E+09,9E+09]];
    CONST robtarget point_73_contact:=[[331,40,122],[0,0,1,0],[0, 0, 0, 0],[9E+09,9E+09,9E+09,9E+09,9E+09,9E+09]];
    CONST robtarget point_73_clearance:=[[331,40,132],[0,0,1,0],[0, 0, 0, 0],[9E+09,9E+09,9E+09,9E+09,9E+09,9E+09]];
    CONST robtarget point_74_clearance:=[[117,53,132],[0,0,1,0],[0, 0, 0, 0],[9E+09,9E+09,9E+09,9E+09,9E+09,9E+09]];
    CONST robtarget point_74_contact:=[[117,53,122],[0,0,1,0],[0, 0, 0, 0],[9E+09,9E+09,9E+09,9E+09,9E+09,9E+09]];
    CONST robtarget point_75_contact:=[[110,40,122],[0,0,1,0],[0, 0, 0, 0],[9E+09,9E+09,9E+09,9E+09,9E+09,9E+09]];
    CONST robtarget point_75_clearance:=[[110,40,132],[0,0,1,0],[0, 0, 0, 0],[9E+09,9E+09,9E+09,9E+09,9E+09,9E+09]];
    CONST robtarget point_76_clearance:=[[186,43,132],[0,0,1,0],[0, 0, 0, 0],[9E+09,9E+09,9E+09,9E+09,9E+09,9E+09]];
    CONST robtarget point_76_contact:=[[186,43,122],[0,0,1,0],[0, 0, 0, 0],[9E+09,9E+09,9E+09,9E+09,9E+09,9E+09]];
    CONST robtarget point_77_contact:=[[180,42,122],[0,0,1,0],[0, 0, 0, 0],[9E+09,9E+09,9E+09,9E+09,9E+09,9E+09]];
    CONST robtarget point_77_clearance:=[[180,42,132],[0,0,1,0],[0, 0, 0, 0],[9E+09,9E+09,9E+09,9E+09,9E+09,9E+09]];
    CONST robtarget point_78_clearance:=[[214,46,132],[0,0,1,0],[0, 0, 0, 0],[9E+09,9E+09,9E+09,9E+09,9E+09,9E+09]];
    CONST robtarget point_78_contact:=[[214,46,122],[0,0,1,0],[0, 0, 0, 0],[9E+09,9E+09,9E+09,9E+09,9E+09,9E+09]];
    CONST robtarget point_79_contact:=[[214,41,122],[0,0,1,0],[0, 0, 0, 0],[9E+09,9E+09,9E+09,9E+09,9E+09,9E+09]];
    CONST robtarget point_79_clearance:=[[214,41,132],[0,0,1,0],[0, 0, 0, 0],[9E+09,9E+09,9E+09,9E+09,9E+09,9E+09]];
    CONST robtarget point_80_clearance:=[[360,46,132],[0,0,1,0],[0, 0, 0, 0],[9E+09,9E+09,9E+09,9E+09,9E+09,9E+09]];
    CONST robtarget point_80_contact:=[[360,46,122],[0,0,1,0],[0, 0, 0, 0],[9E+09,9E+09,9E+09,9E+09,9E+09,9E+09]];
    CONST robtarget point_81_contact:=[[360,41,122],[0,0,1,0],[0, 0, 0, 0],[9E+09,9E+09,9E+09,9E+09,9E+09,9E+09]];
    CONST robtarget point_81_clearance:=[[360,41,132],[0,0,1,0],[0, 0, 0, 0],[9E+09,9E+09,9E+09,9E+09,9E+09,9E+09]];
    CONST robtarget point_82_clearance:=[[471,44,132],[0,0,1,0],[0, 0, 0, 0],[9E+09,9E+09,9E+09,9E+09,9E+09,9E+09]];
    CONST robtarget point_82_contact:=[[471,44,122],[0,0,1,0],[0, 0, 0, 0],[9E+09,9E+09,9E+09,9E+09,9E+09,9E+09]];
    CONST robtarget point_83_contact:=[[496,44,122],[0,0,1,0],[0, 0, 0, 0],[9E+09,9E+09,9E+09,9E+09,9E+09,9E+09]];
    CONST robtarget point_83_clearance:=[[496,44,132],[0,0,1,0],[0, 0, 0, 0],[9E+09,9E+09,9E+09,9E+09,9E+09,9E+09]];
    CONST robtarget point_84_clearance:=[[64,45,132],[0,0,1,0],[0, 0, 0, 0],[9E+09,9E+09,9E+09,9E+09,9E+09,9E+09]];
    CONST robtarget point_84_contact:=[[64,45,122],[0,0,1,0],[0, 0, 0, 0],[9E+09,9E+09,9E+09,9E+09,9E+09,9E+09]];
    CONST robtarget point_85_contact:=[[32,69,122],[0,0,1,0],[0, 0, 0, 0],[9E+09,9E+09,9E+09,9E+09,9E+09,9E+09]];
    CONST robtarget point_85_clearance:=[[32,69,132],[0,0,1,0],[0, 0, 0, 0],[9E+09,9E+09,9E+09,9E+09,9E+09,9E+09]];
    CONST robtarget point_86_clearance:=[[470,65,132],[0,0,1,0],[0, 0, 0, 0],[9E+09,9E+09,9E+09,9E+09,9E+09,9E+09]];
    CONST robtarget point_86_contact:=[[470,65,122],[0,0,1,0],[0, 0, 0, 0],[9E+09,9E+09,9E+09,9E+09,9E+09,9E+09]];
    CONST robtarget point_87_contact:=[[470,45,122],[0,0,1,0],[0, 0, 0, 0],[9E+09,9E+09,9E+09,9E+09,9E+09,9E+09]];
    CONST robtarget point_87_clearance:=[[470,45,132],[0,0,1,0],[0, 0, 0, 0],[9E+09,9E+09,9E+09,9E+09,9E+09,9E+09]];
    CONST robtarget point_88_clearance:=[[497,45,132],[0,0,1,0],[0, 0, 0, 0],[9E+09,9E+09,9E+09,9E+09,9E+09,9E+09]];
    CONST robtarget point_88_contact:=[[497,45,122],[0,0,1,0],[0, 0, 0, 0],[9E+09,9E+09,9E+09,9E+09,9E+09,9E+09]];
    CONST robtarget point_89_contact:=[[498,51,122],[0,0,1,0],[0, 0, 0, 0],[9E+09,9E+09,9E+09,9E+09,9E+09,9E+09]];
    CONST robtarget point_89_clearance:=[[498,51,132],[0,0,1,0],[0, 0, 0, 0],[9E+09,9E+09,9E+09,9E+09,9E+09,9E+09]];
    CONST robtarget point_90_clearance:=[[64,68,132],[0,0,1,0],[0, 0, 0, 0],[9E+09,9E+09,9E+09,9E+09,9E+09,9E+09]];
    CONST robtarget point_90_contact:=[[64,68,122],[0,0,1,0],[0, 0, 0, 0],[9E+09,9E+09,9E+09,9E+09,9E+09,9E+09]];
    CONST robtarget point_91_contact:=[[64,46,122],[0,0,1,0],[0, 0, 0, 0],[9E+09,9E+09,9E+09,9E+09,9E+09,9E+09]];
    CONST robtarget point_91_clearance:=[[64,46,132],[0,0,1,0],[0, 0, 0, 0],[9E+09,9E+09,9E+09,9E+09,9E+09,9E+09]];
    CONST robtarget point_92_clearance:=[[181,48,132],[0,0,1,0],[0, 0, 0, 0],[9E+09,9E+09,9E+09,9E+09,9E+09,9E+09]];
    CONST robtarget point_92_contact:=[[181,48,122],[0,0,1,0],[0, 0, 0, 0],[9E+09,9E+09,9E+09,9E+09,9E+09,9E+09]];
    CONST robtarget point_93_contact:=[[213,47,122],[0,0,1,0],[0, 0, 0, 0],[9E+09,9E+09,9E+09,9E+09,9E+09,9E+09]];
    CONST robtarget point_93_clearance:=[[213,47,132],[0,0,1,0],[0, 0, 0, 0],[9E+09,9E+09,9E+09,9E+09,9E+09,9E+09]];
    CONST robtarget point_94_clearance:=[[343,47,132],[0,0,1,0],[0, 0, 0, 0],[9E+09,9E+09,9E+09,9E+09,9E+09,9E+09]];
    CONST robtarget point_94_contact:=[[343,47,122],[0,0,1,0],[0, 0, 0, 0],[9E+09,9E+09,9E+09,9E+09,9E+09,9E+09]];
    CONST robtarget point_95_contact:=[[360,47,122],[0,0,1,0],[0, 0, 0, 0],[9E+09,9E+09,9E+09,9E+09,9E+09,9E+09]];
    CONST robtarget point_95_clearance:=[[360,47,132],[0,0,1,0],[0, 0, 0, 0],[9E+09,9E+09,9E+09,9E+09,9E+09,9E+09]];
    CONST robtarget point_96_clearance:=[[180,63,132],[0,0,1,0],[0, 0, 0, 0],[9E+09,9E+09,9E+09,9E+09,9E+09,9E+09]];
    CONST robtarget point_96_contact:=[[180,63,122],[0,0,1,0],[0, 0, 0, 0],[9E+09,9E+09,9E+09,9E+09,9E+09,9E+09]];
    CONST robtarget point_97_contact:=[[180,48,122],[0,0,1,0],[0, 0, 0, 0],[9E+09,9E+09,9E+09,9E+09,9E+09,9E+09]];
    CONST robtarget point_97_clearance:=[[180,48,132],[0,0,1,0],[0, 0, 0, 0],[9E+09,9E+09,9E+09,9E+09,9E+09,9E+09]];
    CONST robtarget point_98_clearance:=[[497,52,132],[0,0,1,0],[0, 0, 0, 0],[9E+09,9E+09,9E+09,9E+09,9E+09,9E+09]];
    CONST robtarget point_98_contact:=[[497,52,122],[0,0,1,0],[0, 0, 0, 0],[9E+09,9E+09,9E+09,9E+09,9E+09,9E+09]];
    CONST robtarget point_99_contact:=[[481,51,122],[0,0,1,0],[0, 0, 0, 0],[9E+09,9E+09,9E+09,9E+09,9E+09,9E+09]];
    CONST robtarget point_99_clearance:=[[481,51,132],[0,0,1,0],[0, 0, 0, 0],[9E+09,9E+09,9E+09,9E+09,9E+09,9E+09]];
    CONST robtarget point_100_clearance:=[[218,53,132],[0,0,1,0],[0, 0, 0, 0],[9E+09,9E+09,9E+09,9E+09,9E+09,9E+09]];
    CONST robtarget point_100_contact:=[[218,53,122],[0,0,1,0],[0, 0, 0, 0],[9E+09,9E+09,9E+09,9E+09,9E+09,9E+09]];
    CONST robtarget point_101_contact:=[[188,54,122],[0,0,1,0],[0, 0, 0, 0],[9E+09,9E+09,9E+09,9E+09,9E+09,9E+09]];
    CONST robtarget point_101_clearance:=[[188,54,132],[0,0,1,0],[0, 0, 0, 0],[9E+09,9E+09,9E+09,9E+09,9E+09,9E+09]];
    CONST robtarget point_102_clearance:=[[102,54,132],[0,0,1,0],[0, 0, 0, 0],[9E+09,9E+09,9E+09,9E+09,9E+09,9E+09]];
    CONST robtarget point_102_contact:=[[102,54,122],[0,0,1,0],[0, 0, 0, 0],[9E+09,9E+09,9E+09,9E+09,9E+09,9E+09]];
    CONST robtarget point_103_contact:=[[117,54,122],[0,0,1,0],[0, 0, 0, 0],[9E+09,9E+09,9E+09,9E+09,9E+09,9E+09]];
    CONST robtarget point_103_clearance:=[[117,54,132],[0,0,1,0],[0, 0, 0, 0],[9E+09,9E+09,9E+09,9E+09,9E+09,9E+09]];
    CONST robtarget point_104_clearance:=[[360,53,132],[0,0,1,0],[0, 0, 0, 0],[9E+09,9E+09,9E+09,9E+09,9E+09,9E+09]];
    CONST robtarget point_104_contact:=[[360,53,122],[0,0,1,0],[0, 0, 0, 0],[9E+09,9E+09,9E+09,9E+09,9E+09,9E+09]];
    CONST robtarget point_105_contact:=[[343,54,122],[0,0,1,0],[0, 0, 0, 0],[9E+09,9E+09,9E+09,9E+09,9E+09,9E+09]];
    CONST robtarget point_105_clearance:=[[343,54,132],[0,0,1,0],[0, 0, 0, 0],[9E+09,9E+09,9E+09,9E+09,9E+09,9E+09]];
    CONST robtarget point_106_clearance:=[[480,53,132],[0,0,1,0],[0, 0, 0, 0],[9E+09,9E+09,9E+09,9E+09,9E+09,9E+09]];
    CONST robtarget point_106_contact:=[[480,53,122],[0,0,1,0],[0, 0, 0, 0],[9E+09,9E+09,9E+09,9E+09,9E+09,9E+09]];
    CONST robtarget point_107_contact:=[[480,60,122],[0,0,1,0],[0, 0, 0, 0],[9E+09,9E+09,9E+09,9E+09,9E+09,9E+09]];
    CONST robtarget point_107_clearance:=[[480,60,132],[0,0,1,0],[0, 0, 0, 0],[9E+09,9E+09,9E+09,9E+09,9E+09,9E+09]];
    CONST robtarget point_108_clearance:=[[188,55,132],[0,0,1,0],[0, 0, 0, 0],[9E+09,9E+09,9E+09,9E+09,9E+09,9E+09]];
    CONST robtarget point_108_contact:=[[188,55,122],[0,0,1,0],[0, 0, 0, 0],[9E+09,9E+09,9E+09,9E+09,9E+09,9E+09]];
    CONST robtarget point_109_contact:=[[188,62,122],[0,0,1,0],[0, 0, 0, 0],[9E+09,9E+09,9E+09,9E+09,9E+09,9E+09]];
    CONST robtarget point_109_clearance:=[[188,62,132],[0,0,1,0],[0, 0, 0, 0],[9E+09,9E+09,9E+09,9E+09,9E+09,9E+09]];
    CONST robtarget point_110_clearance:=[[360,62,132],[0,0,1,0],[0, 0, 0, 0],[9E+09,9E+09,9E+09,9E+09,9E+09,9E+09]];
    CONST robtarget point_110_contact:=[[360,62,122],[0,0,1,0],[0, 0, 0, 0],[9E+09,9E+09,9E+09,9E+09,9E+09,9E+09]];
    CONST robtarget point_111_contact:=[[360,55,122],[0,0,1,0],[0, 0, 0, 0],[9E+09,9E+09,9E+09,9E+09,9E+09,9E+09]];
    CONST robtarget point_111_clearance:=[[360,55,132],[0,0,1,0],[0, 0, 0, 0],[9E+09,9E+09,9E+09,9E+09,9E+09,9E+09]];
    CONST robtarget point_112_clearance:=[[216,57,132],[0,0,1,0],[0, 0, 0, 0],[9E+09,9E+09,9E+09,9E+09,9E+09,9E+09]];
    CONST robtarget point_112_contact:=[[216,57,122],[0,0,1,0],[0, 0, 0, 0],[9E+09,9E+09,9E+09,9E+09,9E+09,9E+09]];
    CONST robtarget point_113_contact:=[[223,59,122],[0,0,1,0],[0, 0, 0, 0],[9E+09,9E+09,9E+09,9E+09,9E+09,9E+09]];
    CONST robtarget point_113_clearance:=[[223,59,132],[0,0,1,0],[0, 0, 0, 0],[9E+09,9E+09,9E+09,9E+09,9E+09,9E+09]];
    CONST robtarget point_114_clearance:=[[121,61,132],[0,0,1,0],[0, 0, 0, 0],[9E+09,9E+09,9E+09,9E+09,9E+09,9E+09]];
    CONST robtarget point_114_contact:=[[121,61,122],[0,0,1,0],[0, 0, 0, 0],[9E+09,9E+09,9E+09,9E+09,9E+09,9E+09]];
    CONST robtarget point_115_contact:=[[97,61,122],[0,0,1,0],[0, 0, 0, 0],[9E+09,9E+09,9E+09,9E+09,9E+09,9E+09]];
    CONST robtarget point_115_clearance:=[[97,61,132],[0,0,1,0],[0, 0, 0, 0],[9E+09,9E+09,9E+09,9E+09,9E+09,9E+09]];
    CONST robtarget point_116_clearance:=[[481,61,132],[0,0,1,0],[0, 0, 0, 0],[9E+09,9E+09,9E+09,9E+09,9E+09,9E+09]];
    CONST robtarget point_116_contact:=[[481,61,122],[0,0,1,0],[0, 0, 0, 0],[9E+09,9E+09,9E+09,9E+09,9E+09,9E+09]];
    CONST robtarget point_117_contact:=[[512,61,122],[0,0,1,0],[0, 0, 0, 0],[9E+09,9E+09,9E+09,9E+09,9E+09,9E+09]];
    CONST robtarget point_117_clearance:=[[512,61,132],[0,0,1,0],[0, 0, 0, 0],[9E+09,9E+09,9E+09,9E+09,9E+09,9E+09]];
    CONST robtarget point_118_clearance:=[[97,60,132],[0,0,1,0],[0, 0, 0, 0],[9E+09,9E+09,9E+09,9E+09,9E+09,9E+09]];
    CONST robtarget point_118_contact:=[[97,60,122],[0,0,1,0],[0, 0, 0, 0],[9E+09,9E+09,9E+09,9E+09,9E+09,9E+09]];
    CONST robtarget point_119_contact:=[[92,69,122],[0,0,1,0],[0, 0, 0, 0],[9E+09,9E+09,9E+09,9E+09,9E+09,9E+09]];
    CONST robtarget point_119_clearance:=[[92,69,132],[0,0,1,0],[0, 0, 0, 0],[9E+09,9E+09,9E+09,9E+09,9E+09,9E+09]];
    CONST robtarget point_120_clearance:=[[126,69,132],[0,0,1,0],[0, 0, 0, 0],[9E+09,9E+09,9E+09,9E+09,9E+09,9E+09]];
    CONST robtarget point_120_contact:=[[126,69,122],[0,0,1,0],[0, 0, 0, 0],[9E+09,9E+09,9E+09,9E+09,9E+09,9E+09]];
    CONST robtarget point_121_contact:=[[122,60,122],[0,0,1,0],[0, 0, 0, 0],[9E+09,9E+09,9E+09,9E+09,9E+09,9E+09]];
    CONST robtarget point_121_clearance:=[[122,60,132],[0,0,1,0],[0, 0, 0, 0],[9E+09,9E+09,9E+09,9E+09,9E+09,9E+09]];
    CONST robtarget point_122_clearance:=[[188,63,132],[0,0,1,0],[0, 0, 0, 0],[9E+09,9E+09,9E+09,9E+09,9E+09,9E+09]];
    CONST robtarget point_122_contact:=[[188,63,122],[0,0,1,0],[0, 0, 0, 0],[9E+09,9E+09,9E+09,9E+09,9E+09,9E+09]];
    CONST robtarget point_123_contact:=[[215,63,122],[0,0,1,0],[0, 0, 0, 0],[9E+09,9E+09,9E+09,9E+09,9E+09,9E+09]];
    CONST robtarget point_123_clearance:=[[215,63,132],[0,0,1,0],[0, 0, 0, 0],[9E+09,9E+09,9E+09,9E+09,9E+09,9E+09]];
    CONST robtarget point_124_clearance:=[[223,61,132],[0,0,1,0],[0, 0, 0, 0],[9E+09,9E+09,9E+09,9E+09,9E+09,9E+09]];
    CONST robtarget point_124_contact:=[[223,61,122],[0,0,1,0],[0, 0, 0, 0],[9E+09,9E+09,9E+09,9E+09,9E+09,9E+09]];
    CONST robtarget point_125_contact:=[[222,66,122],[0,0,1,0],[0, 0, 0, 0],[9E+09,9E+09,9E+09,9E+09,9E+09,9E+09]];
    CONST robtarget point_125_clearance:=[[222,66,132],[0,0,1,0],[0, 0, 0, 0],[9E+09,9E+09,9E+09,9E+09,9E+09,9E+09]];
    CONST robtarget point_126_clearance:=[[250,63,132],[0,0,1,0],[0, 0, 0, 0],[9E+09,9E+09,9E+09,9E+09,9E+09,9E+09]];
    CONST robtarget point_126_contact:=[[250,63,122],[0,0,1,0],[0, 0, 0, 0],[9E+09,9E+09,9E+09,9E+09,9E+09,9E+09]];
    CONST robtarget point_127_contact:=[[272,63,122],[0,0,1,0],[0, 0, 0, 0],[9E+09,9E+09,9E+09,9E+09,9E+09,9E+09]];
    CONST robtarget point_127_clearance:=[[272,63,132],[0,0,1,0],[0, 0, 0, 0],[9E+09,9E+09,9E+09,9E+09,9E+09,9E+09]];
    CONST robtarget point_128_clearance:=[[331,63,132],[0,0,1,0],[0, 0, 0, 0],[9E+09,9E+09,9E+09,9E+09,9E+09,9E+09]];
    CONST robtarget point_128_contact:=[[331,63,122],[0,0,1,0],[0, 0, 0, 0],[9E+09,9E+09,9E+09,9E+09,9E+09,9E+09]];
    CONST robtarget point_129_contact:=[[360,63,122],[0,0,1,0],[0, 0, 0, 0],[9E+09,9E+09,9E+09,9E+09,9E+09,9E+09]];
    CONST robtarget point_129_clearance:=[[360,63,132],[0,0,1,0],[0, 0, 0, 0],[9E+09,9E+09,9E+09,9E+09,9E+09,9E+09]];
    CONST robtarget point_130_clearance:=[[182,68,132],[0,0,1,0],[0, 0, 0, 0],[9E+09,9E+09,9E+09,9E+09,9E+09,9E+09]];
    CONST robtarget point_130_contact:=[[182,68,122],[0,0,1,0],[0, 0, 0, 0],[9E+09,9E+09,9E+09,9E+09,9E+09,9E+09]];
    CONST robtarget point_131_contact:=[[180,64,122],[0,0,1,0],[0, 0, 0, 0],[9E+09,9E+09,9E+09,9E+09,9E+09,9E+09]];
    CONST robtarget point_131_clearance:=[[180,64,132],[0,0,1,0],[0, 0, 0, 0],[9E+09,9E+09,9E+09,9E+09,9E+09,9E+09]];
    CONST robtarget point_132_clearance:=[[283,65,132],[0,0,1,0],[0, 0, 0, 0],[9E+09,9E+09,9E+09,9E+09,9E+09,9E+09]];
    CONST robtarget point_132_contact:=[[283,65,122],[0,0,1,0],[0, 0, 0, 0],[9E+09,9E+09,9E+09,9E+09,9E+09,9E+09]];
    CONST robtarget point_133_contact:=[[279,69,122],[0,0,1,0],[0, 0, 0, 0],[9E+09,9E+09,9E+09,9E+09,9E+09,9E+09]];
    CONST robtarget point_133_clearance:=[[279,69,132],[0,0,1,0],[0, 0, 0, 0],[9E+09,9E+09,9E+09,9E+09,9E+09,9E+09]];
    CONST robtarget point_134_clearance:=[[474,68,132],[0,0,1,0],[0, 0, 0, 0],[9E+09,9E+09,9E+09,9E+09,9E+09,9E+09]];
    CONST robtarget point_134_contact:=[[474,68,122],[0,0,1,0],[0, 0, 0, 0],[9E+09,9E+09,9E+09,9E+09,9E+09,9E+09]];
    CONST robtarget point_135_contact:=[[469,64,122],[0,0,1,0],[0, 0, 0, 0],[9E+09,9E+09,9E+09,9E+09,9E+09,9E+09]];
    CONST robtarget point_135_clearance:=[[469,64,132],[0,0,1,0],[0, 0, 0, 0],[9E+09,9E+09,9E+09,9E+09,9E+09,9E+09]];
    CONST robtarget point_136_clearance:=[[523,64,132],[0,0,1,0],[0, 0, 0, 0],[9E+09,9E+09,9E+09,9E+09,9E+09,9E+09]];
    CONST robtarget point_136_contact:=[[523,64,122],[0,0,1,0],[0, 0, 0, 0],[9E+09,9E+09,9E+09,9E+09,9E+09,9E+09]];
    CONST robtarget point_137_contact:=[[520,69,122],[0,0,1,0],[0, 0, 0, 0],[9E+09,9E+09,9E+09,9E+09,9E+09,9E+09]];
    CONST robtarget point_137_clearance:=[[520,69,132],[0,0,1,0],[0, 0, 0, 0],[9E+09,9E+09,9E+09,9E+09,9E+09,9E+09]];
    CONST robtarget point_138_clearance:=[[220,69,132],[0,0,1,0],[0, 0, 0, 0],[9E+09,9E+09,9E+09,9E+09,9E+09,9E+09]];
    CONST robtarget point_138_contact:=[[220,69,122],[0,0,1,0],[0, 0, 0, 0],[9E+09,9E+09,9E+09,9E+09,9E+09,9E+09]];
    CONST robtarget point_139_contact:=[[182,69,122],[0,0,1,0],[0, 0, 0, 0],[9E+09,9E+09,9E+09,9E+09,9E+09,9E+09]];
    CONST robtarget point_139_clearance:=[[182,69,132],[0,0,1,0],[0, 0, 0, 0],[9E+09,9E+09,9E+09,9E+09,9E+09,9E+09]];
    CONST robtarget point_140_clearance:=[[278,69,132],[0,0,1,0],[0, 0, 0, 0],[9E+09,9E+09,9E+09,9E+09,9E+09,9E+09]];
    CONST robtarget point_140_contact:=[[278,69,122],[0,0,1,0],[0, 0, 0, 0],[9E+09,9E+09,9E+09,9E+09,9E+09,9E+09]];
    CONST robtarget point_141_contact:=[[242,69,122],[0,0,1,0],[0, 0, 0, 0],[9E+09,9E+09,9E+09,9E+09,9E+09,9E+09]];
    CONST robtarget point_141_clearance:=[[242,69,132],[0,0,1,0],[0, 0, 0, 0],[9E+09,9E+09,9E+09,9E+09,9E+09,9E+09]];
    CONST robtarget point_142_clearance:=[[518,69,132],[0,0,1,0],[0, 0, 0, 0],[9E+09,9E+09,9E+09,9E+09,9E+09,9E+09]];
    CONST robtarget point_142_contact:=[[518,69,122],[0,0,1,0],[0, 0, 0, 0],[9E+09,9E+09,9E+09,9E+09,9E+09,9E+09]];
    CONST robtarget point_143_contact:=[[473,69,122],[0,0,1,0],[0, 0, 0, 0],[9E+09,9E+09,9E+09,9E+09,9E+09,9E+09]];
    CONST robtarget point_143_clearance:=[[473,69,132],[0,0,1,0],[0, 0, 0, 0],[9E+09,9E+09,9E+09,9E+09,9E+09,9E+09]];
    CONST robtarget point_144_clearance:=[[32,69,132],[0,0,1,0],[0, 0, 0, 0],[9E+09,9E+09,9E+09,9E+09,9E+09,9E+09]];
    CONST robtarget point_144_contact:=[[32,69,122],[0,0,1,0],[0, 0, 0, 0],[9E+09,9E+09,9E+09,9E+09,9E+09,9E+09]];
    CONST robtarget point_145_contact:=[[27,69,122],[0,0,1,0],[0, 0, 0, 0],[9E+09,9E+09,9E+09,9E+09,9E+09,9E+09]];
    CONST robtarget point_145_clearance:=[[27,69,132],[0,0,1,0],[0, 0, 0, 0],[9E+09,9E+09,9E+09,9E+09,9E+09,9E+09]];
    CONST robtarget point_146_clearance:=[[71,69,132],[0,0,1,0],[0, 0, 0, 0],[9E+09,9E+09,9E+09,9E+09,9E+09,9E+09]];
    CONST robtarget point_146_contact:=[[71,69,122],[0,0,1,0],[0, 0, 0, 0],[9E+09,9E+09,9E+09,9E+09,9E+09,9E+09]];
    CONST robtarget point_147_contact:=[[65,69,122],[0,0,1,0],[0, 0, 0, 0],[9E+09,9E+09,9E+09,9E+09,9E+09,9E+09]];
    CONST robtarget point_147_clearance:=[[65,69,132],[0,0,1,0],[0, 0, 0, 0],[9E+09,9E+09,9E+09,9E+09,9E+09,9E+09]];
    CONST robtarget point_148_clearance:=[[92,69,132],[0,0,1,0],[0, 0, 0, 0],[9E+09,9E+09,9E+09,9E+09,9E+09,9E+09]];
    CONST robtarget point_148_contact:=[[92,69,122],[0,0,1,0],[0, 0, 0, 0],[9E+09,9E+09,9E+09,9E+09,9E+09,9E+09]];
    CONST robtarget point_149_contact:=[[83,69,122],[0,0,1,0],[0, 0, 0, 0],[9E+09,9E+09,9E+09,9E+09,9E+09,9E+09]];
    CONST robtarget point_149_clearance:=[[83,69,132],[0,0,1,0],[0, 0, 0, 0],[9E+09,9E+09,9E+09,9E+09,9E+09,9E+09]];
    CONST robtarget point_150_clearance:=[[133,69,132],[0,0,1,0],[0, 0, 0, 0],[9E+09,9E+09,9E+09,9E+09,9E+09,9E+09]];
    CONST robtarget point_150_contact:=[[133,69,122],[0,0,1,0],[0, 0, 0, 0],[9E+09,9E+09,9E+09,9E+09,9E+09,9E+09]];
    CONST robtarget point_151_contact:=[[126,69,122],[0,0,1,0],[0, 0, 0, 0],[9E+09,9E+09,9E+09,9E+09,9E+09,9E+09]];
    CONST robtarget point_151_clearance:=[[126,69,132],[0,0,1,0],[0, 0, 0, 0],[9E+09,9E+09,9E+09,9E+09,9E+09,9E+09]];
    CONST robtarget point_152_clearance:=[[368,69,132],[0,0,1,0],[0, 0, 0, 0],[9E+09,9E+09,9E+09,9E+09,9E+09,9E+09]];
    CONST robtarget point_152_contact:=[[368,69,122],[0,0,1,0],[0, 0, 0, 0],[9E+09,9E+09,9E+09,9E+09,9E+09,9E+09]];
    CONST robtarget point_153_contact:=[[330,69,122],[0,0,1,0],[0, 0, 0, 0],[9E+09,9E+09,9E+09,9E+09,9E+09,9E+09]];
    CONST robtarget point_153_clearance:=[[330,69,132],[0,0,1,0],[0, 0, 0, 0],[9E+09,9E+09,9E+09,9E+09,9E+09,9E+09]];
    CONST robtarget point_154_clearance:=[[407,69,132],[0,0,1,0],[0, 0, 0, 0],[9E+09,9E+09,9E+09,9E+09,9E+09,9E+09]];
    CONST robtarget point_154_contact:=[[407,69,122],[0,0,1,0],[0, 0, 0, 0],[9E+09,9E+09,9E+09,9E+09,9E+09,9E+09]];
    CONST robtarget point_155_contact:=[[402,69,122],[0,0,1,0],[0, 0, 0, 0],[9E+09,9E+09,9E+09,9E+09,9E+09,9E+09]];
    CONST robtarget point_155_clearance:=[[402,69,132],[0,0,1,0],[0, 0, 0, 0],[9E+09,9E+09,9E+09,9E+09,9E+09,9E+09]];
    CONST robtarget point_156_clearance:=[[450,69,132],[0,0,1,0],[0, 0, 0, 0],[9E+09,9E+09,9E+09,9E+09,9E+09,9E+09]];
    CONST robtarget point_156_contact:=[[450,69,122],[0,0,1,0],[0, 0, 0, 0],[9E+09,9E+09,9E+09,9E+09,9E+09,9E+09]];
    CONST robtarget point_157_contact:=[[442,69,122],[0,0,1,0],[0, 0, 0, 0],[9E+09,9E+09,9E+09,9E+09,9E+09,9E+09]];
    CONST robtarget point_157_clearance:=[[442,69,132],[0,0,1,0],[0, 0, 0, 0],[9E+09,9E+09,9E+09,9E+09,9E+09,9E+09]];
    CONST robtarget point_158_clearance:=[[159,278,132],[0,0,1,0],[0, 0, 0, 0],[9E+09,9E+09,9E+09,9E+09,9E+09,9E+09]];
    CONST robtarget point_158_contact:=[[159,278,122],[0,0,1,0],[0, 0, 0, 0],[9E+09,9E+09,9E+09,9E+09,9E+09,9E+09]];
    CONST robtarget point_159_contact:=[[256,116,122],[0,0,1,0],[0, 0, 0, 0],[9E+09,9E+09,9E+09,9E+09,9E+09,9E+09]];
    CONST robtarget point_159_clearance:=[[256,116,132],[0,0,1,0],[0, 0, 0, 0],[9E+09,9E+09,9E+09,9E+09,9E+09,9E+09]];
    CONST robtarget point_160_clearance:=[[257,117,132],[0,0,1,0],[0, 0, 0, 0],[9E+09,9E+09,9E+09,9E+09,9E+09,9E+09]];
    CONST robtarget point_160_contact:=[[257,117,122],[0,0,1,0],[0, 0, 0, 0],[9E+09,9E+09,9E+09,9E+09,9E+09,9E+09]];
    CONST robtarget point_161_contact:=[[293,117,122],[0,0,1,0],[0, 0, 0, 0],[9E+09,9E+09,9E+09,9E+09,9E+09,9E+09]];
    CONST robtarget point_161_clearance:=[[293,117,132],[0,0,1,0],[0, 0, 0, 0],[9E+09,9E+09,9E+09,9E+09,9E+09,9E+09]];
    CONST robtarget point_162_clearance:=[[294,116,132],[0,0,1,0],[0, 0, 0, 0],[9E+09,9E+09,9E+09,9E+09,9E+09,9E+09]];
    CONST robtarget point_162_contact:=[[294,116,122],[0,0,1,0],[0, 0, 0, 0],[9E+09,9E+09,9E+09,9E+09,9E+09,9E+09]];
    CONST robtarget point_163_contact:=[[390,278,122],[0,0,1,0],[0, 0, 0, 0],[9E+09,9E+09,9E+09,9E+09,9E+09,9E+09]];
    CONST robtarget point_163_clearance:=[[390,278,132],[0,0,1,0],[0, 0, 0, 0],[9E+09,9E+09,9E+09,9E+09,9E+09,9E+09]];
    CONST robtarget point_164_clearance:=[[314,214,132],[0,0,1,0],[0, 0, 0, 0],[9E+09,9E+09,9E+09,9E+09,9E+09,9E+09]];
    CONST robtarget point_164_contact:=[[314,214,122],[0,0,1,0],[0, 0, 0, 0],[9E+09,9E+09,9E+09,9E+09,9E+09,9E+09]];
    CONST robtarget point_165_contact:=[[276,148,122],[0,0,1,0],[0, 0, 0, 0],[9E+09,9E+09,9E+09,9E+09,9E+09,9E+09]];
    CONST robtarget point_165_clearance:=[[276,148,132],[0,0,1,0],[0, 0, 0, 0],[9E+09,9E+09,9E+09,9E+09,9E+09,9E+09]];
    CONST robtarget point_166_clearance:=[[276,150,132],[0,0,1,0],[0, 0, 0, 0],[9E+09,9E+09,9E+09,9E+09,9E+09,9E+09]];
    CONST robtarget point_166_contact:=[[276,150,122],[0,0,1,0],[0, 0, 0, 0],[9E+09,9E+09,9E+09,9E+09,9E+09,9E+09]];
    CONST robtarget point_167_contact:=[[240,214,122],[0,0,1,0],[0, 0, 0, 0],[9E+09,9E+09,9E+09,9E+09,9E+09,9E+09]];
    CONST robtarget point_167_clearance:=[[240,214,132],[0,0,1,0],[0, 0, 0, 0],[9E+09,9E+09,9E+09,9E+09,9E+09,9E+09]];
    CONST robtarget point_168_clearance:=[[241,215,132],[0,0,1,0],[0, 0, 0, 0],[9E+09,9E+09,9E+09,9E+09,9E+09,9E+09]];
    CONST robtarget point_168_contact:=[[241,215,122],[0,0,1,0],[0, 0, 0, 0],[9E+09,9E+09,9E+09,9E+09,9E+09,9E+09]];
    CONST robtarget point_169_contact:=[[313,215,122],[0,0,1,0],[0, 0, 0, 0],[9E+09,9E+09,9E+09,9E+09,9E+09,9E+09]];
    CONST robtarget point_169_clearance:=[[313,215,132],[0,0,1,0],[0, 0, 0, 0],[9E+09,9E+09,9E+09,9E+09,9E+09,9E+09]];
    CONST robtarget point_170_clearance:=[[331,244,132],[0,0,1,0],[0, 0, 0, 0],[9E+09,9E+09,9E+09,9E+09,9E+09,9E+09]];
    CONST robtarget point_170_contact:=[[331,244,122],[0,0,1,0],[0, 0, 0, 0],[9E+09,9E+09,9E+09,9E+09,9E+09,9E+09]];
    CONST robtarget point_171_contact:=[[222,244,122],[0,0,1,0],[0, 0, 0, 0],[9E+09,9E+09,9E+09,9E+09,9E+09,9E+09]];
    CONST robtarget point_171_clearance:=[[222,244,132],[0,0,1,0],[0, 0, 0, 0],[9E+09,9E+09,9E+09,9E+09,9E+09,9E+09]];
    CONST robtarget point_172_clearance:=[[351,280,132],[0,0,1,0],[0, 0, 0, 0],[9E+09,9E+09,9E+09,9E+09,9E+09,9E+09]];
    CONST robtarget point_172_contact:=[[351,280,122],[0,0,1,0],[0, 0, 0, 0],[9E+09,9E+09,9E+09,9E+09,9E+09,9E+09]];
    CONST robtarget point_173_contact:=[[331,243,122],[0,0,1,0],[0, 0, 0, 0],[9E+09,9E+09,9E+09,9E+09,9E+09,9E+09]];
    CONST robtarget point_173_clearance:=[[331,243,132],[0,0,1,0],[0, 0, 0, 0],[9E+09,9E+09,9E+09,9E+09,9E+09,9E+09]];
    CONST robtarget point_174_clearance:=[[223,244,132],[0,0,1,0],[0, 0, 0, 0],[9E+09,9E+09,9E+09,9E+09,9E+09,9E+09]];
    CONST robtarget point_174_contact:=[[223,244,122],[0,0,1,0],[0, 0, 0, 0],[9E+09,9E+09,9E+09,9E+09,9E+09,9E+09]];
    CONST robtarget point_175_contact:=[[203,279,122],[0,0,1,0],[0, 0, 0, 0],[9E+09,9E+09,9E+09,9E+09,9E+09,9E+09]];
    CONST robtarget point_175_clearance:=[[203,279,132],[0,0,1,0],[0, 0, 0, 0],[9E+09,9E+09,9E+09,9E+09,9E+09,9E+09]];
    CONST robtarget point_176_clearance:=[[202,279,132],[0,0,1,0],[0, 0, 0, 0],[9E+09,9E+09,9E+09,9E+09,9E+09,9E+09]];
    CONST robtarget point_176_contact:=[[202,279,122],[0,0,1,0],[0, 0, 0, 0],[9E+09,9E+09,9E+09,9E+09,9E+09,9E+09]];
    CONST robtarget point_177_contact:=[[160,279,122],[0,0,1,0],[0, 0, 0, 0],[9E+09,9E+09,9E+09,9E+09,9E+09,9E+09]];
    CONST robtarget point_177_clearance:=[[160,279,132],[0,0,1,0],[0, 0, 0, 0],[9E+09,9E+09,9E+09,9E+09,9E+09,9E+09]];
    CONST robtarget point_178_clearance:=[[390,279,132],[0,0,1,0],[0, 0, 0, 0],[9E+09,9E+09,9E+09,9E+09,9E+09,9E+09]];
    CONST robtarget point_178_contact:=[[390,279,122],[0,0,1,0],[0, 0, 0, 0],[9E+09,9E+09,9E+09,9E+09,9E+09,9E+09]];
    CONST robtarget point_179_contact:=[[351,279,122],[0,0,1,0],[0, 0, 0, 0],[9E+09,9E+09,9E+09,9E+09,9E+09,9E+09]];
    CONST robtarget point_179_clearance:=[[351,279,132],[0,0,1,0],[0, 0, 0, 0],[9E+09,9E+09,9E+09,9E+09,9E+09,9E+09]];
    CONST robtarget point_180_clearance:=[[135,334,132],[0,0,1,0],[0, 0, 0, 0],[9E+09,9E+09,9E+09,9E+09,9E+09,9E+09]];
    CONST robtarget point_180_contact:=[[135,334,122],[0,0,1,0],[0, 0, 0, 0],[9E+09,9E+09,9E+09,9E+09,9E+09,9E+09]];
    CONST robtarget point_181_contact:=[[172,334,122],[0,0,1,0],[0, 0, 0, 0],[9E+09,9E+09,9E+09,9E+09,9E+09,9E+09]];
    CONST robtarget point_181_clearance:=[[172,334,132],[0,0,1,0],[0, 0, 0, 0],[9E+09,9E+09,9E+09,9E+09,9E+09,9E+09]];
    CONST robtarget point_182_clearance:=[[191,334,132],[0,0,1,0],[0, 0, 0, 0],[9E+09,9E+09,9E+09,9E+09,9E+09,9E+09]];
    CONST robtarget point_182_contact:=[[191,334,122],[0,0,1,0],[0, 0, 0, 0],[9E+09,9E+09,9E+09,9E+09,9E+09,9E+09]];
    CONST robtarget point_183_contact:=[[227,334,122],[0,0,1,0],[0, 0, 0, 0],[9E+09,9E+09,9E+09,9E+09,9E+09,9E+09]];
    CONST robtarget point_183_clearance:=[[227,334,132],[0,0,1,0],[0, 0, 0, 0],[9E+09,9E+09,9E+09,9E+09,9E+09,9E+09]];
    CONST robtarget point_184_clearance:=[[227,333,132],[0,0,1,0],[0, 0, 0, 0],[9E+09,9E+09,9E+09,9E+09,9E+09,9E+09]];
    CONST robtarget point_184_contact:=[[227,333,122],[0,0,1,0],[0, 0, 0, 0],[9E+09,9E+09,9E+09,9E+09,9E+09,9E+09]];
    CONST robtarget point_185_contact:=[[231,338,122],[0,0,1,0],[0, 0, 0, 0],[9E+09,9E+09,9E+09,9E+09,9E+09,9E+09]];
    CONST robtarget point_185_clearance:=[[231,338,132],[0,0,1,0],[0, 0, 0, 0],[9E+09,9E+09,9E+09,9E+09,9E+09,9E+09]];
    CONST robtarget point_186_clearance:=[[241,368,132],[0,0,1,0],[0, 0, 0, 0],[9E+09,9E+09,9E+09,9E+09,9E+09,9E+09]];
    CONST robtarget point_186_contact:=[[241,368,122],[0,0,1,0],[0, 0, 0, 0],[9E+09,9E+09,9E+09,9E+09,9E+09,9E+09]];
    CONST robtarget point_187_contact:=[[264,332,122],[0,0,1,0],[0, 0, 0, 0],[9E+09,9E+09,9E+09,9E+09,9E+09,9E+09]];
    CONST robtarget point_187_clearance:=[[264,332,132],[0,0,1,0],[0, 0, 0, 0],[9E+09,9E+09,9E+09,9E+09,9E+09,9E+09]];
    CONST robtarget point_188_clearance:=[[265,334,132],[0,0,1,0],[0, 0, 0, 0],[9E+09,9E+09,9E+09,9E+09,9E+09,9E+09]];
    CONST robtarget point_188_contact:=[[265,334,122],[0,0,1,0],[0, 0, 0, 0],[9E+09,9E+09,9E+09,9E+09,9E+09,9E+09]];
    CONST robtarget point_189_contact:=[[271,334,122],[0,0,1,0],[0, 0, 0, 0],[9E+09,9E+09,9E+09,9E+09,9E+09,9E+09]];
    CONST robtarget point_189_clearance:=[[271,334,132],[0,0,1,0],[0, 0, 0, 0],[9E+09,9E+09,9E+09,9E+09,9E+09,9E+09]];
    CONST robtarget point_190_clearance:=[[271,333,132],[0,0,1,0],[0, 0, 0, 0],[9E+09,9E+09,9E+09,9E+09,9E+09,9E+09]];
    CONST robtarget point_190_contact:=[[271,333,122],[0,0,1,0],[0, 0, 0, 0],[9E+09,9E+09,9E+09,9E+09,9E+09,9E+09]];
    CONST robtarget point_191_contact:=[[293,368,122],[0,0,1,0],[0, 0, 0, 0],[9E+09,9E+09,9E+09,9E+09,9E+09,9E+09]];
    CONST robtarget point_191_clearance:=[[293,368,132],[0,0,1,0],[0, 0, 0, 0],[9E+09,9E+09,9E+09,9E+09,9E+09,9E+09]];
    CONST robtarget point_192_clearance:=[[303,334,132],[0,0,1,0],[0, 0, 0, 0],[9E+09,9E+09,9E+09,9E+09,9E+09,9E+09]];
    CONST robtarget point_192_contact:=[[303,334,122],[0,0,1,0],[0, 0, 0, 0],[9E+09,9E+09,9E+09,9E+09,9E+09,9E+09]];
    CONST robtarget point_193_contact:=[[341,334,122],[0,0,1,0],[0, 0, 0, 0],[9E+09,9E+09,9E+09,9E+09,9E+09,9E+09]];
    CONST robtarget point_193_clearance:=[[341,334,132],[0,0,1,0],[0, 0, 0, 0],[9E+09,9E+09,9E+09,9E+09,9E+09,9E+09]];
    CONST robtarget point_194_clearance:=[[383,334,132],[0,0,1,0],[0, 0, 0, 0],[9E+09,9E+09,9E+09,9E+09,9E+09,9E+09]];
    CONST robtarget point_194_contact:=[[383,334,122],[0,0,1,0],[0, 0, 0, 0],[9E+09,9E+09,9E+09,9E+09,9E+09,9E+09]];
    CONST robtarget point_195_contact:=[[390,333,122],[0,0,1,0],[0, 0, 0, 0],[9E+09,9E+09,9E+09,9E+09,9E+09,9E+09]];
    CONST robtarget point_195_clearance:=[[390,333,132],[0,0,1,0],[0, 0, 0, 0],[9E+09,9E+09,9E+09,9E+09,9E+09,9E+09]];
    CONST robtarget point_196_clearance:=[[405,334,132],[0,0,1,0],[0, 0, 0, 0],[9E+09,9E+09,9E+09,9E+09,9E+09,9E+09]];
    CONST robtarget point_196_contact:=[[405,334,122],[0,0,1,0],[0, 0, 0, 0],[9E+09,9E+09,9E+09,9E+09,9E+09,9E+09]];
    CONST robtarget point_197_contact:=[[445,333,122],[0,0,1,0],[0, 0, 0, 0],[9E+09,9E+09,9E+09,9E+09,9E+09,9E+09]];
    CONST robtarget point_197_clearance:=[[445,333,132],[0,0,1,0],[0, 0, 0, 0],[9E+09,9E+09,9E+09,9E+09,9E+09,9E+09]];
    CONST robtarget point_198_clearance:=[[174,333,132],[0,0,1,0],[0, 0, 0, 0],[9E+09,9E+09,9E+09,9E+09,9E+09,9E+09]];
    CONST robtarget point_198_contact:=[[174,333,122],[0,0,1,0],[0, 0, 0, 0],[9E+09,9E+09,9E+09,9E+09,9E+09,9E+09]];
    CONST robtarget point_199_contact:=[[174,368,122],[0,0,1,0],[0, 0, 0, 0],[9E+09,9E+09,9E+09,9E+09,9E+09,9E+09]];
    CONST robtarget point_199_clearance:=[[174,368,132],[0,0,1,0],[0, 0, 0, 0],[9E+09,9E+09,9E+09,9E+09,9E+09,9E+09]];
    CONST robtarget point_200_clearance:=[[381,362,132],[0,0,1,0],[0, 0, 0, 0],[9E+09,9E+09,9E+09,9E+09,9E+09,9E+09]];
    CONST robtarget point_200_contact:=[[381,362,122],[0,0,1,0],[0, 0, 0, 0],[9E+09,9E+09,9E+09,9E+09,9E+09,9E+09]];
    CONST robtarget point_201_contact:=[[381,333,122],[0,0,1,0],[0, 0, 0, 0],[9E+09,9E+09,9E+09,9E+09,9E+09,9E+09]];
    CONST robtarget point_201_clearance:=[[381,333,132],[0,0,1,0],[0, 0, 0, 0],[9E+09,9E+09,9E+09,9E+09,9E+09,9E+09]];
    CONST robtarget point_202_clearance:=[[189,342,132],[0,0,1,0],[0, 0, 0, 0],[9E+09,9E+09,9E+09,9E+09,9E+09,9E+09]];
    CONST robtarget point_202_contact:=[[189,342,122],[0,0,1,0],[0, 0, 0, 0],[9E+09,9E+09,9E+09,9E+09,9E+09,9E+09]];
    CONST robtarget point_203_contact:=[[191,335,122],[0,0,1,0],[0, 0, 0, 0],[9E+09,9E+09,9E+09,9E+09,9E+09,9E+09]];
    CONST robtarget point_203_clearance:=[[191,335,132],[0,0,1,0],[0, 0, 0, 0],[9E+09,9E+09,9E+09,9E+09,9E+09,9E+09]];
    CONST robtarget point_204_clearance:=[[302,338,132],[0,0,1,0],[0, 0, 0, 0],[9E+09,9E+09,9E+09,9E+09,9E+09,9E+09]];
    CONST robtarget point_204_contact:=[[302,338,122],[0,0,1,0],[0, 0, 0, 0],[9E+09,9E+09,9E+09,9E+09,9E+09,9E+09]];
    CONST robtarget point_205_contact:=[[302,335,122],[0,0,1,0],[0, 0, 0, 0],[9E+09,9E+09,9E+09,9E+09,9E+09,9E+09]];
    CONST robtarget point_205_clearance:=[[302,335,132],[0,0,1,0],[0, 0, 0, 0],[9E+09,9E+09,9E+09,9E+09,9E+09,9E+09]];
    CONST robtarget point_206_clearance:=[[342,335,132],[0,0,1,0],[0, 0, 0, 0],[9E+09,9E+09,9E+09,9E+09,9E+09,9E+09]];
    CONST robtarget point_206_contact:=[[342,335,122],[0,0,1,0],[0, 0, 0, 0],[9E+09,9E+09,9E+09,9E+09,9E+09,9E+09]];
    CONST robtarget point_207_contact:=[[342,367,122],[0,0,1,0],[0, 0, 0, 0],[9E+09,9E+09,9E+09,9E+09,9E+09,9E+09]];
    CONST robtarget point_207_clearance:=[[342,367,132],[0,0,1,0],[0, 0, 0, 0],[9E+09,9E+09,9E+09,9E+09,9E+09,9E+09]];
    CONST robtarget point_208_clearance:=[[390,335,132],[0,0,1,0],[0, 0, 0, 0],[9E+09,9E+09,9E+09,9E+09,9E+09,9E+09]];
    CONST robtarget point_208_contact:=[[390,335,122],[0,0,1,0],[0, 0, 0, 0],[9E+09,9E+09,9E+09,9E+09,9E+09,9E+09]];
    CONST robtarget point_209_contact:=[[390,368,122],[0,0,1,0],[0, 0, 0, 0],[9E+09,9E+09,9E+09,9E+09,9E+09,9E+09]];
    CONST robtarget point_209_clearance:=[[390,368,132],[0,0,1,0],[0, 0, 0, 0],[9E+09,9E+09,9E+09,9E+09,9E+09,9E+09]];
    CONST robtarget point_210_clearance:=[[404,351,132],[0,0,1,0],[0, 0, 0, 0],[9E+09,9E+09,9E+09,9E+09,9E+09,9E+09]];
    CONST robtarget point_210_contact:=[[404,351,122],[0,0,1,0],[0, 0, 0, 0],[9E+09,9E+09,9E+09,9E+09,9E+09,9E+09]];
    CONST robtarget point_211_contact:=[[404,335,122],[0,0,1,0],[0, 0, 0, 0],[9E+09,9E+09,9E+09,9E+09,9E+09,9E+09]];
    CONST robtarget point_211_clearance:=[[404,335,132],[0,0,1,0],[0, 0, 0, 0],[9E+09,9E+09,9E+09,9E+09,9E+09,9E+09]];
    CONST robtarget point_212_clearance:=[[446,335,132],[0,0,1,0],[0, 0, 0, 0],[9E+09,9E+09,9E+09,9E+09,9E+09,9E+09]];
    CONST robtarget point_212_contact:=[[446,335,122],[0,0,1,0],[0, 0, 0, 0],[9E+09,9E+09,9E+09,9E+09,9E+09,9E+09]];
    CONST robtarget point_213_contact:=[[446,367,122],[0,0,1,0],[0, 0, 0, 0],[9E+09,9E+09,9E+09,9E+09,9E+09,9E+09]];
    CONST robtarget point_213_clearance:=[[446,367,132],[0,0,1,0],[0, 0, 0, 0],[9E+09,9E+09,9E+09,9E+09,9E+09,9E+09]];
    CONST robtarget point_214_clearance:=[[163,340,132],[0,0,1,0],[0, 0, 0, 0],[9E+09,9E+09,9E+09,9E+09,9E+09,9E+09]];
    CONST robtarget point_214_contact:=[[163,340,122],[0,0,1,0],[0, 0, 0, 0],[9E+09,9E+09,9E+09,9E+09,9E+09,9E+09]];
    CONST robtarget point_215_contact:=[[133,340,122],[0,0,1,0],[0, 0, 0, 0],[9E+09,9E+09,9E+09,9E+09,9E+09,9E+09]];
    CONST robtarget point_215_clearance:=[[133,340,132],[0,0,1,0],[0, 0, 0, 0],[9E+09,9E+09,9E+09,9E+09,9E+09,9E+09]];
    CONST robtarget point_216_clearance:=[[222,340,132],[0,0,1,0],[0, 0, 0, 0],[9E+09,9E+09,9E+09,9E+09,9E+09,9E+09]];
    CONST robtarget point_216_contact:=[[222,340,122],[0,0,1,0],[0, 0, 0, 0],[9E+09,9E+09,9E+09,9E+09,9E+09,9E+09]];
    CONST robtarget point_217_contact:=[[197,340,122],[0,0,1,0],[0, 0, 0, 0],[9E+09,9E+09,9E+09,9E+09,9E+09,9E+09]];
    CONST robtarget point_217_clearance:=[[197,340,132],[0,0,1,0],[0, 0, 0, 0],[9E+09,9E+09,9E+09,9E+09,9E+09,9E+09]];
    CONST robtarget point_218_clearance:=[[231,338,132],[0,0,1,0],[0, 0, 0, 0],[9E+09,9E+09,9E+09,9E+09,9E+09,9E+09]];
    CONST robtarget point_218_contact:=[[231,338,122],[0,0,1,0],[0, 0, 0, 0],[9E+09,9E+09,9E+09,9E+09,9E+09,9E+09]];
    CONST robtarget point_219_contact:=[[231,350,122],[0,0,1,0],[0, 0, 0, 0],[9E+09,9E+09,9E+09,9E+09,9E+09,9E+09]];
    CONST robtarget point_219_clearance:=[[231,350,132],[0,0,1,0],[0, 0, 0, 0],[9E+09,9E+09,9E+09,9E+09,9E+09,9E+09]];
    CONST robtarget point_220_clearance:=[[268,339,132],[0,0,1,0],[0, 0, 0, 0],[9E+09,9E+09,9E+09,9E+09,9E+09,9E+09]];
    CONST robtarget point_220_contact:=[[268,339,122],[0,0,1,0],[0, 0, 0, 0],[9E+09,9E+09,9E+09,9E+09,9E+09,9E+09]];
    CONST robtarget point_221_contact:=[[260,353,122],[0,0,1,0],[0, 0, 0, 0],[9E+09,9E+09,9E+09,9E+09,9E+09,9E+09]];
    CONST robtarget point_221_clearance:=[[260,353,132],[0,0,1,0],[0, 0, 0, 0],[9E+09,9E+09,9E+09,9E+09,9E+09,9E+09]];
    CONST robtarget point_222_clearance:=[[277,354,132],[0,0,1,0],[0, 0, 0, 0],[9E+09,9E+09,9E+09,9E+09,9E+09,9E+09]];
    CONST robtarget point_222_contact:=[[277,354,122],[0,0,1,0],[0, 0, 0, 0],[9E+09,9E+09,9E+09,9E+09,9E+09,9E+09]];
    CONST robtarget point_223_contact:=[[268,339,122],[0,0,1,0],[0, 0, 0, 0],[9E+09,9E+09,9E+09,9E+09,9E+09,9E+09]];
    CONST robtarget point_223_clearance:=[[268,339,132],[0,0,1,0],[0, 0, 0, 0],[9E+09,9E+09,9E+09,9E+09,9E+09,9E+09]];
    CONST robtarget point_224_clearance:=[[332,340,132],[0,0,1,0],[0, 0, 0, 0],[9E+09,9E+09,9E+09,9E+09,9E+09,9E+09]];
    CONST robtarget point_224_contact:=[[332,340,122],[0,0,1,0],[0, 0, 0, 0],[9E+09,9E+09,9E+09,9E+09,9E+09,9E+09]];
    CONST robtarget point_225_contact:=[[302,340,122],[0,0,1,0],[0, 0, 0, 0],[9E+09,9E+09,9E+09,9E+09,9E+09,9E+09]];
    CONST robtarget point_225_clearance:=[[302,340,132],[0,0,1,0],[0, 0, 0, 0],[9E+09,9E+09,9E+09,9E+09,9E+09,9E+09]];
    CONST robtarget point_226_clearance:=[[436,340,132],[0,0,1,0],[0, 0, 0, 0],[9E+09,9E+09,9E+09,9E+09,9E+09,9E+09]];
    CONST robtarget point_226_contact:=[[436,340,122],[0,0,1,0],[0, 0, 0, 0],[9E+09,9E+09,9E+09,9E+09,9E+09,9E+09]];
    CONST robtarget point_227_contact:=[[415,340,122],[0,0,1,0],[0, 0, 0, 0],[9E+09,9E+09,9E+09,9E+09,9E+09,9E+09]];
    CONST robtarget point_227_clearance:=[[415,340,132],[0,0,1,0],[0, 0, 0, 0],[9E+09,9E+09,9E+09,9E+09,9E+09,9E+09]];
    CONST robtarget point_228_clearance:=[[165,346,132],[0,0,1,0],[0, 0, 0, 0],[9E+09,9E+09,9E+09,9E+09,9E+09,9E+09]];
    CONST robtarget point_228_contact:=[[165,346,122],[0,0,1,0],[0, 0, 0, 0],[9E+09,9E+09,9E+09,9E+09,9E+09,9E+09]];
    CONST robtarget point_229_contact:=[[165,341,122],[0,0,1,0],[0, 0, 0, 0],[9E+09,9E+09,9E+09,9E+09,9E+09,9E+09]];
    CONST robtarget point_229_clearance:=[[165,341,132],[0,0,1,0],[0, 0, 0, 0],[9E+09,9E+09,9E+09,9E+09,9E+09,9E+09]];
    CONST robtarget point_230_clearance:=[[196,343,132],[0,0,1,0],[0, 0, 0, 0],[9E+09,9E+09,9E+09,9E+09,9E+09,9E+09]];
    CONST robtarget point_230_contact:=[[196,343,122],[0,0,1,0],[0, 0, 0, 0],[9E+09,9E+09,9E+09,9E+09,9E+09,9E+09]];
    CONST robtarget point_231_contact:=[[190,342,122],[0,0,1,0],[0, 0, 0, 0],[9E+09,9E+09,9E+09,9E+09,9E+09,9E+09]];
    CONST robtarget point_231_clearance:=[[190,342,132],[0,0,1,0],[0, 0, 0, 0],[9E+09,9E+09,9E+09,9E+09,9E+09,9E+09]];
    CONST robtarget point_232_clearance:=[[333,346,132],[0,0,1,0],[0, 0, 0, 0],[9E+09,9E+09,9E+09,9E+09,9E+09,9E+09]];
    CONST robtarget point_232_contact:=[[333,346,122],[0,0,1,0],[0, 0, 0, 0],[9E+09,9E+09,9E+09,9E+09,9E+09,9E+09]];
    CONST robtarget point_233_contact:=[[333,341,122],[0,0,1,0],[0, 0, 0, 0],[9E+09,9E+09,9E+09,9E+09,9E+09,9E+09]];
    CONST robtarget point_233_clearance:=[[333,341,132],[0,0,1,0],[0, 0, 0, 0],[9E+09,9E+09,9E+09,9E+09,9E+09,9E+09]];
    CONST robtarget point_234_clearance:=[[412,341,132],[0,0,1,0],[0, 0, 0, 0],[9E+09,9E+09,9E+09,9E+09,9E+09,9E+09]];
    CONST robtarget point_234_contact:=[[412,341,122],[0,0,1,0],[0, 0, 0, 0],[9E+09,9E+09,9E+09,9E+09,9E+09,9E+09]];
    CONST robtarget point_235_contact:=[[412,347,122],[0,0,1,0],[0, 0, 0, 0],[9E+09,9E+09,9E+09,9E+09,9E+09,9E+09]];
    CONST robtarget point_235_clearance:=[[412,347,132],[0,0,1,0],[0, 0, 0, 0],[9E+09,9E+09,9E+09,9E+09,9E+09,9E+09]];
    CONST robtarget point_236_clearance:=[[437,348,132],[0,0,1,0],[0, 0, 0, 0],[9E+09,9E+09,9E+09,9E+09,9E+09,9E+09]];
    CONST robtarget point_236_contact:=[[437,348,122],[0,0,1,0],[0, 0, 0, 0],[9E+09,9E+09,9E+09,9E+09,9E+09,9E+09]];
    CONST robtarget point_237_contact:=[[437,341,122],[0,0,1,0],[0, 0, 0, 0],[9E+09,9E+09,9E+09,9E+09,9E+09,9E+09]];
    CONST robtarget point_237_clearance:=[[437,341,132],[0,0,1,0],[0, 0, 0, 0],[9E+09,9E+09,9E+09,9E+09,9E+09,9E+09]];
    CONST robtarget point_238_clearance:=[[146,347,132],[0,0,1,0],[0, 0, 0, 0],[9E+09,9E+09,9E+09,9E+09,9E+09,9E+09]];
    CONST robtarget point_238_contact:=[[146,347,122],[0,0,1,0],[0, 0, 0, 0],[9E+09,9E+09,9E+09,9E+09,9E+09,9E+09]];
    CONST robtarget point_239_contact:=[[163,347,122],[0,0,1,0],[0, 0, 0, 0],[9E+09,9E+09,9E+09,9E+09,9E+09,9E+09]];
    CONST robtarget point_239_clearance:=[[163,347,132],[0,0,1,0],[0, 0, 0, 0],[9E+09,9E+09,9E+09,9E+09,9E+09,9E+09]];
    CONST robtarget point_240_clearance:=[[191,348,132],[0,0,1,0],[0, 0, 0, 0],[9E+09,9E+09,9E+09,9E+09,9E+09,9E+09]];
    CONST robtarget point_240_contact:=[[191,348,122],[0,0,1,0],[0, 0, 0, 0],[9E+09,9E+09,9E+09,9E+09,9E+09,9E+09]];
    CONST robtarget point_241_contact:=[[222,347,122],[0,0,1,0],[0, 0, 0, 0],[9E+09,9E+09,9E+09,9E+09,9E+09,9E+09]];
    CONST robtarget point_241_clearance:=[[222,347,132],[0,0,1,0],[0, 0, 0, 0],[9E+09,9E+09,9E+09,9E+09,9E+09,9E+09]];
    CONST robtarget point_242_clearance:=[[316,347,132],[0,0,1,0],[0, 0, 0, 0],[9E+09,9E+09,9E+09,9E+09,9E+09,9E+09]];
    CONST robtarget point_242_contact:=[[316,347,122],[0,0,1,0],[0, 0, 0, 0],[9E+09,9E+09,9E+09,9E+09,9E+09,9E+09]];
    CONST robtarget point_243_contact:=[[332,347,122],[0,0,1,0],[0, 0, 0, 0],[9E+09,9E+09,9E+09,9E+09,9E+09,9E+09]];
    CONST robtarget point_243_clearance:=[[332,347,132],[0,0,1,0],[0, 0, 0, 0],[9E+09,9E+09,9E+09,9E+09,9E+09,9E+09]];
    CONST robtarget point_244_clearance:=[[146,352,132],[0,0,1,0],[0, 0, 0, 0],[9E+09,9E+09,9E+09,9E+09,9E+09,9E+09]];
    CONST robtarget point_244_contact:=[[146,352,122],[0,0,1,0],[0, 0, 0, 0],[9E+09,9E+09,9E+09,9E+09,9E+09,9E+09]];
    CONST robtarget point_245_contact:=[[146,347,122],[0,0,1,0],[0, 0, 0, 0],[9E+09,9E+09,9E+09,9E+09,9E+09,9E+09]];
    CONST robtarget point_245_clearance:=[[146,347,132],[0,0,1,0],[0, 0, 0, 0],[9E+09,9E+09,9E+09,9E+09,9E+09,9E+09]];
    CONST robtarget point_246_clearance:=[[189,363,132],[0,0,1,0],[0, 0, 0, 0],[9E+09,9E+09,9E+09,9E+09,9E+09,9E+09]];
    CONST robtarget point_246_contact:=[[189,363,122],[0,0,1,0],[0, 0, 0, 0],[9E+09,9E+09,9E+09,9E+09,9E+09,9E+09]];
    CONST robtarget point_247_contact:=[[190,347,122],[0,0,1,0],[0, 0, 0, 0],[9E+09,9E+09,9E+09,9E+09,9E+09,9E+09]];
    CONST robtarget point_247_clearance:=[[190,347,132],[0,0,1,0],[0, 0, 0, 0],[9E+09,9E+09,9E+09,9E+09,9E+09,9E+09]];
    CONST robtarget point_248_clearance:=[[413,349,132],[0,0,1,0],[0, 0, 0, 0],[9E+09,9E+09,9E+09,9E+09,9E+09,9E+09]];
    CONST robtarget point_248_contact:=[[413,349,122],[0,0,1,0],[0, 0, 0, 0],[9E+09,9E+09,9E+09,9E+09,9E+09,9E+09]];
    CONST robtarget point_249_contact:=[[436,349,122],[0,0,1,0],[0, 0, 0, 0],[9E+09,9E+09,9E+09,9E+09,9E+09,9E+09]];
    CONST robtarget point_249_clearance:=[[436,349,132],[0,0,1,0],[0, 0, 0, 0],[9E+09,9E+09,9E+09,9E+09,9E+09,9E+09]];
    CONST robtarget point_250_clearance:=[[228,353,132],[0,0,1,0],[0, 0, 0, 0],[9E+09,9E+09,9E+09,9E+09,9E+09,9E+09]];
    CONST robtarget point_250_contact:=[[228,353,122],[0,0,1,0],[0, 0, 0, 0],[9E+09,9E+09,9E+09,9E+09,9E+09,9E+09]];
    CONST robtarget point_251_contact:=[[198,354,122],[0,0,1,0],[0, 0, 0, 0],[9E+09,9E+09,9E+09,9E+09,9E+09,9E+09]];
    CONST robtarget point_251_clearance:=[[198,354,132],[0,0,1,0],[0, 0, 0, 0],[9E+09,9E+09,9E+09,9E+09,9E+09,9E+09]];
    CONST robtarget point_252_clearance:=[[407,357,132],[0,0,1,0],[0, 0, 0, 0],[9E+09,9E+09,9E+09,9E+09,9E+09,9E+09]];
    CONST robtarget point_252_contact:=[[407,357,122],[0,0,1,0],[0, 0, 0, 0],[9E+09,9E+09,9E+09,9E+09,9E+09,9E+09]];
    CONST robtarget point_253_contact:=[[404,351,122],[0,0,1,0],[0, 0, 0, 0],[9E+09,9E+09,9E+09,9E+09,9E+09,9E+09]];
    CONST robtarget point_253_clearance:=[[404,351,132],[0,0,1,0],[0, 0, 0, 0],[9E+09,9E+09,9E+09,9E+09,9E+09,9E+09]];
    CONST robtarget point_254_clearance:=[[163,353,132],[0,0,1,0],[0, 0, 0, 0],[9E+09,9E+09,9E+09,9E+09,9E+09,9E+09]];
    CONST robtarget point_254_contact:=[[163,353,122],[0,0,1,0],[0, 0, 0, 0],[9E+09,9E+09,9E+09,9E+09,9E+09,9E+09]];
    CONST robtarget point_255_contact:=[[148,354,122],[0,0,1,0],[0, 0, 0, 0],[9E+09,9E+09,9E+09,9E+09,9E+09,9E+09]];
    CONST robtarget point_255_clearance:=[[148,354,132],[0,0,1,0],[0, 0, 0, 0],[9E+09,9E+09,9E+09,9E+09,9E+09,9E+09]];
    CONST robtarget point_256_clearance:=[[261,354,132],[0,0,1,0],[0, 0, 0, 0],[9E+09,9E+09,9E+09,9E+09,9E+09,9E+09]];
    CONST robtarget point_256_contact:=[[261,354,122],[0,0,1,0],[0, 0, 0, 0],[9E+09,9E+09,9E+09,9E+09,9E+09,9E+09]];
    CONST robtarget point_257_contact:=[[275,354,122],[0,0,1,0],[0, 0, 0, 0],[9E+09,9E+09,9E+09,9E+09,9E+09,9E+09]];
    CONST robtarget point_257_clearance:=[[275,354,132],[0,0,1,0],[0, 0, 0, 0],[9E+09,9E+09,9E+09,9E+09,9E+09,9E+09]];
    CONST robtarget point_258_clearance:=[[332,353,132],[0,0,1,0],[0, 0, 0, 0],[9E+09,9E+09,9E+09,9E+09,9E+09,9E+09]];
    CONST robtarget point_258_contact:=[[332,353,122],[0,0,1,0],[0, 0, 0, 0],[9E+09,9E+09,9E+09,9E+09,9E+09,9E+09]];
    CONST robtarget point_259_contact:=[[316,354,122],[0,0,1,0],[0, 0, 0, 0],[9E+09,9E+09,9E+09,9E+09,9E+09,9E+09]];
    CONST robtarget point_259_clearance:=[[316,354,132],[0,0,1,0],[0, 0, 0, 0],[9E+09,9E+09,9E+09,9E+09,9E+09,9E+09]];
    CONST robtarget point_260_clearance:=[[436,355,132],[0,0,1,0],[0, 0, 0, 0],[9E+09,9E+09,9E+09,9E+09,9E+09,9E+09]];
    CONST robtarget point_260_contact:=[[436,355,122],[0,0,1,0],[0, 0, 0, 0],[9E+09,9E+09,9E+09,9E+09,9E+09,9E+09]];
    CONST robtarget point_261_contact:=[[407,355,122],[0,0,1,0],[0, 0, 0, 0],[9E+09,9E+09,9E+09,9E+09,9E+09,9E+09]];
    CONST robtarget point_261_clearance:=[[407,355,132],[0,0,1,0],[0, 0, 0, 0],[9E+09,9E+09,9E+09,9E+09,9E+09,9E+09]];
    CONST robtarget point_262_clearance:=[[110,356,132],[0,0,1,0],[0, 0, 0, 0],[9E+09,9E+09,9E+09,9E+09,9E+09,9E+09]];
    CONST robtarget point_262_contact:=[[110,356,122],[0,0,1,0],[0, 0, 0, 0],[9E+09,9E+09,9E+09,9E+09,9E+09,9E+09]];
    CONST robtarget point_263_contact:=[[118,356,122],[0,0,1,0],[0, 0, 0, 0],[9E+09,9E+09,9E+09,9E+09,9E+09,9E+09]];
    CONST robtarget point_263_clearance:=[[118,356,132],[0,0,1,0],[0, 0, 0, 0],[9E+09,9E+09,9E+09,9E+09,9E+09,9E+09]];
    CONST robtarget point_264_clearance:=[[165,362,132],[0,0,1,0],[0, 0, 0, 0],[9E+09,9E+09,9E+09,9E+09,9E+09,9E+09]];
    CONST robtarget point_264_contact:=[[165,362,122],[0,0,1,0],[0, 0, 0, 0],[9E+09,9E+09,9E+09,9E+09,9E+09,9E+09]];
    CONST robtarget point_265_contact:=[[165,355,122],[0,0,1,0],[0, 0, 0, 0],[9E+09,9E+09,9E+09,9E+09,9E+09,9E+09]];
    CONST robtarget point_265_clearance:=[[165,355,132],[0,0,1,0],[0, 0, 0, 0],[9E+09,9E+09,9E+09,9E+09,9E+09,9E+09]];
    CONST robtarget point_266_clearance:=[[197,355,132],[0,0,1,0],[0, 0, 0, 0],[9E+09,9E+09,9E+09,9E+09,9E+09,9E+09]];
    CONST robtarget point_266_contact:=[[197,355,122],[0,0,1,0],[0, 0, 0, 0],[9E+09,9E+09,9E+09,9E+09,9E+09,9E+09]];
    CONST robtarget point_267_contact:=[[197,362,122],[0,0,1,0],[0, 0, 0, 0],[9E+09,9E+09,9E+09,9E+09,9E+09,9E+09]];
    CONST robtarget point_267_clearance:=[[197,362,132],[0,0,1,0],[0, 0, 0, 0],[9E+09,9E+09,9E+09,9E+09,9E+09,9E+09]];
    CONST robtarget point_268_clearance:=[[333,362,132],[0,0,1,0],[0, 0, 0, 0],[9E+09,9E+09,9E+09,9E+09,9E+09,9E+09]];
    CONST robtarget point_268_contact:=[[333,362,122],[0,0,1,0],[0, 0, 0, 0],[9E+09,9E+09,9E+09,9E+09,9E+09,9E+09]];
    CONST robtarget point_269_contact:=[[333,355,122],[0,0,1,0],[0, 0, 0, 0],[9E+09,9E+09,9E+09,9E+09,9E+09,9E+09]];
    CONST robtarget point_269_clearance:=[[333,355,132],[0,0,1,0],[0, 0, 0, 0],[9E+09,9E+09,9E+09,9E+09,9E+09,9E+09]];
    CONST robtarget point_270_clearance:=[[226,357,132],[0,0,1,0],[0, 0, 0, 0],[9E+09,9E+09,9E+09,9E+09,9E+09,9E+09]];
    CONST robtarget point_270_contact:=[[226,357,122],[0,0,1,0],[0, 0, 0, 0],[9E+09,9E+09,9E+09,9E+09,9E+09,9E+09]];
    CONST robtarget point_271_contact:=[[233,359,122],[0,0,1,0],[0, 0, 0, 0],[9E+09,9E+09,9E+09,9E+09,9E+09,9E+09]];
    CONST robtarget point_271_clearance:=[[233,359,132],[0,0,1,0],[0, 0, 0, 0],[9E+09,9E+09,9E+09,9E+09,9E+09,9E+09]];
    CONST robtarget point_272_clearance:=[[437,368,132],[0,0,1,0],[0, 0, 0, 0],[9E+09,9E+09,9E+09,9E+09,9E+09,9E+09]];
    CONST robtarget point_272_contact:=[[437,368,122],[0,0,1,0],[0, 0, 0, 0],[9E+09,9E+09,9E+09,9E+09,9E+09,9E+09]];
    CONST robtarget point_273_contact:=[[437,356,122],[0,0,1,0],[0, 0, 0, 0],[9E+09,9E+09,9E+09,9E+09,9E+09,9E+09]];
    CONST robtarget point_273_clearance:=[[437,356,132],[0,0,1,0],[0, 0, 0, 0],[9E+09,9E+09,9E+09,9E+09,9E+09,9E+09]];
    CONST robtarget point_274_clearance:=[[107,367,132],[0,0,1,0],[0, 0, 0, 0],[9E+09,9E+09,9E+09,9E+09,9E+09,9E+09]];
    CONST robtarget point_274_contact:=[[107,367,122],[0,0,1,0],[0, 0, 0, 0],[9E+09,9E+09,9E+09,9E+09,9E+09,9E+09]];
    CONST robtarget point_275_contact:=[[107,357,122],[0,0,1,0],[0, 0, 0, 0],[9E+09,9E+09,9E+09,9E+09,9E+09,9E+09]];
    CONST robtarget point_275_clearance:=[[107,357,132],[0,0,1,0],[0, 0, 0, 0],[9E+09,9E+09,9E+09,9E+09,9E+09,9E+09]];
    CONST robtarget point_276_clearance:=[[121,357,132],[0,0,1,0],[0, 0, 0, 0],[9E+09,9E+09,9E+09,9E+09,9E+09,9E+09]];
    CONST robtarget point_276_contact:=[[121,357,122],[0,0,1,0],[0, 0, 0, 0],[9E+09,9E+09,9E+09,9E+09,9E+09,9E+09]];
    CONST robtarget point_277_contact:=[[121,367,122],[0,0,1,0],[0, 0, 0, 0],[9E+09,9E+09,9E+09,9E+09,9E+09,9E+09]];
    CONST robtarget point_277_clearance:=[[121,367,132],[0,0,1,0],[0, 0, 0, 0],[9E+09,9E+09,9E+09,9E+09,9E+09,9E+09]];
    CONST robtarget point_278_clearance:=[[280,361,132],[0,0,1,0],[0, 0, 0, 0],[9E+09,9E+09,9E+09,9E+09,9E+09,9E+09]];
    CONST robtarget point_278_contact:=[[280,361,122],[0,0,1,0],[0, 0, 0, 0],[9E+09,9E+09,9E+09,9E+09,9E+09,9E+09]];
    CONST robtarget point_279_contact:=[[256,361,122],[0,0,1,0],[0, 0, 0, 0],[9E+09,9E+09,9E+09,9E+09,9E+09,9E+09]];
    CONST robtarget point_279_clearance:=[[256,361,132],[0,0,1,0],[0, 0, 0, 0],[9E+09,9E+09,9E+09,9E+09,9E+09,9E+09]];
    CONST robtarget point_280_clearance:=[[255,360,132],[0,0,1,0],[0, 0, 0, 0],[9E+09,9E+09,9E+09,9E+09,9E+09,9E+09]];
    CONST robtarget point_280_contact:=[[255,360,122],[0,0,1,0],[0, 0, 0, 0],[9E+09,9E+09,9E+09,9E+09,9E+09,9E+09]];
    CONST robtarget point_281_contact:=[[251,369,122],[0,0,1,0],[0, 0, 0, 0],[9E+09,9E+09,9E+09,9E+09,9E+09,9E+09]];
    CONST robtarget point_281_clearance:=[[251,369,132],[0,0,1,0],[0, 0, 0, 0],[9E+09,9E+09,9E+09,9E+09,9E+09,9E+09]];
    CONST robtarget point_282_clearance:=[[285,369,132],[0,0,1,0],[0, 0, 0, 0],[9E+09,9E+09,9E+09,9E+09,9E+09,9E+09]];
    CONST robtarget point_282_contact:=[[285,369,122],[0,0,1,0],[0, 0, 0, 0],[9E+09,9E+09,9E+09,9E+09,9E+09,9E+09]];
    CONST robtarget point_283_contact:=[[280,360,122],[0,0,1,0],[0, 0, 0, 0],[9E+09,9E+09,9E+09,9E+09,9E+09,9E+09]];
    CONST robtarget point_283_clearance:=[[280,360,132],[0,0,1,0],[0, 0, 0, 0],[9E+09,9E+09,9E+09,9E+09,9E+09,9E+09]];
    CONST robtarget point_284_clearance:=[[135,363,132],[0,0,1,0],[0, 0, 0, 0],[9E+09,9E+09,9E+09,9E+09,9E+09,9E+09]];
    CONST robtarget point_284_contact:=[[135,363,122],[0,0,1,0],[0, 0, 0, 0],[9E+09,9E+09,9E+09,9E+09,9E+09,9E+09]];
    CONST robtarget point_285_contact:=[[163,363,122],[0,0,1,0],[0, 0, 0, 0],[9E+09,9E+09,9E+09,9E+09,9E+09,9E+09]];
    CONST robtarget point_285_clearance:=[[163,363,132],[0,0,1,0],[0, 0, 0, 0],[9E+09,9E+09,9E+09,9E+09,9E+09,9E+09]];
    CONST robtarget point_286_clearance:=[[198,363,132],[0,0,1,0],[0, 0, 0, 0],[9E+09,9E+09,9E+09,9E+09,9E+09,9E+09]];
    CONST robtarget point_286_contact:=[[198,363,122],[0,0,1,0],[0, 0, 0, 0],[9E+09,9E+09,9E+09,9E+09,9E+09,9E+09]];
    CONST robtarget point_287_contact:=[[223,363,122],[0,0,1,0],[0, 0, 0, 0],[9E+09,9E+09,9E+09,9E+09,9E+09,9E+09]];
    CONST robtarget point_287_clearance:=[[223,363,132],[0,0,1,0],[0, 0, 0, 0],[9E+09,9E+09,9E+09,9E+09,9E+09,9E+09]];
    CONST robtarget point_288_clearance:=[[233,360,132],[0,0,1,0],[0, 0, 0, 0],[9E+09,9E+09,9E+09,9E+09,9E+09,9E+09]];
    CONST robtarget point_288_contact:=[[233,360,122],[0,0,1,0],[0, 0, 0, 0],[9E+09,9E+09,9E+09,9E+09,9E+09,9E+09]];
    CONST robtarget point_289_contact:=[[231,366,122],[0,0,1,0],[0, 0, 0, 0],[9E+09,9E+09,9E+09,9E+09,9E+09,9E+09]];
    CONST robtarget point_289_clearance:=[[231,366,132],[0,0,1,0],[0, 0, 0, 0],[9E+09,9E+09,9E+09,9E+09,9E+09,9E+09]];
    CONST robtarget point_290_clearance:=[[303,363,132],[0,0,1,0],[0, 0, 0, 0],[9E+09,9E+09,9E+09,9E+09,9E+09,9E+09]];
    CONST robtarget point_290_contact:=[[303,363,122],[0,0,1,0],[0, 0, 0, 0],[9E+09,9E+09,9E+09,9E+09,9E+09,9E+09]];
    CONST robtarget point_291_contact:=[[332,363,122],[0,0,1,0],[0, 0, 0, 0],[9E+09,9E+09,9E+09,9E+09,9E+09,9E+09]];
    CONST robtarget point_291_clearance:=[[332,363,132],[0,0,1,0],[0, 0, 0, 0],[9E+09,9E+09,9E+09,9E+09,9E+09,9E+09]];
    CONST robtarget point_292_clearance:=[[352,363,132],[0,0,1,0],[0, 0, 0, 0],[9E+09,9E+09,9E+09,9E+09,9E+09,9E+09]];
    CONST robtarget point_292_contact:=[[352,363,122],[0,0,1,0],[0, 0, 0, 0],[9E+09,9E+09,9E+09,9E+09,9E+09,9E+09]];
    CONST robtarget point_293_contact:=[[381,363,122],[0,0,1,0],[0, 0, 0, 0],[9E+09,9E+09,9E+09,9E+09,9E+09,9E+09]];
    CONST robtarget point_293_clearance:=[[381,363,132],[0,0,1,0],[0, 0, 0, 0],[9E+09,9E+09,9E+09,9E+09,9E+09,9E+09]];
    CONST robtarget point_294_clearance:=[[190,363,132],[0,0,1,0],[0, 0, 0, 0],[9E+09,9E+09,9E+09,9E+09,9E+09,9E+09]];
    CONST robtarget point_294_contact:=[[190,363,122],[0,0,1,0],[0, 0, 0, 0],[9E+09,9E+09,9E+09,9E+09,9E+09,9E+09]];
    CONST robtarget point_295_contact:=[[191,368,122],[0,0,1,0],[0, 0, 0, 0],[9E+09,9E+09,9E+09,9E+09,9E+09,9E+09]];
    CONST robtarget point_295_clearance:=[[191,368,132],[0,0,1,0],[0, 0, 0, 0],[9E+09,9E+09,9E+09,9E+09,9E+09,9E+09]];
    CONST robtarget point_296_clearance:=[[228,369,132],[0,0,1,0],[0, 0, 0, 0],[9E+09,9E+09,9E+09,9E+09,9E+09,9E+09]];
    CONST robtarget point_296_contact:=[[228,369,122],[0,0,1,0],[0, 0, 0, 0],[9E+09,9E+09,9E+09,9E+09,9E+09,9E+09]];
    CONST robtarget point_297_contact:=[[191,369,122],[0,0,1,0],[0, 0, 0, 0],[9E+09,9E+09,9E+09,9E+09,9E+09,9E+09]];
    CONST robtarget point_297_clearance:=[[191,369,132],[0,0,1,0],[0, 0, 0, 0],[9E+09,9E+09,9E+09,9E+09,9E+09,9E+09]];
    CONST robtarget point_298_clearance:=[[118,369,132],[0,0,1,0],[0, 0, 0, 0],[9E+09,9E+09,9E+09,9E+09,9E+09,9E+09]];
    CONST robtarget point_298_contact:=[[118,369,122],[0,0,1,0],[0, 0, 0, 0],[9E+09,9E+09,9E+09,9E+09,9E+09,9E+09]];
    CONST robtarget point_299_contact:=[[108,369,122],[0,0,1,0],[0, 0, 0, 0],[9E+09,9E+09,9E+09,9E+09,9E+09,9E+09]];
    CONST robtarget point_299_clearance:=[[108,369,132],[0,0,1,0],[0, 0, 0, 0],[9E+09,9E+09,9E+09,9E+09,9E+09,9E+09]];
    CONST robtarget point_300_clearance:=[[173,369,132],[0,0,1,0],[0, 0, 0, 0],[9E+09,9E+09,9E+09,9E+09,9E+09,9E+09]];
    CONST robtarget point_300_contact:=[[173,369,122],[0,0,1,0],[0, 0, 0, 0],[9E+09,9E+09,9E+09,9E+09,9E+09,9E+09]];
    CONST robtarget point_301_contact:=[[133,369,122],[0,0,1,0],[0, 0, 0, 0],[9E+09,9E+09,9E+09,9E+09,9E+09,9E+09]];
    CONST robtarget point_301_clearance:=[[133,369,132],[0,0,1,0],[0, 0, 0, 0],[9E+09,9E+09,9E+09,9E+09,9E+09,9E+09]];
    CONST robtarget point_302_clearance:=[[251,369,132],[0,0,1,0],[0, 0, 0, 0],[9E+09,9E+09,9E+09,9E+09,9E+09,9E+09]];
    CONST robtarget point_302_contact:=[[251,369,122],[0,0,1,0],[0, 0, 0, 0],[9E+09,9E+09,9E+09,9E+09,9E+09,9E+09]];
    CONST robtarget point_303_contact:=[[242,369,122],[0,0,1,0],[0, 0, 0, 0],[9E+09,9E+09,9E+09,9E+09,9E+09,9E+09]];
    CONST robtarget point_303_clearance:=[[242,369,132],[0,0,1,0],[0, 0, 0, 0],[9E+09,9E+09,9E+09,9E+09,9E+09,9E+09]];
    CONST robtarget point_304_clearance:=[[294,369,132],[0,0,1,0],[0, 0, 0, 0],[9E+09,9E+09,9E+09,9E+09,9E+09,9E+09]];
    CONST robtarget point_304_contact:=[[294,369,122],[0,0,1,0],[0, 0, 0, 0],[9E+09,9E+09,9E+09,9E+09,9E+09,9E+09]];
    CONST robtarget point_305_contact:=[[286,369,122],[0,0,1,0],[0, 0, 0, 0],[9E+09,9E+09,9E+09,9E+09,9E+09,9E+09]];
    CONST robtarget point_305_clearance:=[[286,369,132],[0,0,1,0],[0, 0, 0, 0],[9E+09,9E+09,9E+09,9E+09,9E+09,9E+09]];
    CONST robtarget point_306_clearance:=[[341,369,132],[0,0,1,0],[0, 0, 0, 0],[9E+09,9E+09,9E+09,9E+09,9E+09,9E+09]];
    CONST robtarget point_306_contact:=[[341,369,122],[0,0,1,0],[0, 0, 0, 0],[9E+09,9E+09,9E+09,9E+09,9E+09,9E+09]];
    CONST robtarget point_307_contact:=[[302,369,122],[0,0,1,0],[0, 0, 0, 0],[9E+09,9E+09,9E+09,9E+09,9E+09,9E+09]];
    CONST robtarget point_307_clearance:=[[302,369,132],[0,0,1,0],[0, 0, 0, 0],[9E+09,9E+09,9E+09,9E+09,9E+09,9E+09]];
    CONST robtarget point_308_clearance:=[[390,369,132],[0,0,1,0],[0, 0, 0, 0],[9E+09,9E+09,9E+09,9E+09,9E+09,9E+09]];
    CONST robtarget point_308_contact:=[[390,369,122],[0,0,1,0],[0, 0, 0, 0],[9E+09,9E+09,9E+09,9E+09,9E+09,9E+09]];
    CONST robtarget point_309_contact:=[[352,369,122],[0,0,1,0],[0, 0, 0, 0],[9E+09,9E+09,9E+09,9E+09,9E+09,9E+09]];
    CONST robtarget point_309_clearance:=[[352,369,132],[0,0,1,0],[0, 0, 0, 0],[9E+09,9E+09,9E+09,9E+09,9E+09,9E+09]];
    CONST robtarget point_310_clearance:=[[445,369,132],[0,0,1,0],[0, 0, 0, 0],[9E+09,9E+09,9E+09,9E+09,9E+09,9E+09]];
    CONST robtarget point_310_contact:=[[445,369,122],[0,0,1,0],[0, 0, 0, 0],[9E+09,9E+09,9E+09,9E+09,9E+09,9E+09]];
    CONST robtarget point_311_contact:=[[437,369,122],[0,0,1,0],[0, 0, 0, 0],[9E+09,9E+09,9E+09,9E+09,9E+09,9E+09]];
    CONST robtarget point_311_clearance:=[[437,369,132],[0,0,1,0],[0, 0, 0, 0],[9E+09,9E+09,9E+09,9E+09,9E+09,9E+09]];



    PROC main()
        Path_Calib;
        Path_Draw;
    ENDPROC
    LOCAL PROC Path_Calib()
        MoveAbsJ home,v500,fine,GS25_ParallelGripper\WObj:=Workobject_1;
        MoveL calib_1,v500,fine,GS25_ParallelGripper\WObj:=Workobject_1;
        MoveL calib_2,v500,fine,GS25_ParallelGripper\WObj:=Workobject_1;
        MoveL calib_3,v500,fine,GS25_ParallelGripper\WObj:=Workobject_1;
        MoveL calib_4,v500,fine,GS25_ParallelGripper\WObj:=Workobject_1;
        MoveL calib_1,v500,fine,GS25_ParallelGripper\WObj:=Workobject_1;
    ENDPROC

    LOCAL PROC Path_Draw()
        MoveL point_0_clearance,v500,fine,GS25_ParallelGripper\WObj:=Workobject_1;
        MoveL point_0_contact,v500,fine,GS25_ParallelGripper\WObj:=Workobject_1;
        MoveL point_1_contact,v500,fine,GS25_ParallelGripper\WObj:=Workobject_1;
        MoveL point_1_clearance,v500,fine,GS25_ParallelGripper\WObj:=Workobject_1;
        MoveL point_2_clearance,v500,fine,GS25_ParallelGripper\WObj:=Workobject_1;
        MoveL point_2_contact,v500,fine,GS25_ParallelGripper\WObj:=Workobject_1;
        MoveL point_3_contact,v500,fine,GS25_ParallelGripper\WObj:=Workobject_1;
        MoveL point_3_clearance,v500,fine,GS25_ParallelGripper\WObj:=Workobject_1;
        MoveL point_4_clearance,v500,fine,GS25_ParallelGripper\WObj:=Workobject_1;
        MoveL point_4_contact,v500,fine,GS25_ParallelGripper\WObj:=Workobject_1;
        MoveL point_5_contact,v500,fine,GS25_ParallelGripper\WObj:=Workobject_1;
        MoveL point_5_clearance,v500,fine,GS25_ParallelGripper\WObj:=Workobject_1;
        MoveL point_6_clearance,v500,fine,GS25_ParallelGripper\WObj:=Workobject_1;
        MoveL point_6_contact,v500,fine,GS25_ParallelGripper\WObj:=Workobject_1;
        MoveL point_7_contact,v500,fine,GS25_ParallelGripper\WObj:=Workobject_1;
        MoveL point_7_clearance,v500,fine,GS25_ParallelGripper\WObj:=Workobject_1;
        MoveL point_8_clearance,v500,fine,GS25_ParallelGripper\WObj:=Workobject_1;
        MoveL point_8_contact,v500,fine,GS25_ParallelGripper\WObj:=Workobject_1;
        MoveL point_9_contact,v500,fine,GS25_ParallelGripper\WObj:=Workobject_1;
        MoveL point_9_clearance,v500,fine,GS25_ParallelGripper\WObj:=Workobject_1;
        MoveL point_10_clearance,v500,fine,GS25_ParallelGripper\WObj:=Workobject_1;
        MoveL point_10_contact,v500,fine,GS25_ParallelGripper\WObj:=Workobject_1;
        MoveL point_11_contact,v500,fine,GS25_ParallelGripper\WObj:=Workobject_1;
        MoveL point_11_clearance,v500,fine,GS25_ParallelGripper\WObj:=Workobject_1;
        MoveL point_12_clearance,v500,fine,GS25_ParallelGripper\WObj:=Workobject_1;
        MoveL point_12_contact,v500,fine,GS25_ParallelGripper\WObj:=Workobject_1;
        MoveL point_13_contact,v500,fine,GS25_ParallelGripper\WObj:=Workobject_1;
        MoveL point_13_clearance,v500,fine,GS25_ParallelGripper\WObj:=Workobject_1;
        MoveL point_14_clearance,v500,fine,GS25_ParallelGripper\WObj:=Workobject_1;
        MoveL point_14_contact,v500,fine,GS25_ParallelGripper\WObj:=Workobject_1;
        MoveL point_15_contact,v500,fine,GS25_ParallelGripper\WObj:=Workobject_1;
        MoveL point_15_clearance,v500,fine,GS25_ParallelGripper\WObj:=Workobject_1;
        MoveL point_16_clearance,v500,fine,GS25_ParallelGripper\WObj:=Workobject_1;
        MoveL point_16_contact,v500,fine,GS25_ParallelGripper\WObj:=Workobject_1;
        MoveL point_17_contact,v500,fine,GS25_ParallelGripper\WObj:=Workobject_1;
        MoveL point_17_clearance,v500,fine,GS25_ParallelGripper\WObj:=Workobject_1;
        MoveL point_18_clearance,v500,fine,GS25_ParallelGripper\WObj:=Workobject_1;
        MoveL point_18_contact,v500,fine,GS25_ParallelGripper\WObj:=Workobject_1;
        MoveL point_19_contact,v500,fine,GS25_ParallelGripper\WObj:=Workobject_1;
        MoveL point_19_clearance,v500,fine,GS25_ParallelGripper\WObj:=Workobject_1;
        MoveL point_20_clearance,v500,fine,GS25_ParallelGripper\WObj:=Workobject_1;
        MoveL point_20_contact,v500,fine,GS25_ParallelGripper\WObj:=Workobject_1;
        MoveL point_21_contact,v500,fine,GS25_ParallelGripper\WObj:=Workobject_1;
        MoveL point_21_clearance,v500,fine,GS25_ParallelGripper\WObj:=Workobject_1;
        MoveL point_22_clearance,v500,fine,GS25_ParallelGripper\WObj:=Workobject_1;
        MoveL point_22_contact,v500,fine,GS25_ParallelGripper\WObj:=Workobject_1;
        MoveL point_23_contact,v500,fine,GS25_ParallelGripper\WObj:=Workobject_1;
        MoveL point_23_clearance,v500,fine,GS25_ParallelGripper\WObj:=Workobject_1;
        MoveL point_24_clearance,v500,fine,GS25_ParallelGripper\WObj:=Workobject_1;
        MoveL point_24_contact,v500,fine,GS25_ParallelGripper\WObj:=Workobject_1;
        MoveL point_25_contact,v500,fine,GS25_ParallelGripper\WObj:=Workobject_1;
        MoveL point_25_clearance,v500,fine,GS25_ParallelGripper\WObj:=Workobject_1;
        MoveL point_26_clearance,v500,fine,GS25_ParallelGripper\WObj:=Workobject_1;
        MoveL point_26_contact,v500,fine,GS25_ParallelGripper\WObj:=Workobject_1;
        MoveL point_27_contact,v500,fine,GS25_ParallelGripper\WObj:=Workobject_1;
        MoveL point_27_clearance,v500,fine,GS25_ParallelGripper\WObj:=Workobject_1;
        MoveL point_28_clearance,v500,fine,GS25_ParallelGripper\WObj:=Workobject_1;
        MoveL point_28_contact,v500,fine,GS25_ParallelGripper\WObj:=Workobject_1;
        MoveL point_29_contact,v500,fine,GS25_ParallelGripper\WObj:=Workobject_1;
        MoveL point_29_clearance,v500,fine,GS25_ParallelGripper\WObj:=Workobject_1;
        MoveL point_30_clearance,v500,fine,GS25_ParallelGripper\WObj:=Workobject_1;
        MoveL point_30_contact,v500,fine,GS25_ParallelGripper\WObj:=Workobject_1;
        MoveL point_31_contact,v500,fine,GS25_ParallelGripper\WObj:=Workobject_1;
        MoveL point_31_clearance,v500,fine,GS25_ParallelGripper\WObj:=Workobject_1;
        MoveL point_32_clearance,v500,fine,GS25_ParallelGripper\WObj:=Workobject_1;
        MoveL point_32_contact,v500,fine,GS25_ParallelGripper\WObj:=Workobject_1;
        MoveL point_33_contact,v500,fine,GS25_ParallelGripper\WObj:=Workobject_1;
        MoveL point_33_clearance,v500,fine,GS25_ParallelGripper\WObj:=Workobject_1;
        MoveL point_34_clearance,v500,fine,GS25_ParallelGripper\WObj:=Workobject_1;
        MoveL point_34_contact,v500,fine,GS25_ParallelGripper\WObj:=Workobject_1;
        MoveL point_35_contact,v500,fine,GS25_ParallelGripper\WObj:=Workobject_1;
        MoveL point_35_clearance,v500,fine,GS25_ParallelGripper\WObj:=Workobject_1;
        MoveL point_36_clearance,v500,fine,GS25_ParallelGripper\WObj:=Workobject_1;
        MoveL point_36_contact,v500,fine,GS25_ParallelGripper\WObj:=Workobject_1;
        MoveL point_37_contact,v500,fine,GS25_ParallelGripper\WObj:=Workobject_1;
        MoveL point_37_clearance,v500,fine,GS25_ParallelGripper\WObj:=Workobject_1;
        MoveL point_38_clearance,v500,fine,GS25_ParallelGripper\WObj:=Workobject_1;
        MoveL point_38_contact,v500,fine,GS25_ParallelGripper\WObj:=Workobject_1;
        MoveL point_39_contact,v500,fine,GS25_ParallelGripper\WObj:=Workobject_1;
        MoveL point_39_clearance,v500,fine,GS25_ParallelGripper\WObj:=Workobject_1;
        MoveL point_40_clearance,v500,fine,GS25_ParallelGripper\WObj:=Workobject_1;
        MoveL point_40_contact,v500,fine,GS25_ParallelGripper\WObj:=Workobject_1;
        MoveL point_41_contact,v500,fine,GS25_ParallelGripper\WObj:=Workobject_1;
        MoveL point_41_clearance,v500,fine,GS25_ParallelGripper\WObj:=Workobject_1;
        MoveL point_42_clearance,v500,fine,GS25_ParallelGripper\WObj:=Workobject_1;
        MoveL point_42_contact,v500,fine,GS25_ParallelGripper\WObj:=Workobject_1;
        MoveL point_43_contact,v500,fine,GS25_ParallelGripper\WObj:=Workobject_1;
        MoveL point_43_clearance,v500,fine,GS25_ParallelGripper\WObj:=Workobject_1;
        MoveL point_44_clearance,v500,fine,GS25_ParallelGripper\WObj:=Workobject_1;
        MoveL point_44_contact,v500,fine,GS25_ParallelGripper\WObj:=Workobject_1;
        MoveL point_45_contact,v500,fine,GS25_ParallelGripper\WObj:=Workobject_1;
        MoveL point_45_clearance,v500,fine,GS25_ParallelGripper\WObj:=Workobject_1;
        MoveL point_46_clearance,v500,fine,GS25_ParallelGripper\WObj:=Workobject_1;
        MoveL point_46_contact,v500,fine,GS25_ParallelGripper\WObj:=Workobject_1;
        MoveL point_47_contact,v500,fine,GS25_ParallelGripper\WObj:=Workobject_1;
        MoveL point_47_clearance,v500,fine,GS25_ParallelGripper\WObj:=Workobject_1;
        MoveL point_48_clearance,v500,fine,GS25_ParallelGripper\WObj:=Workobject_1;
        MoveL point_48_contact,v500,fine,GS25_ParallelGripper\WObj:=Workobject_1;
        MoveL point_49_contact,v500,fine,GS25_ParallelGripper\WObj:=Workobject_1;
        MoveL point_49_clearance,v500,fine,GS25_ParallelGripper\WObj:=Workobject_1;
        MoveL point_50_clearance,v500,fine,GS25_ParallelGripper\WObj:=Workobject_1;
        MoveL point_50_contact,v500,fine,GS25_ParallelGripper\WObj:=Workobject_1;
        MoveL point_51_contact,v500,fine,GS25_ParallelGripper\WObj:=Workobject_1;
        MoveL point_51_clearance,v500,fine,GS25_ParallelGripper\WObj:=Workobject_1;
        MoveL point_52_clearance,v500,fine,GS25_ParallelGripper\WObj:=Workobject_1;
        MoveL point_52_contact,v500,fine,GS25_ParallelGripper\WObj:=Workobject_1;
        MoveL point_53_contact,v500,fine,GS25_ParallelGripper\WObj:=Workobject_1;
        MoveL point_53_clearance,v500,fine,GS25_ParallelGripper\WObj:=Workobject_1;
        MoveL point_54_clearance,v500,fine,GS25_ParallelGripper\WObj:=Workobject_1;
        MoveL point_54_contact,v500,fine,GS25_ParallelGripper\WObj:=Workobject_1;
        MoveL point_55_contact,v500,fine,GS25_ParallelGripper\WObj:=Workobject_1;
        MoveL point_55_clearance,v500,fine,GS25_ParallelGripper\WObj:=Workobject_1;
        MoveL point_56_clearance,v500,fine,GS25_ParallelGripper\WObj:=Workobject_1;
        MoveL point_56_contact,v500,fine,GS25_ParallelGripper\WObj:=Workobject_1;
        MoveL point_57_contact,v500,fine,GS25_ParallelGripper\WObj:=Workobject_1;
        MoveL point_57_clearance,v500,fine,GS25_ParallelGripper\WObj:=Workobject_1;
        MoveL point_58_clearance,v500,fine,GS25_ParallelGripper\WObj:=Workobject_1;
        MoveL point_58_contact,v500,fine,GS25_ParallelGripper\WObj:=Workobject_1;
        MoveL point_59_contact,v500,fine,GS25_ParallelGripper\WObj:=Workobject_1;
        MoveL point_59_clearance,v500,fine,GS25_ParallelGripper\WObj:=Workobject_1;
        MoveL point_60_clearance,v500,fine,GS25_ParallelGripper\WObj:=Workobject_1;
        MoveL point_60_contact,v500,fine,GS25_ParallelGripper\WObj:=Workobject_1;
        MoveL point_61_contact,v500,fine,GS25_ParallelGripper\WObj:=Workobject_1;
        MoveL point_61_clearance,v500,fine,GS25_ParallelGripper\WObj:=Workobject_1;
        MoveL point_62_clearance,v500,fine,GS25_ParallelGripper\WObj:=Workobject_1;
        MoveL point_62_contact,v500,fine,GS25_ParallelGripper\WObj:=Workobject_1;
        MoveL point_63_contact,v500,fine,GS25_ParallelGripper\WObj:=Workobject_1;
        MoveL point_63_clearance,v500,fine,GS25_ParallelGripper\WObj:=Workobject_1;
        MoveL point_64_clearance,v500,fine,GS25_ParallelGripper\WObj:=Workobject_1;
        MoveL point_64_contact,v500,fine,GS25_ParallelGripper\WObj:=Workobject_1;
        MoveL point_65_contact,v500,fine,GS25_ParallelGripper\WObj:=Workobject_1;
        MoveL point_65_clearance,v500,fine,GS25_ParallelGripper\WObj:=Workobject_1;
        MoveL point_66_clearance,v500,fine,GS25_ParallelGripper\WObj:=Workobject_1;
        MoveL point_66_contact,v500,fine,GS25_ParallelGripper\WObj:=Workobject_1;
        MoveL point_67_contact,v500,fine,GS25_ParallelGripper\WObj:=Workobject_1;
        MoveL point_67_clearance,v500,fine,GS25_ParallelGripper\WObj:=Workobject_1;
        MoveL point_68_clearance,v500,fine,GS25_ParallelGripper\WObj:=Workobject_1;
        MoveL point_68_contact,v500,fine,GS25_ParallelGripper\WObj:=Workobject_1;
        MoveL point_69_contact,v500,fine,GS25_ParallelGripper\WObj:=Workobject_1;
        MoveL point_69_clearance,v500,fine,GS25_ParallelGripper\WObj:=Workobject_1;
        MoveL point_70_clearance,v500,fine,GS25_ParallelGripper\WObj:=Workobject_1;
        MoveL point_70_contact,v500,fine,GS25_ParallelGripper\WObj:=Workobject_1;
        MoveL point_71_contact,v500,fine,GS25_ParallelGripper\WObj:=Workobject_1;
        MoveL point_71_clearance,v500,fine,GS25_ParallelGripper\WObj:=Workobject_1;
        MoveL point_72_clearance,v500,fine,GS25_ParallelGripper\WObj:=Workobject_1;
        MoveL point_72_contact,v500,fine,GS25_ParallelGripper\WObj:=Workobject_1;
        MoveL point_73_contact,v500,fine,GS25_ParallelGripper\WObj:=Workobject_1;
        MoveL point_73_clearance,v500,fine,GS25_ParallelGripper\WObj:=Workobject_1;
        MoveL point_74_clearance,v500,fine,GS25_ParallelGripper\WObj:=Workobject_1;
        MoveL point_74_contact,v500,fine,GS25_ParallelGripper\WObj:=Workobject_1;
        MoveL point_75_contact,v500,fine,GS25_ParallelGripper\WObj:=Workobject_1;
        MoveL point_75_clearance,v500,fine,GS25_ParallelGripper\WObj:=Workobject_1;
        MoveL point_76_clearance,v500,fine,GS25_ParallelGripper\WObj:=Workobject_1;
        MoveL point_76_contact,v500,fine,GS25_ParallelGripper\WObj:=Workobject_1;
        MoveL point_77_contact,v500,fine,GS25_ParallelGripper\WObj:=Workobject_1;
        MoveL point_77_clearance,v500,fine,GS25_ParallelGripper\WObj:=Workobject_1;
        MoveL point_78_clearance,v500,fine,GS25_ParallelGripper\WObj:=Workobject_1;
        MoveL point_78_contact,v500,fine,GS25_ParallelGripper\WObj:=Workobject_1;
        MoveL point_79_contact,v500,fine,GS25_ParallelGripper\WObj:=Workobject_1;
        MoveL point_79_clearance,v500,fine,GS25_ParallelGripper\WObj:=Workobject_1;
        MoveL point_80_clearance,v500,fine,GS25_ParallelGripper\WObj:=Workobject_1;
        MoveL point_80_contact,v500,fine,GS25_ParallelGripper\WObj:=Workobject_1;
        MoveL point_81_contact,v500,fine,GS25_ParallelGripper\WObj:=Workobject_1;
        MoveL point_81_clearance,v500,fine,GS25_ParallelGripper\WObj:=Workobject_1;
        MoveL point_82_clearance,v500,fine,GS25_ParallelGripper\WObj:=Workobject_1;
        MoveL point_82_contact,v500,fine,GS25_ParallelGripper\WObj:=Workobject_1;
        MoveL point_83_contact,v500,fine,GS25_ParallelGripper\WObj:=Workobject_1;
        MoveL point_83_clearance,v500,fine,GS25_ParallelGripper\WObj:=Workobject_1;
        MoveL point_84_clearance,v500,fine,GS25_ParallelGripper\WObj:=Workobject_1;
        MoveL point_84_contact,v500,fine,GS25_ParallelGripper\WObj:=Workobject_1;
        MoveL point_85_contact,v500,fine,GS25_ParallelGripper\WObj:=Workobject_1;
        MoveL point_85_clearance,v500,fine,GS25_ParallelGripper\WObj:=Workobject_1;
        MoveL point_86_clearance,v500,fine,GS25_ParallelGripper\WObj:=Workobject_1;
        MoveL point_86_contact,v500,fine,GS25_ParallelGripper\WObj:=Workobject_1;
        MoveL point_87_contact,v500,fine,GS25_ParallelGripper\WObj:=Workobject_1;
        MoveL point_87_clearance,v500,fine,GS25_ParallelGripper\WObj:=Workobject_1;
        MoveL point_88_clearance,v500,fine,GS25_ParallelGripper\WObj:=Workobject_1;
        MoveL point_88_contact,v500,fine,GS25_ParallelGripper\WObj:=Workobject_1;
        MoveL point_89_contact,v500,fine,GS25_ParallelGripper\WObj:=Workobject_1;
        MoveL point_89_clearance,v500,fine,GS25_ParallelGripper\WObj:=Workobject_1;
        MoveL point_90_clearance,v500,fine,GS25_ParallelGripper\WObj:=Workobject_1;
        MoveL point_90_contact,v500,fine,GS25_ParallelGripper\WObj:=Workobject_1;
        MoveL point_91_contact,v500,fine,GS25_ParallelGripper\WObj:=Workobject_1;
        MoveL point_91_clearance,v500,fine,GS25_ParallelGripper\WObj:=Workobject_1;
        MoveL point_92_clearance,v500,fine,GS25_ParallelGripper\WObj:=Workobject_1;
        MoveL point_92_contact,v500,fine,GS25_ParallelGripper\WObj:=Workobject_1;
        MoveL point_93_contact,v500,fine,GS25_ParallelGripper\WObj:=Workobject_1;
        MoveL point_93_clearance,v500,fine,GS25_ParallelGripper\WObj:=Workobject_1;
        MoveL point_94_clearance,v500,fine,GS25_ParallelGripper\WObj:=Workobject_1;
        MoveL point_94_contact,v500,fine,GS25_ParallelGripper\WObj:=Workobject_1;
        MoveL point_95_contact,v500,fine,GS25_ParallelGripper\WObj:=Workobject_1;
        MoveL point_95_clearance,v500,fine,GS25_ParallelGripper\WObj:=Workobject_1;
        MoveL point_96_clearance,v500,fine,GS25_ParallelGripper\WObj:=Workobject_1;
        MoveL point_96_contact,v500,fine,GS25_ParallelGripper\WObj:=Workobject_1;
        MoveL point_97_contact,v500,fine,GS25_ParallelGripper\WObj:=Workobject_1;
        MoveL point_97_clearance,v500,fine,GS25_ParallelGripper\WObj:=Workobject_1;
        MoveL point_98_clearance,v500,fine,GS25_ParallelGripper\WObj:=Workobject_1;
        MoveL point_98_contact,v500,fine,GS25_ParallelGripper\WObj:=Workobject_1;
        MoveL point_99_contact,v500,fine,GS25_ParallelGripper\WObj:=Workobject_1;
        MoveL point_99_clearance,v500,fine,GS25_ParallelGripper\WObj:=Workobject_1;
        MoveL point_100_clearance,v500,fine,GS25_ParallelGripper\WObj:=Workobject_1;
        MoveL point_100_contact,v500,fine,GS25_ParallelGripper\WObj:=Workobject_1;
        MoveL point_101_contact,v500,fine,GS25_ParallelGripper\WObj:=Workobject_1;
        MoveL point_101_clearance,v500,fine,GS25_ParallelGripper\WObj:=Workobject_1;
        MoveL point_102_clearance,v500,fine,GS25_ParallelGripper\WObj:=Workobject_1;
        MoveL point_102_contact,v500,fine,GS25_ParallelGripper\WObj:=Workobject_1;
        MoveL point_103_contact,v500,fine,GS25_ParallelGripper\WObj:=Workobject_1;
        MoveL point_103_clearance,v500,fine,GS25_ParallelGripper\WObj:=Workobject_1;
        MoveL point_104_clearance,v500,fine,GS25_ParallelGripper\WObj:=Workobject_1;
        MoveL point_104_contact,v500,fine,GS25_ParallelGripper\WObj:=Workobject_1;
        MoveL point_105_contact,v500,fine,GS25_ParallelGripper\WObj:=Workobject_1;
        MoveL point_105_clearance,v500,fine,GS25_ParallelGripper\WObj:=Workobject_1;
        MoveL point_106_clearance,v500,fine,GS25_ParallelGripper\WObj:=Workobject_1;
        MoveL point_106_contact,v500,fine,GS25_ParallelGripper\WObj:=Workobject_1;
        MoveL point_107_contact,v500,fine,GS25_ParallelGripper\WObj:=Workobject_1;
        MoveL point_107_clearance,v500,fine,GS25_ParallelGripper\WObj:=Workobject_1;
        MoveL point_108_clearance,v500,fine,GS25_ParallelGripper\WObj:=Workobject_1;
        MoveL point_108_contact,v500,fine,GS25_ParallelGripper\WObj:=Workobject_1;
        MoveL point_109_contact,v500,fine,GS25_ParallelGripper\WObj:=Workobject_1;
        MoveL point_109_clearance,v500,fine,GS25_ParallelGripper\WObj:=Workobject_1;
        MoveL point_110_clearance,v500,fine,GS25_ParallelGripper\WObj:=Workobject_1;
        MoveL point_110_contact,v500,fine,GS25_ParallelGripper\WObj:=Workobject_1;
        MoveL point_111_contact,v500,fine,GS25_ParallelGripper\WObj:=Workobject_1;
        MoveL point_111_clearance,v500,fine,GS25_ParallelGripper\WObj:=Workobject_1;
        MoveL point_112_clearance,v500,fine,GS25_ParallelGripper\WObj:=Workobject_1;
        MoveL point_112_contact,v500,fine,GS25_ParallelGripper\WObj:=Workobject_1;
        MoveL point_113_contact,v500,fine,GS25_ParallelGripper\WObj:=Workobject_1;
        MoveL point_113_clearance,v500,fine,GS25_ParallelGripper\WObj:=Workobject_1;
        MoveL point_114_clearance,v500,fine,GS25_ParallelGripper\WObj:=Workobject_1;
        MoveL point_114_contact,v500,fine,GS25_ParallelGripper\WObj:=Workobject_1;
        MoveL point_115_contact,v500,fine,GS25_ParallelGripper\WObj:=Workobject_1;
        MoveL point_115_clearance,v500,fine,GS25_ParallelGripper\WObj:=Workobject_1;
        MoveL point_116_clearance,v500,fine,GS25_ParallelGripper\WObj:=Workobject_1;
        MoveL point_116_contact,v500,fine,GS25_ParallelGripper\WObj:=Workobject_1;
        MoveL point_117_contact,v500,fine,GS25_ParallelGripper\WObj:=Workobject_1;
        MoveL point_117_clearance,v500,fine,GS25_ParallelGripper\WObj:=Workobject_1;
        MoveL point_118_clearance,v500,fine,GS25_ParallelGripper\WObj:=Workobject_1;
        MoveL point_118_contact,v500,fine,GS25_ParallelGripper\WObj:=Workobject_1;
        MoveL point_119_contact,v500,fine,GS25_ParallelGripper\WObj:=Workobject_1;
        MoveL point_119_clearance,v500,fine,GS25_ParallelGripper\WObj:=Workobject_1;
        MoveL point_120_clearance,v500,fine,GS25_ParallelGripper\WObj:=Workobject_1;
        MoveL point_120_contact,v500,fine,GS25_ParallelGripper\WObj:=Workobject_1;
        MoveL point_121_contact,v500,fine,GS25_ParallelGripper\WObj:=Workobject_1;
        MoveL point_121_clearance,v500,fine,GS25_ParallelGripper\WObj:=Workobject_1;
        MoveL point_122_clearance,v500,fine,GS25_ParallelGripper\WObj:=Workobject_1;
        MoveL point_122_contact,v500,fine,GS25_ParallelGripper\WObj:=Workobject_1;
        MoveL point_123_contact,v500,fine,GS25_ParallelGripper\WObj:=Workobject_1;
        MoveL point_123_clearance,v500,fine,GS25_ParallelGripper\WObj:=Workobject_1;
        MoveL point_124_clearance,v500,fine,GS25_ParallelGripper\WObj:=Workobject_1;
        MoveL point_124_contact,v500,fine,GS25_ParallelGripper\WObj:=Workobject_1;
        MoveL point_125_contact,v500,fine,GS25_ParallelGripper\WObj:=Workobject_1;
        MoveL point_125_clearance,v500,fine,GS25_ParallelGripper\WObj:=Workobject_1;
        MoveL point_126_clearance,v500,fine,GS25_ParallelGripper\WObj:=Workobject_1;
        MoveL point_126_contact,v500,fine,GS25_ParallelGripper\WObj:=Workobject_1;
        MoveL point_127_contact,v500,fine,GS25_ParallelGripper\WObj:=Workobject_1;
        MoveL point_127_clearance,v500,fine,GS25_ParallelGripper\WObj:=Workobject_1;
        MoveL point_128_clearance,v500,fine,GS25_ParallelGripper\WObj:=Workobject_1;
        MoveL point_128_contact,v500,fine,GS25_ParallelGripper\WObj:=Workobject_1;
        MoveL point_129_contact,v500,fine,GS25_ParallelGripper\WObj:=Workobject_1;
        MoveL point_129_clearance,v500,fine,GS25_ParallelGripper\WObj:=Workobject_1;
        MoveL point_130_clearance,v500,fine,GS25_ParallelGripper\WObj:=Workobject_1;
        MoveL point_130_contact,v500,fine,GS25_ParallelGripper\WObj:=Workobject_1;
        MoveL point_131_contact,v500,fine,GS25_ParallelGripper\WObj:=Workobject_1;
        MoveL point_131_clearance,v500,fine,GS25_ParallelGripper\WObj:=Workobject_1;
        MoveL point_132_clearance,v500,fine,GS25_ParallelGripper\WObj:=Workobject_1;
        MoveL point_132_contact,v500,fine,GS25_ParallelGripper\WObj:=Workobject_1;
        MoveL point_133_contact,v500,fine,GS25_ParallelGripper\WObj:=Workobject_1;
        MoveL point_133_clearance,v500,fine,GS25_ParallelGripper\WObj:=Workobject_1;
        MoveL point_134_clearance,v500,fine,GS25_ParallelGripper\WObj:=Workobject_1;
        MoveL point_134_contact,v500,fine,GS25_ParallelGripper\WObj:=Workobject_1;
        MoveL point_135_contact,v500,fine,GS25_ParallelGripper\WObj:=Workobject_1;
        MoveL point_135_clearance,v500,fine,GS25_ParallelGripper\WObj:=Workobject_1;
        MoveL point_136_clearance,v500,fine,GS25_ParallelGripper\WObj:=Workobject_1;
        MoveL point_136_contact,v500,fine,GS25_ParallelGripper\WObj:=Workobject_1;
        MoveL point_137_contact,v500,fine,GS25_ParallelGripper\WObj:=Workobject_1;
        MoveL point_137_clearance,v500,fine,GS25_ParallelGripper\WObj:=Workobject_1;
        MoveL point_138_clearance,v500,fine,GS25_ParallelGripper\WObj:=Workobject_1;
        MoveL point_138_contact,v500,fine,GS25_ParallelGripper\WObj:=Workobject_1;
        MoveL point_139_contact,v500,fine,GS25_ParallelGripper\WObj:=Workobject_1;
        MoveL point_139_clearance,v500,fine,GS25_ParallelGripper\WObj:=Workobject_1;
        MoveL point_140_clearance,v500,fine,GS25_ParallelGripper\WObj:=Workobject_1;
        MoveL point_140_contact,v500,fine,GS25_ParallelGripper\WObj:=Workobject_1;
        MoveL point_141_contact,v500,fine,GS25_ParallelGripper\WObj:=Workobject_1;
        MoveL point_141_clearance,v500,fine,GS25_ParallelGripper\WObj:=Workobject_1;
        MoveL point_142_clearance,v500,fine,GS25_ParallelGripper\WObj:=Workobject_1;
        MoveL point_142_contact,v500,fine,GS25_ParallelGripper\WObj:=Workobject_1;
        MoveL point_143_contact,v500,fine,GS25_ParallelGripper\WObj:=Workobject_1;
        MoveL point_143_clearance,v500,fine,GS25_ParallelGripper\WObj:=Workobject_1;
        MoveL point_144_clearance,v500,fine,GS25_ParallelGripper\WObj:=Workobject_1;
        MoveL point_144_contact,v500,fine,GS25_ParallelGripper\WObj:=Workobject_1;
        MoveL point_145_contact,v500,fine,GS25_ParallelGripper\WObj:=Workobject_1;
        MoveL point_145_clearance,v500,fine,GS25_ParallelGripper\WObj:=Workobject_1;
        MoveL point_146_clearance,v500,fine,GS25_ParallelGripper\WObj:=Workobject_1;
        MoveL point_146_contact,v500,fine,GS25_ParallelGripper\WObj:=Workobject_1;
        MoveL point_147_contact,v500,fine,GS25_ParallelGripper\WObj:=Workobject_1;
        MoveL point_147_clearance,v500,fine,GS25_ParallelGripper\WObj:=Workobject_1;
        MoveL point_148_clearance,v500,fine,GS25_ParallelGripper\WObj:=Workobject_1;
        MoveL point_148_contact,v500,fine,GS25_ParallelGripper\WObj:=Workobject_1;
        MoveL point_149_contact,v500,fine,GS25_ParallelGripper\WObj:=Workobject_1;
        MoveL point_149_clearance,v500,fine,GS25_ParallelGripper\WObj:=Workobject_1;
        MoveL point_150_clearance,v500,fine,GS25_ParallelGripper\WObj:=Workobject_1;
        MoveL point_150_contact,v500,fine,GS25_ParallelGripper\WObj:=Workobject_1;
        MoveL point_151_contact,v500,fine,GS25_ParallelGripper\WObj:=Workobject_1;
        MoveL point_151_clearance,v500,fine,GS25_ParallelGripper\WObj:=Workobject_1;
        MoveL point_152_clearance,v500,fine,GS25_ParallelGripper\WObj:=Workobject_1;
        MoveL point_152_contact,v500,fine,GS25_ParallelGripper\WObj:=Workobject_1;
        MoveL point_153_contact,v500,fine,GS25_ParallelGripper\WObj:=Workobject_1;
        MoveL point_153_clearance,v500,fine,GS25_ParallelGripper\WObj:=Workobject_1;
        MoveL point_154_clearance,v500,fine,GS25_ParallelGripper\WObj:=Workobject_1;
        MoveL point_154_contact,v500,fine,GS25_ParallelGripper\WObj:=Workobject_1;
